; generated by Slic3r Prusa Edition 1.41.3+win64 on 2019-07-17 at 15:35:21

; 

; external perimeters extrusion width = 0.45mm
; perimeters extrusion width = 0.45mm
; infill extrusion width = 0.45mm
; solid infill extrusion width = 0.45mm
; top infill extrusion width = 0.40mm
; first layer extrusion width = 0.42mm

M73 P0 R180
M73 Q0 S181
M201 X1000 Y1000 Z1000 E5000 ; sets maximum accelerations, mm/sec^2
M203 X200 Y200 Z12 E120 ; sets maximum feedrates, mm/sec
M204 P1250 R1250 T1250 ; sets acceleration (P, T) and retract acceleration (R), mm/sec^2
M205 X8.00 Y8.00 Z0.40 E1.50 ; sets the jerk limits, mm/sec
M205 S0 T0 ; sets the minimum extruding and travel feed rate, mm/sec
M107
M115 U3.7.2 ; tell printer latest fw version
M83  ; extruder relative mode
M104 S215 ; set extruder temp
M140 S60 ; set bed temp
M190 S60 ; wait for bed temp
M109 S215 ; wait for extruder temp
G28 W ; home all without mesh bed level
G80 ; mesh bed leveling
G1 Y-3.0 F1000.0 ; go outside print area
G92 E0.0
G1 X60.0 E9.0  F1000.0 ; intro line
M73 Q0 S181
M73 P0 R180
G1 X100.0 E12.5  F1000.0 ; intro line
G92 E0.0
M221 S95
M900 K30 ; Filament gcode
G21 ; set units to millimeters
G90 ; use absolute coordinates
M83 ; use relative distances for extrusion
;BEFORE_LAYER_CHANGE
G92 E0.0
;0.2


G1 E-0.80000 F2100.00000
G1 Z0.600 F10800.000
;AFTER_LAYER_CHANGE
;0.2
G1 X101.166 Y83.308
G1 Z0.200
G1 E0.80000 F2100.00000
M204 S1000
G1 F1200
G1 X103.778 Y80.747 E0.11468
G1 X106.956 Y78.298 E0.12581
G1 X110.107 Y76.423 E0.11495
G1 X113.192 Y75.014 E0.10636
G1 X116.764 Y73.840 E0.11789
G1 X119.983 Y73.183 E0.10301
G1 X120.591 Y73.076 E0.01935
G1 X124.315 Y72.783 E0.11712
G1 X127.645 Y72.881 E0.10445
G1 X131.379 Y73.408 E0.11824
G1 X135.024 Y74.370 E0.11820
G1 X138.088 Y75.558 E0.10304
G1 X141.967 Y77.616 E0.13766
G1 X144.678 Y79.475 E0.10308
G1 X147.528 Y81.952 E0.11839
G1 X150.060 Y84.743 E0.11815
G1 X152.050 Y87.481 E0.10613
G1 X153.915 Y90.763 E0.11835
G1 X155.196 Y93.784 E0.10289
G1 X156.450 Y97.991 E0.13766
G1 X157.008 Y101.235 E0.10319
G1 X157.230 Y105.000 E0.11827
G1 X157.008 Y108.763 E0.11818
G1 X156.450 Y112.009 E0.10326
G1 X155.196 Y116.216 E0.13766
G1 X153.914 Y119.239 E0.10296
G1 X152.050 Y122.519 E0.11828
G1 X150.062 Y125.255 E0.10606
G1 X147.528 Y128.048 E0.11822
G1 X144.679 Y130.524 E0.11835
G1 X141.967 Y132.384 E0.10312
G1 X138.088 Y134.442 E0.13766
G1 X135.023 Y135.631 E0.10308
G1 X131.377 Y136.593 E0.11824
G1 X127.644 Y137.119 E0.11820
G1 X124.312 Y137.217 E0.10453
G1 X120.495 Y136.913 E0.12006
G1 X116.901 Y136.192 E0.11492
G1 X113.078 Y134.938 E0.12615
G1 X110.102 Y133.575 E0.10262
G1 X106.852 Y131.634 E0.11869
G1 X103.865 Y129.333 E0.11824
G1 X101.175 Y126.701 E0.11801
G1 X99.021 Y124.067 E0.10667
G1 X96.968 Y120.904 E0.11823
G1 X95.301 Y117.518 E0.11835
G1 X94.195 Y114.432 E0.10278
G1 X93.197 Y110.150 E0.13785
G1 X92.825 Y106.883 E0.10312
G1 X92.822 Y103.236 E0.11435
G1 X93.296 Y99.237 E0.12627
G1 X94.043 Y96.046 E0.10273
G1 X95.344 Y92.387 E0.12177
G1 X96.969 Y89.095 E0.11511
G1 X99.018 Y85.937 E0.11804
G1 X101.128 Y83.355 E0.10456
; PURGING FINISHED
G1 F8640
G1 X103.474 Y81.046 E-0.76000
G1 E-0.04000 F2100.00000
G1 Z0.800 F10800.000
G1 X103.301 Y85.132
G1 Z0.200
G1 E0.80000 F2100.00000
G1 F1200
G1 X105.727 Y82.770 E0.10615
G1 X108.405 Y80.705 E0.10605
G1 X111.224 Y79.005 E0.10320
G1 X114.384 Y77.564 E0.10889
G1 X117.514 Y76.547 E0.10320
G1 X120.829 Y75.876 E0.10604
G1 X124.199 Y75.590 E0.10605
G1 X127.490 Y75.684 E0.10322
G1 X130.838 Y76.163 E0.10605
G1 X134.022 Y77.000 E0.10320
G1 X137.260 Y78.256 E0.10889
G1 X140.170 Y79.792 E0.10319
G1 X142.964 Y81.699 E0.10605
G1 X145.519 Y83.915 E0.10605
G1 X147.745 Y86.340 E0.10319
G1 X149.784 Y89.151 E0.10889
G1 X151.402 Y92.017 E0.10320
G1 X152.717 Y95.133 E0.10604
G1 X153.666 Y98.380 E0.10605
G1 X154.227 Y101.623 E0.10321
G1 X154.421 Y105.030 E0.10700
G1 X154.227 Y108.377 E0.10510
G1 X153.666 Y111.620 E0.10322
G1 X152.717 Y114.867 E0.10605
G1 X151.402 Y117.983 E0.10604
G1 X149.737 Y120.927 E0.10605
G1 X147.802 Y123.590 E0.10322
G1 X145.519 Y126.085 E0.10605
G1 X142.964 Y128.301 E0.10604
G1 X140.170 Y130.208 E0.10605
G1 X137.259 Y131.745 E0.10322
G1 X134.109 Y132.976 E0.10605
G1 X130.838 Y133.837 E0.10604
G1 X127.580 Y134.305 E0.10320
G1 X124.108 Y134.406 E0.10889
G1 X120.829 Y134.124 E0.10320
G1 X117.514 Y133.453 E0.10605
G1 X114.298 Y132.406 E0.10605
G1 X111.305 Y131.038 E0.10319
G1 X108.333 Y129.240 E0.10889
G1 X105.727 Y127.230 E0.10321
G1 X103.303 Y124.871 E0.10605
G1 X101.219 Y122.322 E0.10322
G1 X99.388 Y119.479 E0.10605
G1 X97.895 Y116.444 E0.10604
G1 X96.789 Y113.344 E0.10320
G1 X96.002 Y109.961 E0.10889
G1 X95.627 Y106.691 E0.10320
G1 X95.627 Y103.309 E0.10605
G1 X96.016 Y99.949 E0.10605
G1 X96.762 Y96.743 E0.10322
G1 X97.895 Y93.556 E0.10605
G1 X99.348 Y90.602 E0.10321
G1 X101.220 Y87.677 E0.10889
G1 X103.263 Y85.178 E0.10121
G1 X102.971 Y84.939 F10800.000
G1 F1200
G1 X105.479 Y82.485 E0.11003
G1 X108.192 Y80.393 E0.10740
G1 X111.048 Y78.671 E0.10455
G1 X114.247 Y77.212 E0.11025
G1 X117.418 Y76.181 E0.10455
G1 X120.775 Y75.502 E0.10740
G1 X124.189 Y75.213 E0.10740
G1 X127.522 Y75.308 E0.10456
G1 X130.913 Y75.793 E0.10741
G1 X134.138 Y76.641 E0.10455
G1 X137.416 Y77.912 E0.11024
G1 X140.365 Y79.468 E0.10455
G1 X143.194 Y81.400 E0.10740
G1 X145.782 Y83.644 E0.10740
G1 X148.037 Y86.101 E0.10455
G1 X150.101 Y88.947 E0.11025
G1 X151.741 Y91.850 E0.10455
G1 X153.073 Y95.006 E0.10740
G1 X154.033 Y98.294 E0.10740
G1 X154.602 Y101.580 E0.10455
G1 X154.798 Y105.031 E0.10836
G1 X154.602 Y108.420 E0.10645
G1 X154.033 Y111.706 E0.10456
G1 X153.073 Y114.994 E0.10740
G1 X151.741 Y118.150 E0.10740
G1 X150.055 Y121.131 E0.10740
G1 X148.095 Y123.829 E0.10456
G1 X145.782 Y126.356 E0.10740
G1 X143.194 Y128.600 E0.10740
G1 X140.365 Y130.532 E0.10740
G1 X137.416 Y132.088 E0.10456
G1 X134.226 Y133.335 E0.10740
G1 X130.913 Y134.207 E0.10740
G1 X127.612 Y134.681 E0.10455
G1 X124.098 Y134.784 E0.11025
G1 X120.776 Y134.498 E0.10455
G1 X117.418 Y133.819 E0.10740
G1 X114.161 Y132.758 E0.10740
G1 X111.128 Y131.372 E0.10455
G1 X108.120 Y129.552 E0.11024
G1 X105.479 Y127.515 E0.10455
G1 X103.025 Y125.126 E0.10741
G1 X100.914 Y122.544 E0.10456
G1 X99.059 Y119.665 E0.10740
G1 X97.547 Y116.591 E0.10740
G1 X96.427 Y113.450 E0.10455
G1 X95.630 Y110.026 E0.11025
G1 X95.250 Y106.713 E0.10455
G1 X95.250 Y103.287 E0.10740
G1 X95.644 Y99.885 E0.10740
G1 X96.399 Y96.637 E0.10456
G1 X97.547 Y93.409 E0.10741
G1 X99.019 Y90.417 E0.10455
G1 X100.914 Y87.455 E0.11024
G1 X102.934 Y84.986 E0.10002
G1 X103.362 Y85.025 F10800.000
G1 F8640
G1 X105.281 Y82.679 E-0.76000
G1 E-0.04000 F2100.00000
G1 Z0.800 F10800.000
G1 X98.088 Y116.581
G1 Z0.200
G1 E0.80000 F2100.00000
G1 F1200
G1 X113.018 Y131.510 E0.66398
G1 X114.002 Y131.960 E0.03403
G1 X98.034 Y115.991 E0.71019
G1 X97.737 Y115.160 E0.02777
G1 X114.873 Y132.296 E0.76211
G1 X115.667 Y132.554 E0.02624
G1 X97.440 Y114.328 E0.81059
G1 X97.144 Y113.496 E0.02777
G1 X116.460 Y132.812 E0.85907
G1 X117.253 Y133.071 E0.02624
G1 X96.944 Y112.762 E0.90324
G1 X96.782 Y112.065 E0.02250
G1 X117.975 Y133.258 E0.94257
G1 X118.646 Y133.394 E0.02152
G1 X96.620 Y111.368 E0.97960
G1 X96.458 Y110.671 E0.02250
G1 X119.317 Y133.530 E1.01664
G1 X119.987 Y133.665 E0.02152
G1 X96.296 Y109.974 E1.05367
G1 X96.218 Y109.361 E0.01941
G1 X120.658 Y133.801 E1.08694
G1 X120.870 Y133.844 E0.00679
G1 X121.270 Y133.878 E0.01264
G1 X96.149 Y108.757 E1.11725
G1 X96.079 Y108.153 E0.01913
G1 X121.855 Y133.929 E1.14635
G1 X122.440 Y133.979 E0.01847
G1 X96.010 Y107.549 E1.17546
G1 X95.941 Y106.945 E0.01913
G1 X123.025 Y134.029 E1.20457
G1 X123.610 Y134.079 E0.01847
G1 X95.910 Y106.379 E1.23197
G1 X95.910 Y105.844 E0.01682
G1 X124.187 Y134.121 E1.25760
M73 Q0 S180
M73 P0 R179
G1 X124.706 Y134.106 E0.01635
G1 X95.910 Y105.309 E1.28071
G1 X95.910 Y104.774 E0.01682
G1 X125.226 Y134.091 E1.30383
G1 X125.746 Y134.076 E0.01635
G1 X95.910 Y104.239 E1.32695
G1 X95.910 Y103.705 E0.01682
G1 X126.266 Y134.060 E1.35006
G1 X126.785 Y134.045 E0.01635
G1 X95.926 Y103.186 E1.37246
G1 X95.981 Y102.706 E0.01518
G1 X127.305 Y134.030 E1.39311
G1 X127.556 Y134.023 E0.00788
G1 X127.798 Y133.988 E0.00770
G1 X96.037 Y102.227 E1.41255
G1 X96.092 Y101.748 E0.01518
G1 X128.266 Y133.921 E1.43088
G1 X128.733 Y133.854 E0.01486
G1 X96.148 Y101.268 E1.44921
G1 X96.203 Y100.789 E0.01518
G1 X129.201 Y133.786 E1.46754
G1 X129.668 Y133.719 E0.01486
G1 X96.259 Y100.310 E1.48587
G1 X96.330 Y99.846 E0.01475
G1 X130.136 Y133.652 E1.50349
G1 X130.604 Y133.585 E0.01486
G1 X96.431 Y99.412 E1.51980
G1 X96.532 Y98.978 E0.01401
G1 X131.044 Y133.490 E1.53490
G1 X131.467 Y133.379 E0.01377
G1 X96.633 Y98.544 E1.54924
G1 X96.734 Y98.110 E0.01401
G1 X131.891 Y133.267 E1.56358
G1 X132.314 Y133.156 E0.01377
G1 X96.835 Y97.676 E1.57793
G1 X96.936 Y97.242 E0.01401
G1 X132.738 Y133.044 E1.59227
G1 X133.161 Y132.933 E0.01377
G1 X97.038 Y96.810 E1.60656
G1 X97.178 Y96.415 E0.01317
G1 X133.585 Y132.821 E1.61915
G1 X134.008 Y132.710 E0.01377
G1 X97.319 Y96.021 E1.63174
G1 X97.459 Y95.626 E0.01317
G1 X134.394 Y132.561 E1.64265
G1 X134.778 Y132.411 E0.01298
G1 X97.599 Y95.232 E1.65352
G1 X97.740 Y94.837 E0.01317
G1 X135.163 Y132.260 E1.66438
G1 X135.547 Y132.110 E0.01298
G1 X97.880 Y94.443 E1.67524
M73 Q1 S179
M73 P1 R178
G1 X98.020 Y94.048 E0.01317
G1 X135.932 Y131.960 E1.68610
G1 X136.317 Y131.809 E0.01298
G1 X98.162 Y93.655 E1.69691
G1 X98.338 Y93.296 E0.01257
G1 X136.701 Y131.659 E1.70617
G1 X137.086 Y131.509 E0.01298
G1 X98.514 Y92.937 E1.71543
G1 X98.691 Y92.579 E0.01257
G1 X137.441 Y131.329 E1.72339
G1 X137.791 Y131.144 E0.01245
G1 X98.867 Y92.220 E1.73112
G1 X99.043 Y91.862 E0.01257
G1 X138.141 Y130.959 E1.73885
G1 X138.491 Y130.775 E0.01245
G1 X99.220 Y91.503 E1.74658
G1 X99.396 Y91.145 E0.01257
G1 X138.841 Y130.590 E1.75431
G1 X139.191 Y130.405 E0.01245
G1 X99.572 Y90.786 E1.76204
G1 X99.777 Y90.456 E0.01222
G1 X139.542 Y130.220 E1.76851
G1 X139.892 Y130.036 E0.01245
G1 X99.986 Y90.130 E1.77480
G1 X100.194 Y89.804 E0.01218
G1 X140.222 Y129.831 E1.78019
G1 X140.540 Y129.614 E0.01210
G1 X100.403 Y89.478 E1.78504
G1 X100.612 Y89.151 E0.01218
G1 X140.857 Y129.397 E1.78989
G1 X141.175 Y129.180 E0.01210
G1 X100.821 Y88.825 E1.79475
G1 X101.029 Y88.499 E0.01218
G1 X141.493 Y128.963 E1.79960
G1 X141.811 Y128.746 E0.01210
G1 X101.238 Y88.173 E1.80445
G1 X101.447 Y87.847 E0.01218
G1 X142.129 Y128.529 E1.80930
G1 X142.447 Y128.312 E0.01210
G1 X101.687 Y87.552 E1.81275
G1 X101.928 Y87.258 E0.01195
G1 X142.764 Y128.095 E1.81619
G1 X143.054 Y127.849 E0.01193
G1 X102.168 Y86.964 E1.81834
M73 Q1 S178
M73 P1 R177
G1 X102.409 Y86.670 E0.01195
G1 X143.340 Y127.601 E1.82038
G1 X143.626 Y127.352 E0.01192
G1 X102.650 Y86.375 E1.82242
G1 X102.890 Y86.081 E0.01195
G1 X143.913 Y127.104 E1.82446
G1 X144.199 Y126.855 E0.01192
G1 X103.131 Y85.787 E1.82650
G1 X103.372 Y85.493 E0.01195
G1 X144.486 Y126.607 E1.82854
G1 X144.772 Y126.358 E0.01192
G1 X103.625 Y85.211 E1.83001
G1 X103.896 Y84.947 E0.01190
G1 X145.059 Y126.110 E1.83070
G1 X145.343 Y125.859 E0.01192
G1 X104.167 Y84.683 E1.83127
G1 X104.438 Y84.419 E0.01190
G1 X145.598 Y125.580 E1.83059
G1 X145.854 Y125.301 E0.01191
G1 X104.709 Y84.156 E1.82990
G1 X104.980 Y83.892 E0.01190
G1 X146.109 Y125.021 E1.82921
G1 X146.365 Y124.742 E0.01191
G1 X105.251 Y83.628 E1.82853
G1 X105.522 Y83.364 E0.01190
G1 X146.621 Y124.463 E1.82784
G1 X146.876 Y124.183 E0.01191
G1 X105.793 Y83.100 E1.82716
G1 X106.081 Y82.854 E0.01193
G1 X147.132 Y123.904 E1.82570
G1 X147.387 Y123.625 E0.01191
G1 X106.383 Y82.621 E1.82363
G1 X106.685 Y82.388 E0.01199
G1 X147.636 Y123.338 E1.82125
G1 X147.861 Y123.029 E0.01204
G1 X106.987 Y82.155 E1.81783
G1 X107.289 Y81.922 E0.01199
G1 X148.086 Y122.719 E1.81440
G1 X148.311 Y122.409 E0.01204
G1 X107.591 Y81.690 E1.81098
G1 X107.894 Y81.457 E0.01199
G1 X148.536 Y122.099 E1.80756
M73 Q2 S177
M73 P2 R176
G1 X148.761 Y121.789 E0.01204
G1 X108.196 Y81.224 E1.80414
G1 X108.498 Y80.991 E0.01199
G1 X148.986 Y121.480 E1.80071
G1 X149.211 Y121.170 E0.01204
G1 X108.824 Y80.783 E1.79620
G1 X109.158 Y80.582 E0.01225
G1 X149.436 Y120.860 E1.79137
G1 X149.639 Y120.527 E0.01224
G1 X109.491 Y80.380 E1.78552
G1 X109.825 Y80.179 E0.01225
G1 X149.832 Y120.186 E1.77927
G1 X150.025 Y119.844 E0.01234
G1 X110.159 Y79.978 E1.77303
G1 X110.492 Y79.777 E0.01225
G1 X150.218 Y119.502 E1.76678
G1 X150.411 Y119.161 E0.01234
G1 X110.826 Y79.575 E1.76053
G1 X111.160 Y79.374 E0.01225
G1 X150.605 Y118.819 E1.75429
G1 X150.798 Y118.477 E0.01234
G1 X111.507 Y79.187 E1.74742
G1 X111.875 Y79.019 E0.01270
G1 X150.991 Y118.136 E1.73968
G1 X151.178 Y117.788 E0.01242
G1 X112.242 Y78.852 E1.73165
G1 X112.609 Y78.684 E0.01270
G1 X151.337 Y117.412 E1.72238
G1 X151.495 Y117.035 E0.01284
G1 X112.976 Y78.517 E1.71310
G1 X113.344 Y78.349 E0.01270
G1 X151.654 Y116.659 E1.70383
G1 X151.813 Y116.283 E0.01284
G1 X113.711 Y78.181 E1.69455
G1 X114.078 Y78.014 E0.01270
G1 X151.972 Y115.907 E1.68528
G1 X152.130 Y115.531 E0.01284
G1 X114.446 Y77.846 E1.67600
G1 X114.845 Y77.711 E0.01327
G1 X152.289 Y115.155 E1.66529
G1 X152.448 Y114.779 E0.01284
G1 X115.249 Y77.580 E1.65440
G1 X115.653 Y77.449 E0.01335
G1 X152.569 Y114.365 E1.64185
M73 Q2 S176
M73 P2 R175
G1 X152.690 Y113.951 E0.01356
G1 X116.056 Y77.318 E1.62927
G1 X116.460 Y77.186 E0.01335
G1 X152.811 Y113.537 E1.61669
G1 X152.932 Y113.123 E0.01356
G1 X116.864 Y77.055 E1.60411
G1 X117.267 Y76.924 E0.01335
G1 X153.053 Y112.709 E1.59154
G1 X153.174 Y112.295 E0.01356
G1 X117.680 Y76.802 E1.57857
G1 X118.125 Y76.712 E0.01427
G1 X153.295 Y111.882 E1.56417
G1 X153.407 Y111.459 E0.01376
G1 X118.570 Y76.622 E1.54936
G1 X119.014 Y76.531 E0.01427
G1 X153.485 Y111.003 E1.53308
G1 X153.564 Y110.547 E0.01455
G1 X119.459 Y76.441 E1.51681
G1 X119.904 Y76.351 E0.01427
G1 X153.643 Y110.091 E1.50053
G1 X153.722 Y109.635 E0.01455
G1 X120.349 Y76.261 E1.48426
G1 X120.794 Y76.171 E0.01427
G1 X153.801 Y109.179 E1.46799
G1 X153.880 Y108.723 E0.01455
G1 X121.279 Y76.121 E1.44993
G1 X121.772 Y76.080 E0.01556
G1 X153.950 Y108.258 E1.43113
G1 X153.980 Y107.753 E0.01593
G1 X122.265 Y76.038 E1.41050
G1 X122.758 Y75.996 E0.01556
G1 X154.009 Y107.247 E1.38987
G1 X154.038 Y106.742 E0.01593
G1 X123.251 Y75.954 E1.36924
G1 X123.744 Y75.913 E0.01556
G1 X154.068 Y106.236 E1.34861
G1 X154.097 Y105.730 E0.01593
G1 X124.241 Y75.875 E1.32782
G1 X124.792 Y75.890 E0.01732
G1 X154.126 Y105.225 E1.30463
G1 X154.137 Y105.030 E0.00613
G1 X154.117 Y104.681 E0.01099
G1 X125.342 Y75.906 E1.27976
G1 X125.893 Y75.922 E0.01732
G1 X154.085 Y104.114 E1.25384
G1 X154.053 Y103.547 E0.01786
G1 X126.443 Y75.937 E1.22792
G1 X126.994 Y75.953 E0.01732
G1 X154.021 Y102.980 E1.20200
G1 X153.988 Y102.413 E0.01786
G1 X127.555 Y75.979 E1.17561
G1 X128.179 Y76.069 E0.01983
G1 X153.956 Y101.846 E1.14642
G1 X153.945 Y101.655 E0.00600
G1 X153.871 Y101.226 E0.01371
G1 X128.803 Y76.158 E1.11487
M73 Q3 S174
M73 P3 R174
G1 X129.428 Y76.247 E0.01983
G1 X153.759 Y100.579 E1.08213
G1 X153.647 Y99.932 E0.02064
G1 X130.052 Y76.337 E1.04940
G1 X130.676 Y76.426 E0.01983
G1 X153.535 Y99.285 E1.01666
G1 X153.423 Y98.638 E0.02064
G1 X131.384 Y76.599 E0.98018
G1 X132.110 Y76.790 E0.02359
G1 X153.235 Y97.916 E0.93956
G1 X153.015 Y97.160 E0.02475
G1 X132.835 Y76.981 E0.89747
G1 X133.561 Y77.171 E0.02359
G1 X152.794 Y96.405 E0.85539
G1 X152.574 Y95.649 E0.02475
G1 X134.358 Y77.434 E0.81011
G1 X135.232 Y77.773 E0.02947
G1 X152.278 Y94.819 E0.75810
G1 X151.887 Y93.893 E0.03159
G1 X136.106 Y78.112 E0.70187
G1 X136.979 Y78.450 E0.02947
G1 X151.815 Y93.286 E0.65982
G1 F8640
G1 X149.488 Y90.959 E-0.76000
G1 E-0.04000 F2100.00000
G1 Z0.800 F10800.000
G1 X151.425 Y92.361
G1 Z0.200
G1 E0.80000 F2100.00000
G1 F1200
G1 X137.657 Y78.593 E0.61229
G1 F8640
G1 X139.985 Y80.921 E-0.76000
G1 E-0.04000 F2100.00000
G1 Z0.800 F10800.000
G1 X138.790 Y79.191
G1 Z0.200
G1 E0.80000 F2100.00000
G1 F1200
G1 X150.827 Y91.228 E0.53535
G1 F8640
G1 X148.500 Y88.901 E-0.76000
G1 E-0.04000 F2100.00000
G1 Z0.800 F10800.000
G1 X150.133 Y89.999
G1 Z0.200
G1 E0.80000 F2100.00000
G1 F1200
G1 X139.922 Y79.788 E0.45413
G1 F8640
