; generated by Slic3r Prusa Edition 1.41.3+win64 on 2019-11-08 at 12:24:04

; 

; external perimeters extrusion width = 0.45mm
; perimeters extrusion width = 0.45mm
; infill extrusion width = 0.45mm
; solid infill extrusion width = 0.45mm
; top infill extrusion width = 0.40mm
; first layer extrusion width = 0.42mm

M73 P0 R63
M73 Q0 S64
M201 X1000 Y1000 Z1000 E5000 ; sets maximum accelerations, mm/sec^2
M203 X200 Y200 Z12 E120 ; sets maximum feedrates, mm/sec
M204 P1250 R1250 T1250 ; sets acceleration (P, T) and retract acceleration (R), mm/sec^2
M205 X8.00 Y8.00 Z0.40 E1.50 ; sets the jerk limits, mm/sec
M205 S0 T0 ; sets the minimum extruding and travel feed rate, mm/sec
M107
M115 U3.8.0 ; tell printer latest fw version
M83  ; extruder relative mode
M104 S240 ; set extruder temp
M140 S85 ; set bed temp
M190 S85 ; wait for bed temp
M109 S240 ; wait for extruder temp
G28 W ; home all without mesh bed level
G80 ; mesh bed leveling
G1 Y-3.0 F1000.0 ; go outside print area
G92 E0.0
G1 X60.0 E9.0  F1000.0 ; intro line
M73 Q0 S64
M73 P0 R63
G1 X100.0 E12.5  F1000.0 ; intro line
G92 E0.0
M221 S95
M900 K45 ; Filament gcode
G21 ; set units to millimeters
G90 ; use absolute coordinates
M83 ; use relative distances for extrusion
;BEFORE_LAYER_CHANGE
G92 E0.0
;0.2


G1 E-0.80000 F2100.00000
G1 Z0.600 F10800.000
;AFTER_LAYER_CHANGE
;0.2
G1 X114.654 Y96.193
G1 Z0.200
G1 E0.80000 F2100.00000
M204 S1000
G1 F1200
G1 X115.912 Y94.900 E0.05657
G1 X116.953 Y94.049 E0.04214
G1 X118.213 Y93.227 E0.04718
G1 X119.536 Y92.557 E0.04649
G1 X120.927 Y92.036 E0.04658
G1 X122.378 Y91.666 E0.04695
G1 X123.810 Y91.464 E0.04535
G1 X151.754 Y89.517 E0.87827
G1 X153.053 Y89.756 E0.04143
G1 X160.328 Y92.569 E0.24456
G1 X161.246 Y93.086 E0.03302
G1 X161.933 Y93.671 E0.02830
G1 X162.620 Y94.523 E0.03434
G1 X163.030 Y95.312 E0.02788
G1 X166.497 Y103.182 E0.26964
G1 X166.726 Y104.223 E0.03341
G1 X166.746 Y105.096 E0.02736
G1 X166.491 Y106.440 E0.04291
G1 X163.617 Y113.836 E0.24878
G1 X163.158 Y114.615 E0.02835
G1 X162.604 Y115.262 E0.02670
G1 X161.606 Y116.045 E0.03980
G1 X153.696 Y119.590 E0.27177
G1 X152.896 Y119.899 E0.02689
G1 X151.898 Y120.082 E0.03182
G1 X123.850 Y118.540 E0.88076
G1 X122.388 Y118.336 E0.04629
G1 X120.926 Y117.964 E0.04727
G1 X119.522 Y117.436 E0.04704
G1 X118.088 Y116.698 E0.05058
G1 X116.836 Y115.861 E0.04720
G1 X115.790 Y114.993 E0.04263
G1 X114.858 Y114.041 E0.04176
G1 X113.849 Y112.768 E0.05094
G1 X113.074 Y111.517 E0.04615
G1 X112.417 Y110.135 E0.04797
G1 X111.963 Y108.830 E0.04331
G1 X111.572 Y107.070 E0.05655
G1 X111.429 Y105.726 E0.04237
G1 X111.430 Y104.243 E0.04648
G1 X111.596 Y102.756 E0.04692
G1 X111.923 Y101.299 E0.04681
G1 X112.410 Y99.881 E0.04704
G1 X113.038 Y98.550 E0.04614
G1 X113.820 Y97.273 E0.04695
G1 X114.617 Y96.240 E0.04091
; PURGING FINISHED
G1 F8640
G1 X115.912 Y94.900 E-0.43038
G1 X116.953 Y94.049 E-0.31032
G1 X117.023 Y94.003 E-0.01930
G1 E-0.04000 F2100.00000
G1 Z0.800 F10800.000
G1 X117.046 Y98.956
G1 Z0.200
G1 E0.80000 F2100.00000
G1 F1200
G1 X117.746 Y98.131 E0.03391
G1 X118.532 Y97.388 E0.03391
G1 X119.393 Y96.733 E0.03393
G1 X120.343 Y96.165 E0.03470
G1 X121.301 Y95.721 E0.03309
G1 X122.325 Y95.376 E0.03391
G1 X123.382 Y95.144 E0.03391
G1 X124.457 Y95.027 E0.03391
G1 X125.538 Y95.027 E0.03391
G1 X126.614 Y95.144 E0.03393
G1 X127.694 Y95.384 E0.03470
G1 X128.694 Y95.721 E0.03309
G1 X129.676 Y96.176 E0.03391
G1 X130.603 Y96.733 E0.03391
G1 X131.464 Y97.388 E0.03391
G1 X132.249 Y98.131 E0.03391
G1 X132.949 Y98.956 E0.03391
G1 X133.556 Y99.851 E0.03391
G1 X134.062 Y100.806 E0.03391
G1 X134.463 Y101.811 E0.03391
G1 X134.752 Y102.854 E0.03393
G1 X134.928 Y103.946 E0.03470
G1 X134.985 Y105.000 E0.03309
G1 X134.927 Y106.080 E0.03391
G1 X134.752 Y107.147 E0.03391
G1 X134.463 Y108.189 E0.03391
G1 X134.062 Y109.194 E0.03391
G1 X133.556 Y110.149 E0.03391
G1 X132.949 Y111.044 E0.03391
G1 X132.249 Y111.869 E0.03391
G1 X131.464 Y112.612 E0.03391
G1 X130.603 Y113.267 E0.03391
G1 X129.676 Y113.824 E0.03391
G1 X128.694 Y114.279 E0.03391
G1 X127.670 Y114.624 E0.03391
G1 X126.613 Y114.856 E0.03391
G1 X125.538 Y114.973 E0.03391
G1 X124.457 Y114.973 E0.03391
G1 X123.381 Y114.856 E0.03393
G1 X122.301 Y114.616 E0.03470
G1 X121.301 Y114.279 E0.03309
G1 X120.319 Y113.824 E0.03391
G1 X119.392 Y113.267 E0.03391
G1 X118.532 Y112.612 E0.03391
G1 X117.746 Y111.869 E0.03391
G1 X117.046 Y111.044 E0.03391
G1 X116.439 Y110.149 E0.03391
G1 X115.933 Y109.194 E0.03391
G1 X115.532 Y108.189 E0.03391
G1 X115.243 Y107.146 E0.03393
G1 X115.067 Y106.054 E0.03470
G1 X115.010 Y105.000 E0.03309
G1 X115.068 Y103.920 E0.03391
G1 X115.243 Y102.853 E0.03391
G1 X115.532 Y101.811 E0.03391
G1 X115.933 Y100.806 E0.03391
G1 X116.439 Y99.851 E0.03391
G1 X117.013 Y99.005 E0.03203
G1 X117.325 Y99.217 F10800.000
G1 F1200
G1 X118.021 Y98.391 E0.03386
G1 X118.776 Y97.675 E0.03263
G1 X119.605 Y97.045 E0.03264
G1 X120.519 Y96.498 E0.03342
G1 X121.440 Y96.072 E0.03182
G1 X122.427 Y95.740 E0.03263
G1 X123.443 Y95.516 E0.03263
G1 X124.477 Y95.404 E0.03263
G1 X125.518 Y95.404 E0.03263
G1 X126.553 Y95.516 E0.03264
G1 X127.593 Y95.748 E0.03342
G1 X128.555 Y96.072 E0.03182
G1 X129.499 Y96.509 E0.03263
G1 X130.391 Y97.046 E0.03263
G1 X131.219 Y97.675 E0.03263
G1 X131.975 Y98.391 E0.03263
G1 X132.648 Y99.184 E0.03263
G1 X133.232 Y100.045 E0.03263
G1 X133.720 Y100.965 E0.03263
G1 X134.105 Y101.931 E0.03263
G1 X134.383 Y102.934 E0.03264
G1 X134.553 Y103.987 E0.03342
G1 X134.608 Y105.000 E0.03182
G1 X134.552 Y106.039 E0.03263
G1 X134.383 Y107.066 E0.03263
G1 X134.105 Y108.069 E0.03263
G1 X133.720 Y109.035 E0.03263
G1 X133.232 Y109.955 E0.03263
G1 X132.648 Y110.816 E0.03263
G1 X131.975 Y111.609 E0.03263
G1 X131.219 Y112.325 E0.03263
G1 X130.391 Y112.954 E0.03263
G1 X129.499 Y113.491 E0.03263
G1 X128.555 Y113.928 E0.03263
G1 X127.569 Y114.260 E0.03263
G1 X126.552 Y114.484 E0.03263
G1 X125.518 Y114.596 E0.03263
G1 X124.477 Y114.596 E0.03263
G1 X123.443 Y114.484 E0.03264
G1 X122.402 Y114.252 E0.03342
G1 X121.440 Y113.928 E0.03182
G1 X120.496 Y113.491 E0.03263
G1 X119.604 Y112.954 E0.03263
G1 X118.776 Y112.325 E0.03263
G1 X118.021 Y111.609 E0.03263
G1 X117.347 Y110.816 E0.03263
G1 X116.763 Y109.955 E0.03263
G1 X116.275 Y109.035 E0.03263
G1 X115.890 Y108.069 E0.03263
G1 X115.612 Y107.066 E0.03264
G1 X115.442 Y106.013 E0.03342
G1 X115.387 Y105.000 E0.03182
G1 X115.444 Y103.961 E0.03263
G1 X115.612 Y102.934 E0.03263
G1 X115.890 Y101.931 E0.03263
G1 X116.275 Y100.965 E0.03263
G1 X116.763 Y100.045 E0.03263
G1 X117.291 Y99.266 E0.02951
G1 X117.169 Y98.848 F10800.000
G1 F8640
G1 X118.021 Y98.391 E-0.26314
G1 X118.776 Y97.675 E-0.24027
G1 X119.605 Y97.045 E-0.24034
G1 X119.665 Y97.009 E-0.01625
G1 E-0.04000 F2100.00000
G1 Z0.800 F10800.000
G1 X116.108 Y98.846
G1 Z0.200
G1 E0.80000 F2100.00000
G1 F1200
G1 X116.840 Y97.904 E0.03738
G1 X117.670 Y97.050 E0.03738
G1 X118.590 Y96.291 E0.03738
G1 X119.588 Y95.639 E0.03738
G1 X120.651 Y95.100 E0.03738
G1 X121.768 Y94.682 E0.03738
G1 X122.923 Y94.389 E0.03738
G1 X124.104 Y94.225 E0.03737
G1 X125.305 Y94.193 E0.03766
G1 X126.475 Y94.290 E0.03683
G1 X127.646 Y94.517 E0.03738
G1 X128.783 Y94.873 E0.03738
G1 X129.875 Y95.351 E0.03738
G1 X130.908 Y95.947 E0.03738
G1 X131.869 Y96.652 E0.03738
G1 X132.746 Y97.459 E0.03738
G1 X133.529 Y98.358 E0.03738
G1 X134.208 Y99.338 E0.03738
G1 X134.767 Y100.371 E0.03683
G1 X135.224 Y101.491 E0.03794
G1 X135.548 Y102.638 E0.03736
G1 X135.744 Y103.814 E0.03738
G1 X135.810 Y105.000 E0.03725
G1 X135.745 Y106.182 E0.03711
G1 X135.548 Y107.362 E0.03752
G1 X135.224 Y108.509 E0.03736
G1 X134.767 Y109.629 E0.03794
G1 X134.208 Y110.662 E0.03683
G1 X133.529 Y111.642 E0.03738
G1 X132.746 Y112.541 E0.03738
G1 X131.869 Y113.348 E0.03738
G1 X130.908 Y114.054 E0.03738
G1 X129.891 Y114.641 E0.03683
G1 X128.783 Y115.128 E0.03793
G1 X127.646 Y115.483 E0.03737
G1 X126.475 Y115.710 E0.03738
G1 X125.296 Y115.808 E0.03711
G1 X124.113 Y115.776 E0.03711
G1 X122.923 Y115.611 E0.03766
G1 X121.768 Y115.318 E0.03737
G1 X120.651 Y114.900 E0.03738
G1 X119.588 Y114.361 E0.03738
G1 X118.590 Y113.709 E0.03738
G1 X117.670 Y112.950 E0.03738
G1 X116.840 Y112.096 E0.03738
G1 X116.108 Y111.154 E0.03738
G1 X115.493 Y110.153 E0.03683
G1 X114.983 Y109.075 E0.03738
G1 X114.596 Y107.949 E0.03737
G1 X114.332 Y106.768 E0.03793
G1 X114.202 Y105.592 E0.03710
G1 X114.202 Y104.408 E0.03710
G1 X114.334 Y103.215 E0.03766
G1 X114.591 Y102.069 E0.03682
G1 X114.983 Y100.924 E0.03793
G1 X115.493 Y99.847 E0.03738
G1 X116.077 Y98.897 E0.03495
G1 X115.755 Y98.700 F10800.000
G1 F1200
G1 X116.555 Y97.657 E0.04120
G1 X117.414 Y96.772 E0.03868
G1 X118.366 Y95.987 E0.03868
G1 X119.399 Y95.312 E0.03868
G1 X120.500 Y94.754 E0.03868
G1 X121.655 Y94.321 E0.03868
G1 X122.851 Y94.018 E0.03868
G1 X124.073 Y93.849 E0.03868
G1 X125.315 Y93.815 E0.03897
G1 X126.527 Y93.916 E0.03813
G1 X127.738 Y94.151 E0.03868
G1 X128.916 Y94.519 E0.03868
G1 X130.046 Y95.014 E0.03868
G1 X131.114 Y95.630 E0.03868
G1 X132.109 Y96.361 E0.03868
G1 X133.017 Y97.196 E0.03868
G1 X133.827 Y98.126 E0.03868
G1 X134.530 Y99.140 E0.03868
G1 X135.109 Y100.209 E0.03813
G1 X135.581 Y101.368 E0.03924
G1 X135.917 Y102.555 E0.03868
G1 X136.120 Y103.772 E0.03868
G1 X136.187 Y105.000 E0.03855
G1 X136.120 Y106.223 E0.03841
G1 X135.917 Y107.445 E0.03882
G1 X135.581 Y108.632 E0.03868
G1 X135.109 Y109.791 E0.03924
G1 X134.530 Y110.860 E0.03813
G1 X133.827 Y111.874 E0.03868
G1 X133.017 Y112.804 E0.03868
G1 X132.109 Y113.639 E0.03868
G1 X131.114 Y114.370 E0.03868
G1 X130.061 Y114.978 E0.03813
G1 X128.916 Y115.481 E0.03924
G1 X127.738 Y115.849 E0.03868
G1 X126.527 Y116.084 E0.03868
G1 X125.306 Y116.185 E0.03841
G1 X124.082 Y116.152 E0.03841
G1 X122.851 Y115.982 E0.03896
G1 X121.655 Y115.679 E0.03868
G1 X120.500 Y115.246 E0.03868
G1 X119.399 Y114.688 E0.03868
G1 X118.366 Y114.013 E0.03868
G1 X117.414 Y113.228 E0.03868
G1 X116.555 Y112.343 E0.03868
G1 X115.798 Y111.369 E0.03868
G1 X115.161 Y110.333 E0.03813
G1 X114.633 Y109.218 E0.03869
G1 X114.232 Y108.051 E0.03868
G1 X113.959 Y106.830 E0.03924
G1 X113.825 Y105.612 E0.03841
G1 X113.825 Y104.388 E0.03841
G1 X113.962 Y103.152 E0.03897
G1 X114.227 Y101.966 E0.03812
G1 X114.633 Y100.782 E0.03924
G1 X115.161 Y99.667 E0.03868
G1 X115.724 Y98.751 E0.03372
G1 X116.154 Y98.730 F10800.000
G1 F8640
G1 X116.555 Y97.657 E-0.31719
G1 X117.414 Y96.772 E-0.28487
G1 X117.942 Y96.337 E-0.15794
G1 E-0.04000 F2100.00000
G1 Z0.800 F10800.000
G1 X123.184 Y103.776
G1 Z0.200
G1 E0.80000 F2100.00000
G1 F1200
G1 X123.391 Y103.513 E0.01050
G1 X123.640 Y103.283 E0.01062
G1 X123.917 Y103.098 E0.01047
G1 X124.199 Y102.962 E0.00980
G1 X124.498 Y102.870 E0.00982
G1 X124.828 Y102.818 E0.01048
G1 X125.167 Y102.818 E0.01062
G1 X125.497 Y102.870 E0.01048
G1 X125.796 Y102.962 E0.00982
G1 X126.078 Y103.098 E0.00980
G1 X126.355 Y103.283 E0.01047
G1 X126.604 Y103.513 E0.01062
G1 X126.812 Y103.776 E0.01050
G1 X126.968 Y104.048 E0.00984
G1 X127.091 Y104.362 E0.01056
G1 X127.163 Y104.688 E0.01048
G1 X127.186 Y105.000 E0.00981
G1 X127.163 Y105.312 E0.00981
G1 X127.091 Y105.638 E0.01048
G1 X126.968 Y105.952 E0.01056
G1 X126.812 Y106.224 E0.00984
G1 X126.604 Y106.487 E0.01050
G1 X126.355 Y106.717 E0.01062
G1 X126.078 Y106.902 E0.01047
G1 X125.796 Y107.038 E0.00980
G1 X125.497 Y107.130 E0.00982
G1 X125.167 Y107.182 E0.01048
G1 X124.828 Y107.182 E0.01062
G1 X124.498 Y107.130 E0.01048
G1 X124.199 Y107.038 E0.00982
G1 X123.917 Y106.902 E0.00980
G1 X123.640 Y106.717 E0.01047
G1 X123.391 Y106.487 E0.01062
G1 X123.184 Y106.224 E0.01050
G1 X123.027 Y105.952 E0.00984
G1 X122.904 Y105.638 E0.01056
G1 X122.832 Y105.312 E0.01048
G1 X122.809 Y105.000 E0.00981
G1 X122.832 Y104.688 E0.00981
G1 X122.904 Y104.362 E0.01048
G1 X123.027 Y104.048 E0.01056
G1 X123.154 Y103.828 E0.00796
G1 X123.480 Y104.017 F10800.000
G1 F1200
G1 X123.669 Y103.770 E0.00974
G1 X123.874 Y103.580 E0.00876
G1 X124.105 Y103.426 E0.00870
G1 X124.337 Y103.314 E0.00808
G1 X124.583 Y103.238 E0.00809
G1 X124.858 Y103.195 E0.00871
G1 X125.137 Y103.195 E0.00876
G1 X125.412 Y103.238 E0.00871
G1 X125.658 Y103.314 E0.00809
G1 X125.890 Y103.426 E0.00808
G1 X126.121 Y103.580 E0.00870
G1 X126.326 Y103.770 E0.00876
G1 X126.499 Y103.988 E0.00872
G1 X126.628 Y104.212 E0.00810
G1 X126.729 Y104.472 E0.00874
G1 X126.789 Y104.743 E0.00871
G1 X126.808 Y105.000 E0.00808
G1 X126.789 Y105.257 E0.00808
G1 X126.729 Y105.528 E0.00871
G1 X126.628 Y105.788 E0.00874
G1 X126.499 Y106.012 E0.00810
G1 X126.326 Y106.230 E0.00872
G1 X126.121 Y106.420 E0.00876
G1 X125.890 Y106.574 E0.00870
G1 X125.658 Y106.686 E0.00808
G1 X125.412 Y106.762 E0.00809
G1 X125.137 Y106.805 E0.00871
G1 X124.858 Y106.805 E0.00876
G1 X124.583 Y106.762 E0.00871
G1 X124.337 Y106.686 E0.00809
G1 X124.105 Y106.574 E0.00808
G1 X123.874 Y106.420 E0.00870
G1 X123.669 Y106.230 E0.00876
G1 X123.497 Y106.012 E0.00872
G1 X123.367 Y105.788 E0.00810
G1 X123.266 Y105.528 E0.00874
G1 X123.206 Y105.257 E0.00871
G1 X123.187 Y105.000 E0.00808
G1 X123.206 Y104.743 E0.00808
G1 X123.266 Y104.472 E0.00871
G1 X123.367 Y104.212 E0.00874
G1 X123.450 Y104.069 E0.00519
G1 X123.341 Y103.739 F10800.000
G1 F8640
G1 X123.669 Y103.770 E-0.08546
G1 X123.874 Y103.580 E-0.06453
G1 X124.105 Y103.426 E-0.06411
G1 X124.337 Y103.314 E-0.05950
G1 X124.583 Y103.238 E-0.05955
G1 X124.858 Y103.195 E-0.06416
G1 X125.137 Y103.195 E-0.06453
G1 X125.412 Y103.238 E-0.06416
G1 X125.658 Y103.314 E-0.05955
G1 X125.890 Y103.426 E-0.05950
G1 X126.121 Y103.580 E-0.06411
G1 X126.283 Y103.730 E-0.05084
G1 E-0.04000 F2100.00000
G1 Z0.800 F10800.000
G1 X121.000 Y102.714
G1 Z0.200
G1 E0.80000 F2100.00000
G1 F1200
G1 X121.092 Y102.546 E0.00602
G1 X121.392 Y102.124 E0.01622
G1 X121.736 Y101.739 E0.01622
G1 X122.122 Y101.394 E0.01622
G1 X122.544 Y101.095 E0.01622
G1 X122.996 Y100.845 E0.01622
G1 X123.474 Y100.647 E0.01622
G1 X123.971 Y100.504 E0.01622
G1 X124.480 Y100.417 E0.01619
G1 X125.011 Y100.389 E0.01667
G1 X125.514 Y100.417 E0.01578
G1 X126.024 Y100.504 E0.01622
G1 X126.521 Y100.647 E0.01622
G1 X126.999 Y100.845 E0.01622
G1 X127.451 Y101.095 E0.01622
G1 X127.873 Y101.394 E0.01622
G1 X128.259 Y101.739 E0.01622
G1 X128.603 Y102.124 E0.01622
G1 X128.903 Y102.546 E0.01622
G1 X129.153 Y102.999 E0.01622
G1 X129.351 Y103.477 E0.01622
G1 X129.494 Y103.974 E0.01622
G1 X129.581 Y104.484 E0.01622
G1 X129.610 Y105.000 E0.01622
G1 X129.581 Y105.516 E0.01622
G1 X129.494 Y106.026 E0.01622
G1 X129.351 Y106.523 E0.01622
G1 X129.153 Y107.001 E0.01622
G1 X128.903 Y107.454 E0.01622
G1 X128.603 Y107.876 E0.01622
G1 X128.259 Y108.261 E0.01622
G1 X127.873 Y108.606 E0.01622
G1 X127.451 Y108.905 E0.01622
G1 X126.999 Y109.155 E0.01622
G1 X126.521 Y109.353 E0.01622
G1 X126.024 Y109.496 E0.01622
G1 X125.514 Y109.583 E0.01622
G1 X124.998 Y109.612 E0.01622
G1 X124.481 Y109.583 E0.01622
G1 X123.971 Y109.496 E0.01622
G1 X123.474 Y109.353 E0.01622
G1 X122.996 Y109.155 E0.01622
G1 X122.544 Y108.905 E0.01622
G1 X122.122 Y108.606 E0.01622
G1 X121.737 Y108.262 E0.01619
G1 X121.384 Y107.864 E0.01667
G1 X121.092 Y107.454 E0.01578
G1 X120.842 Y107.001 E0.01622
G1 X120.644 Y106.523 E0.01622
G1 X120.501 Y106.026 E0.01622
G1 X120.415 Y105.516 E0.01622
G1 X120.386 Y105.001 E0.01619
G1 X120.417 Y104.470 E0.01667
G1 X120.501 Y103.974 E0.01578
G1 X120.644 Y103.477 E0.01622
G1 X120.842 Y102.999 E0.01622
G1 X120.971 Y102.767 E0.00831
G1 X120.773 Y102.345 F10800.000
G1 F1200
G1 X121.096 Y101.889 E0.01754
G1 X121.469 Y101.472 E0.01754
G1 X121.887 Y101.099 E0.01754
G1 X122.343 Y100.775 E0.01754
G1 X122.833 Y100.504 E0.01754
G1 X123.350 Y100.290 E0.01754
G1 X123.887 Y100.135 E0.01754
G1 X124.439 Y100.042 E0.01754
G1 X125.012 Y100.011 E0.01800
G1 X125.556 Y100.042 E0.01710
G1 X126.108 Y100.135 E0.01754
G1 X126.646 Y100.290 E0.01754
G1 X127.162 Y100.504 E0.01754
G1 X127.652 Y100.775 E0.01754
G1 X128.109 Y101.099 E0.01754
G1 X128.526 Y101.472 E0.01754
G1 X128.899 Y101.889 E0.01754
G1 X129.222 Y102.345 E0.01754
G1 X129.493 Y102.835 E0.01754
G1 X129.707 Y103.352 E0.01754
G1 X129.862 Y103.890 E0.01754
G1 X129.956 Y104.441 E0.01754
G1 X129.987 Y105.000 E0.01754
G1 X129.956 Y105.559 E0.01754
