; generated by Slic3r Prusa Edition 1.41.3+win64 on 2019-11-08 at 14:26:45

; 

; external perimeters extrusion width = 0.45mm
; perimeters extrusion width = 0.45mm
; infill extrusion width = 0.45mm
; solid infill extrusion width = 0.45mm
; top infill extrusion width = 0.40mm
; first layer extrusion width = 0.42mm

M73 P0 R64
M73 Q0 S65
M201 X1000 Y1000 Z1000 E5000 ; sets maximum accelerations, mm/sec^2
M203 X200 Y200 Z12 E120 ; sets maximum feedrates, mm/sec
M204 P1250 R1250 T1250 ; sets acceleration (P, T) and retract acceleration (R), mm/sec^2
M205 X8.00 Y8.00 Z0.40 E1.50 ; sets the jerk limits, mm/sec
M205 S0 T0 ; sets the minimum extruding and travel feed rate, mm/sec
M107
M115 U3.8.0 ; tell printer latest fw version
M83  ; extruder relative mode
M104 S240 ; set extruder temp
M140 S85 ; set bed temp
M190 S85 ; wait for bed temp
M109 S240 ; wait for extruder temp
G28 W ; home all without mesh bed level
G80 ; mesh bed leveling
G1 Y-3.0 F1000.0 ; go outside print area
G92 E0.0
G1 X60.0 E9.0  F1000.0 ; intro line
M73 Q0 S65
M73 P0 R64
G1 X100.0 E12.5  F1000.0 ; intro line
G92 E0.0
M221 S95
M900 K45 ; Filament gcode
G21 ; set units to millimeters
G90 ; use absolute coordinates
M83 ; use relative distances for extrusion
;BEFORE_LAYER_CHANGE
G92 E0.0
;0.2


G1 E-0.80000 F2100.00000
G1 Z0.600 F10800.000
;AFTER_LAYER_CHANGE
;0.2
G1 X165.165 Y116.225
G1 Z0.200
G1 E0.80000 F2100.00000
M204 S1000
G1 F1200
G1 X164.246 Y116.923 E0.03619
G1 X155.154 Y120.744 E0.30921
G1 X154.455 Y120.957 E0.02291
G1 X153.917 Y121.029 E0.01705
G1 X123.825 Y118.537 E0.94673
G1 X122.377 Y118.333 E0.04586
G1 X120.833 Y117.932 E0.05001
G1 X119.420 Y117.388 E0.04749
G1 X118.200 Y116.766 E0.04291
G1 X117.093 Y116.048 E0.04139
G1 X115.803 Y115.005 E0.05199
G1 X114.756 Y113.931 E0.04704
G1 X113.828 Y112.739 E0.04738
G1 X113.062 Y111.494 E0.04582
G1 X112.415 Y110.132 E0.04729
G1 X111.963 Y108.830 E0.04320
G1 X111.572 Y107.070 E0.05655
G1 X111.429 Y105.726 E0.04237
G1 X111.430 Y104.243 E0.04648
G1 X111.596 Y102.756 E0.04692
G1 X111.924 Y101.296 E0.04692
G1 X112.410 Y99.881 E0.04692
G1 X113.038 Y98.550 E0.04614
G1 X113.820 Y97.273 E0.04695
G1 X114.656 Y96.190 E0.04290
G1 X115.915 Y94.898 E0.05657
G1 X116.956 Y94.047 E0.04214
G1 X118.232 Y93.216 E0.04775
G1 X119.536 Y92.557 E0.04580
G1 X120.927 Y92.036 E0.04658
G1 X122.378 Y91.666 E0.04695
G1 X123.788 Y91.467 E0.04466
G1 X153.832 Y88.906 E0.94543
G1 X154.438 Y88.976 E0.01910
G1 X155.184 Y89.205 E0.02449
G1 X163.868 Y92.826 E0.29500
G1 X164.511 Y93.164 E0.02277
G1 X164.958 Y93.506 E0.01765
G1 X165.479 Y94.101 E0.02479
G1 X165.867 Y94.812 E0.02539
G1 X169.528 Y103.594 E0.29833
G1 X169.745 Y104.349 E0.02463
G1 X169.798 Y105.072 E0.02275
G1 X169.730 Y105.663 E0.01864
G1 X169.511 Y106.386 E0.02369
G1 X165.733 Y115.398 E0.30639
G1 X165.199 Y116.175 E0.02957
; PURGING FINISHED
G1 F8640
G1 X164.246 Y116.923 E-0.27971
G1 X162.328 Y117.729 E-0.48029
G1 E-0.04000 F2100.00000
G1 Z0.800 F10800.000
G1 X153.988 Y94.326
G1 Z0.200
G1 E0.80000 F2100.00000
G1 F1200
G1 X154.183 Y94.409 E0.00663
G1 X154.193 Y94.432 E0.00078
G1 X155.199 Y94.583 E0.03189
G1 X155.218 Y94.550 E0.00119
G1 X155.584 Y94.618 E0.01167
G1 X155.591 Y94.668 E0.00159
G1 X156.767 Y95.004 E0.03836
G1 X158.006 Y95.475 E0.04155
G1 X158.287 Y95.615 E0.00982
G1 X159.177 Y96.096 E0.03175
G1 X159.605 Y96.381 E0.01611
G1 X160.261 Y96.861 E0.02548
G1 X160.749 Y97.285 E0.02028
G1 X161.238 Y97.758 E0.02131
G1 X161.732 Y98.311 E0.02327
G1 X162.093 Y98.771 E0.01832
G1 X162.553 Y99.441 E0.02550
G1 X162.812 Y99.884 E0.01608
G1 X163.208 Y100.657 E0.02725
G1 X163.384 Y101.081 E0.01436
G1 X163.722 Y102.036 E0.03177
G1 X163.802 Y102.340 E0.00987
G1 X164.053 Y103.584 E0.03980
G1 X164.120 Y104.235 E0.02052
G1 X164.146 Y104.966 E0.02292
G1 X164.130 Y106.200 E0.03869
G1 X164.233 Y106.230 E0.00337
G1 X164.135 Y106.613 E0.01239
G1 X164.065 Y106.741 E0.00456
G1 X163.928 Y107.637 E0.02842
G1 X164.003 Y107.709 E0.00326
G1 X163.865 Y108.234 E0.01703
G1 X163.766 Y108.546 E0.01026
G1 X163.559 Y109.048 E0.01704
G1 X163.534 Y109.241 E0.00610
G1 X163.199 Y109.947 E0.02450
G1 X163.074 Y110.158 E0.00767
G1 X162.926 Y110.494 E0.01153
G1 X162.506 Y111.149 E0.02441
G1 X162.372 Y111.318 E0.00676
G1 X162.180 Y111.622 E0.01127
G1 X161.980 Y111.876 E0.01014
G1 X161.641 Y112.283 E0.01662
G1 X161.464 Y112.444 E0.00747
G1 X161.261 Y112.683 E0.00984
G1 X160.587 Y113.314 E0.02895
G1 X160.420 Y113.427 E0.00633
G1 X160.293 Y113.558 E0.00572
G1 X159.491 Y114.133 E0.03093
G1 X159.333 Y114.209 E0.00550
G1 X159.208 Y114.311 E0.00508
G1 X158.838 Y114.521 E0.01333
G1 X158.243 Y114.837 E0.02112
G1 X158.066 Y114.890 E0.00580
G1 X157.916 Y114.985 E0.00557
G1 X156.880 Y115.371 E0.03466
G1 X156.717 Y115.395 E0.00514
G1 X156.573 Y115.462 E0.00498
G1 X155.821 Y115.653 E0.02433
G1 X154.414 Y115.856 E0.04456
G1 X152.912 Y115.862 E0.04712
G1 X152.835 Y115.831 E0.00259
G1 X151.447 Y115.661 E0.04386
G1 X150.025 Y115.263 E0.04630
G1 X149.124 Y114.897 E0.03049
G1 X148.259 Y114.452 E0.03050
G1 X147.057 Y113.653 E0.04526
G1 X146.166 Y112.862 E0.03735
G1 X146.086 Y112.818 E0.00285
G1 X145.107 Y111.726 E0.04600
G1 X144.294 Y110.532 E0.04529
G1 X144.132 Y110.224 E0.01091
G1 X143.671 Y109.291 E0.03262
G1 X143.245 Y108.080 E0.04027
G1 X143.008 Y107.096 E0.03171
G1 X142.937 Y106.678 E0.01332
G1 X142.833 Y105.743 E0.02947
G1 X142.839 Y105.591 E0.00477
G1 X142.817 Y105.452 E0.00441
G1 X142.824 Y104.412 E0.03261
G1 X142.849 Y104.273 E0.00445
G1 X142.845 Y104.130 E0.00448
G1 X142.981 Y103.104 E0.03243
G1 X143.023 Y102.968 E0.00448
G1 X143.041 Y102.795 E0.00546
G1 X143.297 Y101.813 E0.03182
G1 X143.740 Y100.616 E0.04001
G1 X143.825 Y100.490 E0.00476
G1 X143.928 Y100.236 E0.00861
G1 X144.372 Y99.405 E0.02952
G1 X145.112 Y98.342 E0.04061
G1 X146.022 Y97.329 E0.04270
G1 X146.982 Y96.493 E0.03989
G1 X147.138 Y96.423 E0.00539
G1 X147.704 Y96.039 E0.02143
G1 X147.814 Y95.913 E0.00524
G1 X148.760 Y95.386 E0.03395
G1 X149.345 Y95.118 E0.02018
G1 X149.789 Y94.984 E0.01454
G1 X150.105 Y94.837 E0.01092
G1 X150.635 Y94.674 E0.01740
G1 X151.062 Y94.631 E0.01346
G1 X151.251 Y94.548 E0.00646
G1 X151.590 Y94.459 E0.01099
G1 X151.764 Y94.500 E0.00561
G1 X152.112 Y94.455 E0.01101
G1 X152.542 Y94.336 E0.01397
G1 X152.813 Y94.395 E0.00872
G1 X152.975 Y94.381 E0.00510
G1 X153.761 Y94.402 E0.02463
G1 X153.773 Y94.381 E0.00075
G1 X153.930 Y94.341 E0.00508
G1 X154.122 Y94.163 F10800.000
G1 X154.018 Y93.930
G1 F1200
G1 X153.679 Y94.016 E0.01097
G1 X152.844 Y94.013 E0.02618
G1 X152.529 Y93.948 E0.01012
G1 X152.038 Y94.085 E0.01598
G1 X151.784 Y94.117 E0.00803
G1 X151.585 Y94.071 E0.00641
G1 X151.126 Y94.191 E0.01485
G1 X150.965 Y94.262 E0.00552
G1 X150.560 Y94.302 E0.01276
G1 X150.098 Y94.444 E0.01515
G1 X153.698 Y92.300 E0.13135
G1 X153.750 Y92.292 E0.00166
G1 X157.713 Y94.647 E0.14454
G1 X158.053 Y94.826 E0.01205
G1 X158.422 Y94.975 E0.01248
G1 X158.790 Y95.084 E0.01205
G1 X162.684 Y96.019 E0.12556
G1 X163.620 Y99.914 E0.12559
G1 X163.729 Y100.282 E0.01205
G1 X163.878 Y100.651 E0.01248
G1 X164.057 Y100.991 E0.01205
G1 X166.412 Y104.954 E0.14454
G1 X166.404 Y105.006 E0.00166
G1 X164.057 Y108.945 E0.14375
G1 X163.922 Y109.202 E0.00908
G1 X163.934 Y109.129 E0.00231
G1 X164.121 Y108.675 E0.01539
G1 X164.228 Y108.339 E0.01104
G1 X164.425 Y107.590 E0.02429
G1 X164.331 Y107.500 E0.00407
G1 X164.428 Y106.863 E0.02020
G1 X164.489 Y106.752 E0.00397
G1 X164.688 Y105.972 E0.02525
G1 X164.510 Y105.919 E0.00580
G1 X164.523 Y104.962 E0.03003
G1 X164.496 Y104.209 E0.02361
G1 X164.426 Y103.528 E0.02149
G1 X164.169 Y102.255 E0.04071
G1 X164.083 Y101.925 E0.01070
G1 X163.736 Y100.945 E0.03257
G1 X163.551 Y100.499 E0.01515
G1 X163.143 Y99.703 E0.02805
G1 X162.871 Y99.239 E0.01684
G1 X162.397 Y98.547 E0.02631
G1 X162.021 Y98.069 E0.01907
G1 X161.510 Y97.496 E0.02407
G1 X161.004 Y97.007 E0.02206
G1 X160.496 Y96.566 E0.02109
G1 X159.821 Y96.072 E0.02624
G1 X159.372 Y95.773 E0.01691
G1 X158.157 Y95.129 E0.04310
G1 X156.886 Y94.646 E0.04263
G1 X155.929 Y94.373 E0.03122
G1 X155.918 Y94.297 E0.00241
G1 X155.021 Y94.130 E0.02860
G1 X154.999 Y94.169 E0.00141
G1 X154.332 Y94.062 E0.02118
G1 X154.074 Y93.953 E0.00880
G1 F8640
G1 X153.679 Y94.016 E-0.09217
G1 X152.844 Y94.013 E-0.19279
G1 X152.529 Y93.948 E-0.07450
G1 X152.038 Y94.085 E-0.11770
G1 X151.784 Y94.117 E-0.05912
G1 X151.585 Y94.071 E-0.04720
G1 X151.126 Y94.191 E-0.10938
G1 X150.965 Y94.262 E-0.04063
G1 X150.851 Y94.273 E-0.02651
G1 E-0.04000 F2100.00000
G1 Z0.800 F10800.000
G1 X148.414 Y95.147
G1 Z0.200
G1 E0.80000 F2100.00000
G1 F1200
G1 X147.574 Y95.616 E0.03014
G1 X147.453 Y95.753 E0.00577
G1 X146.954 Y96.092 E0.01891
G1 X146.776 Y96.172 E0.00612
G1 X145.757 Y97.060 E0.04236
G1 X144.816 Y98.107 E0.04415
G1 X144.050 Y99.208 E0.04204
G1 X143.994 Y99.313 E0.00373
G1 X144.786 Y96.020 E0.10619
G1 X148.356 Y95.161 E0.11510
G1 F8640
G1 X147.574 Y95.616 E-0.20870
G1 X147.453 Y95.753 E-0.04247
G1 X146.954 Y96.092 E-0.13928
G1 X146.776 Y96.172 E-0.04504
G1 X145.757 Y97.060 E-0.31196
G1 X145.721 Y97.101 E-0.01256
G1 E-0.04000 F2100.00000
G1 Z0.800 F10800.000
G1 X142.894 Y101.864
G1 Z0.200
G1 E0.80000 F2100.00000
G1 F1200
G1 X142.669 Y102.727 E0.02796
G1 X142.652 Y102.892 E0.00520
G1 X142.611 Y103.023 E0.00432
G1 X142.467 Y104.110 E0.03436
G1 X142.471 Y104.245 E0.00425
G1 X142.448 Y104.379 E0.00425
G1 X142.439 Y105.481 E0.03455
G1 X142.460 Y105.613 E0.00422
G1 X142.455 Y105.757 E0.00450
G1 X142.563 Y106.730 E0.03070
G1 X142.638 Y107.172 E0.01406
G1 X142.828 Y107.962 E0.02547
G1 X141.059 Y104.968 E0.10904
G1 X142.864 Y101.916 E0.11119
G1 F8640
G1 X142.669 Y102.727 E-0.19263
G1 X142.652 Y102.892 E-0.03829
G1 X142.611 Y103.023 E-0.03179
G1 X142.467 Y104.110 E-0.25302
G1 X142.471 Y104.245 E-0.03130
G1 X142.448 Y104.379 E-0.03130
G1 X142.442 Y105.165 E-0.18168
G1 E-0.04000 F2100.00000
G1 Z0.800 F10800.000
G1 X144.044 Y110.834
G1 Z0.200
G1 E0.80000 F2100.00000
G1 F1200
G1 X144.809 Y111.959 E0.04265
G1 X145.847 Y113.116 E0.04875
G1 X145.946 Y113.172 E0.00354
G1 X146.826 Y113.952 E0.03689
G1 X147.903 Y114.668 E0.04055
G1 X144.787 Y113.918 E0.10049
G1 X144.057 Y110.893 E0.09756
G1 F8640
G1 X144.809 Y111.959 E-0.30120
G1 X145.847 Y113.116 E-0.35902
G1 X145.946 Y113.172 E-0.02606
G1 X146.185 Y113.383 E-0.07372
G1 E-0.04000 F2100.00000
G1 Z0.800 F10800.000
G1 X150.678 Y115.837
G1 Z0.200
G1 E0.80000 F2100.00000
G1 F1200
G1 X151.373 Y116.032 E0.02263
G1 X152.739 Y116.199 E0.04315
G1 X152.837 Y116.239 E0.00335
G1 X154.442 Y116.233 E0.05031
G1 X155.895 Y116.023 E0.04601
G1 X156.700 Y115.819 E0.02605
G1 X156.826 Y115.760 E0.00437
G1 X156.955 Y115.741 E0.00408
G1 X153.736 Y117.645 E0.11728
G1 X150.729 Y115.868 E0.10951
G1 F8640
G1 X151.373 Y116.032 E-0.15335
G1 X152.739 Y116.199 E-0.31776
G1 X152.837 Y116.239 E-0.02467
G1 X153.982 Y116.235 E-0.26422
G1 E-0.04000 F2100.00000
G1 Z0.800 F10800.000
G1 X159.180 Y114.761
G1 Z0.200
G1 E0.80000 F2100.00000
G1 F1200
G1 X159.421 Y114.624 E0.00870
G1 X159.537 Y114.529 E0.00470
G1 X159.685 Y114.458 E0.00514
G1 X160.541 Y113.845 E0.03302
G1 X160.663 Y113.718 E0.00554
G1 X160.823 Y113.611 E0.00602
G1 X161.534 Y112.943 E0.03058
G1 X161.735 Y112.706 E0.00974
G1 X161.914 Y112.545 E0.00754
G1 X162.488 Y111.840 E0.02851
G1 X162.680 Y111.537 E0.01126
G1 X162.813 Y111.369 E0.00672
G1 X163.259 Y110.673 E0.02592
G1 X163.410 Y110.330 E0.01173
G1 X163.532 Y110.125 E0.00750
G1 X163.685 Y109.803 E0.01117
G1 X162.694 Y113.907 E0.13239
G1 X162.651 Y113.937 E0.00164
G1 X159.238 Y114.747 E0.10998
G1 F8640
G1 X159.421 Y114.624 E-0.05090
G1 X159.537 Y114.529 E-0.03458
G1 X159.685 Y114.458 E-0.03783
G1 X160.541 Y113.845 E-0.24320
G1 X160.663 Y113.718 E-0.04078
G1 X160.823 Y113.611 E-0.04436
G1 X161.534 Y112.943 E-0.22520
G1 X161.735 Y112.706 E-0.07174
G1 X161.772 Y112.673 E-0.01140
G1 E-0.04000 F2100.00000
G1 Z0.800 F10800.000
G1 X162.925 Y114.212
G1 Z0.200
G1 E0.80000 F2100.00000
G1 F1200
G1 X162.796 Y114.291 E0.00476
G1 X158.887 Y115.218 E0.12595
G1 X158.546 Y115.318 E0.01115
G1 X158.212 Y115.453 E0.01130
G1 X157.897 Y115.619 E0.01115
G1 X153.915 Y117.991 E0.14535
G1 X153.698 Y118.024 E0.00685
G1 X153.555 Y117.990 E0.00464
G1 X149.574 Y115.619 E0.14526
G1 X149.260 Y115.453 E0.01115
G1 X148.926 Y115.318 E0.01130
G1 X148.584 Y115.218 E0.01115
G1 X144.673 Y114.290 E0.12604
G1 X144.572 Y114.232 E0.00365
G1 X144.492 Y114.158 E0.00342
G1 X144.413 Y114.028 E0.00476
G1 X143.487 Y110.120 E0.12595
G1 X143.386 Y109.779 E0.01115
G1 X143.251 Y109.444 E0.01130
G1 X143.085 Y109.130 E0.01115
G1 X140.713 Y105.147 E0.14535
G1 X140.680 Y104.931 E0.00685
G1 X140.714 Y104.787 E0.00464
G1 X143.085 Y100.807 E0.14526
G1 X143.251 Y100.492 E0.01115
G1 X143.386 Y100.158 E0.01130
G1 X143.487 Y99.817 E0.01115
G1 X144.414 Y95.906 E0.12604
G1 X144.472 Y95.805 E0.00365
G1 X144.546 Y95.725 E0.00342
G1 X144.676 Y95.646 E0.00476
G1 X148.584 Y94.719 E0.12595
G1 X148.926 Y94.619 E0.01115
G1 X149.260 Y94.483 E0.01130
G1 X149.574 Y94.318 E0.01115
G1 X153.555 Y91.947 E0.14526
G1 X153.698 Y91.913 E0.00464
G1 X153.915 Y91.945 E0.00685
G1 X157.897 Y94.318 E0.14535
G1 X158.212 Y94.483 E0.01115
G1 X158.546 Y94.619 E0.01130
G1 X158.887 Y94.719 E0.01115
G1 X162.798 Y95.647 E0.12604
G1 X162.899 Y95.704 E0.00365
G1 X162.979 Y95.779 E0.00342
G1 X163.058 Y95.908 E0.00476
G1 X163.985 Y99.817 E0.12595
G1 X164.085 Y100.158 E0.01115
G1 X164.221 Y100.492 E0.01130
G1 X164.386 Y100.807 E0.01115
G1 X166.759 Y104.789 E0.14535
G1 X166.791 Y105.006 E0.00685
G1 X166.757 Y105.150 E0.00464
G1 X164.386 Y109.130 E0.14526
G1 X164.221 Y109.444 E0.01115
G1 X164.085 Y109.779 E0.01130
G1 X163.985 Y110.120 E0.01115
G1 X163.057 Y114.031 E0.12604
G1 X162.966 Y114.168 E0.00516
G1 X162.778 Y114.175 F10800.000
G1 F8640
G1 X162.796 Y114.291 E-0.04854
G1 X159.798 Y115.002 E-0.71146
G1 E-0.04000 F2100.00000
G1 Z0.800 F10800.000
G1 X162.823 Y112.860
G1 Z0.200
G1 E0.80000 F2100.00000
G1 F1200
G1 X162.382 Y112.419 E0.02175
G1 X162.114 Y112.744 E0.01469
G1 X162.567 Y113.197 E0.02231
G1 X162.452 Y113.675 E0.01714
G1 X161.820 Y113.043 E0.03116
G1 X161.524 Y113.340 E0.01462
G1 X161.980 Y113.796 E0.02245
G1 X161.502 Y113.911 E0.01714
G1 X161.098 Y113.507 E0.01989
G1 X160.780 Y113.882 F10800.000
G1 F1200
G1 X160.738 Y114.078 E0.00386
G1 X160.620 Y114.132 E0.00250
G1 X160.509 Y114.182 E0.00187
G1 X160.398 Y114.233 E0.00142
G1 X160.287 Y114.283 E0.00096
G1 F8640
G1 X160.398 Y114.233 E-0.02816
G1 E-0.77184 F2100.00000
G1 Z0.800 F10800.000
G1 X159.004 Y114.830
G1 Z0.200
G1 E0.80000 F2100.00000
G1 F1200
G1 X158.808 Y114.904 E0.00502
G1 X158.629 Y114.976 E0.00434
G1 X158.456 Y115.047 E0.00357
G1 X158.358 Y115.092 E0.00175
G1 X158.186 Y115.154 E0.00276
G1 X157.438 Y115.512 E0.01254
G1 X157.127 Y115.661 E0.00893
G1 F8640
G1 X157.438 Y115.512 E-0.07981
G1 E-0.72019 F2100.00000
G1 Z0.800 F10800.000
G1 X155.296 Y116.598
G1 Z0.200
G1 E0.80000 F2100.00000
G1 F1200
G1 X155.120 Y116.421 E0.00889
G1 X154.591 Y116.497 E0.01898
G1 X154.794 Y116.700 E0.01018
G1 X154.415 Y116.925 E0.01569
G1 X154.007 Y116.518 E0.02051
G1 X153.405 Y116.520 E0.02142
G1 X154.036 Y117.151 E0.03174
G1 X153.736 Y117.330 E0.01242
G1 X153.424 Y117.144 E0.01290
G1 X152.572 Y116.292 E0.04284
G1 F8640
G1 X153.424 Y117.144 E-0.27817
G1 X153.736 Y117.330 E-0.08379
G1 X154.036 Y117.151 E-0.08063
G1 X153.405 Y116.520 E-0.20610
G1 X153.887 Y116.518 E-0.11131
G1 E-0.04000 F2100.00000
G1 Z0.800 F10800.000
G1 X150.504 Y115.763
G1 Z0.200
G1 E0.80000 F2100.00000
G1 F1200
G1 X150.317 Y115.682 E0.00491
G1 X150.129 Y115.602 E0.00421
G1 X149.941 Y115.522 E0.00352
G1 X149.698 Y115.401 E0.00374
G1 X149.360 Y115.243 E0.00386
G1 X148.651 Y114.957 E0.00555
G1 X148.076 Y114.744 E0.01019
G1 F8640
G1 X148.651 Y114.957 E-0.14169
G1 E-0.65831 F2100.00000
G1 Z0.800 F10800.000
G1 X146.813 Y114.195
G1 Z0.200
G1 E0.80000 F2100.00000
G1 F1200
G1 X146.324 Y113.967 E0.00404
G1 X146.258 Y113.843 F10800.000
G1 F1200
G1 X144.873 Y112.459 E0.06465
G1 X144.744 Y112.396 F10800.000
G1 F1200
G1 X144.558 Y112.001 E0.00484
G1 X144.509 Y111.889 E0.00091
G1 X144.618 Y112.764 F10800.000
G1 F1200
G1 X145.935 Y114.082 E0.06152
G1 F8640
G1 X144.618 Y112.764 E-0.43024
G1 E-0.36976 F2100.00000
