; generated by Slic3r Prusa Edition 1.41.3+win64 on 2019-11-06 at 08:32:55

; 

; external perimeters extrusion width = 0.45mm
; perimeters extrusion width = 0.45mm
; infill extrusion width = 0.45mm
; solid infill extrusion width = 0.45mm
; top infill extrusion width = 0.40mm
; first layer extrusion width = 0.42mm

M73 P0 R36
M73 Q0 S36
M201 X1000 Y1000 Z1000 E5000 ; sets maximum accelerations, mm/sec^2
M203 X200 Y200 Z12 E120 ; sets maximum feedrates, mm/sec
M204 P1250 R1250 T1250 ; sets acceleration (P, T) and retract acceleration (R), mm/sec^2
M205 X8.00 Y8.00 Z0.40 E1.50 ; sets the jerk limits, mm/sec
M205 S0 T0 ; sets the minimum extruding and travel feed rate, mm/sec
M107
M115 U3.8.0 ; tell printer latest fw version
M83  ; extruder relative mode
M104 S215 ; set extruder temp
M140 S60 ; set bed temp
M190 S60 ; wait for bed temp
M109 S215 ; wait for extruder temp
G28 W ; home all without mesh bed level
G80 ; mesh bed leveling
G1 Y-3.0 F1000.0 ; go outside print area
G92 E0.0
G1 X60.0 E9.0  F1000.0 ; intro line
M73 Q0 S36
M73 P0 R35
G1 X100.0 E12.5  F1000.0 ; intro line
G92 E0.0
M221 S95
M900 K30 ; Filament gcode
G21 ; set units to millimeters
G90 ; use absolute coordinates
M83 ; use relative distances for extrusion
;BEFORE_LAYER_CHANGE
G92 E0.0
;0.2


G1 E-0.80000 F2100.00000
G1 Z0.600 F10800.000
;AFTER_LAYER_CHANGE
;0.2
G1 X114.690 Y95.587
G1 Z0.200
G1 E0.80000 F2100.00000
M204 S1000
G1 F1200
G1 X115.762 Y94.527 E0.04725
G1 X117.074 Y93.502 E0.05223
G1 X118.507 Y92.636 E0.05248
G1 X119.858 Y92.021 E0.04655
G1 X121.807 Y91.407 E0.06408
G1 X123.334 Y91.134 E0.04864
G1 X124.996 Y91.034 E0.05220
G1 X126.662 Y91.134 E0.05233
G1 X128.158 Y91.400 E0.04764
G1 X129.964 Y91.947 E0.05916
G1 X131.470 Y92.624 E0.05180
G1 X132.785 Y93.410 E0.04802
G1 X134.413 Y94.690 E0.06495
G1 X135.473 Y95.762 E0.04725
G1 X136.498 Y97.074 E0.05223
G1 X137.364 Y98.507 E0.05248
G1 X137.979 Y99.858 E0.04654
G1 X138.593 Y101.807 E0.06408
G1 X138.866 Y103.334 E0.04864
G1 X138.966 Y104.998 E0.05226
G1 X138.866 Y106.662 E0.05226
G1 X138.600 Y108.158 E0.04764
G1 X138.053 Y109.964 E0.05916
G1 X137.376 Y111.470 E0.05179
G1 X136.590 Y112.785 E0.04802
G1 X135.310 Y114.413 E0.06495
G1 X134.238 Y115.473 E0.04725
G1 X132.926 Y116.498 E0.05223
G1 X131.493 Y117.364 E0.05248
G1 X130.142 Y117.979 E0.04654
G1 X128.193 Y118.593 E0.06408
G1 X126.666 Y118.866 E0.04864
G1 X125.008 Y118.966 E0.05207
G1 X123.338 Y118.866 E0.05246
G1 X121.842 Y118.600 E0.04764
G1 X120.040 Y118.055 E0.05903
G1 X118.530 Y117.376 E0.05192
G1 X117.218 Y116.592 E0.04790
G1 X115.588 Y115.312 E0.06500
G1 X114.527 Y114.238 E0.04732
G1 X113.502 Y112.926 E0.05223
G1 X112.636 Y111.493 E0.05248
G1 X112.021 Y110.142 E0.04654
G1 X111.407 Y108.193 E0.06408
G1 X111.134 Y106.666 E0.04864
G1 X111.034 Y104.997 E0.05241
G1 X111.134 Y103.338 E0.05211
G1 X111.400 Y101.842 E0.04764
G1 X111.947 Y100.036 E0.05916
G1 X112.624 Y98.530 E0.05180
G1 X113.410 Y97.215 E0.04802
G1 X114.653 Y95.634 E0.06306
G1 X114.921 Y95.899 F10800.000
G1 F1200
G1 X115.853 Y94.957 E0.04157
G1 X117.415 Y93.729 E0.06229
G1 X118.704 Y92.958 E0.04709
G1 X120.174 Y92.298 E0.05053
G1 X121.744 Y91.808 E0.05156
G1 X123.158 Y91.543 E0.04510
G1 X125.010 Y91.412 E0.05822
G1 X126.621 Y91.509 E0.05059
G1 X128.108 Y91.774 E0.04737
G1 X129.989 Y92.365 E0.06181
G1 X131.316 Y92.969 E0.04572
G1 X132.709 Y93.810 E0.05103
G1 X133.992 Y94.812 E0.05103
G1 X135.043 Y95.853 E0.04640
G1 X136.271 Y97.415 E0.06228
G1 X137.042 Y98.704 E0.04709
G1 X137.702 Y100.174 E0.05053
G1 X138.229 Y101.910 E0.05688
G1 X138.491 Y103.380 E0.04681
G1 X138.589 Y105.001 E0.05092
G1 X138.491 Y106.621 E0.05088
G1 X138.226 Y108.108 E0.04737
G1 X137.635 Y109.989 E0.06181
G1 X137.031 Y111.316 E0.04572
G1 X136.190 Y112.709 E0.05103
G1 X135.188 Y113.992 E0.05103
G1 X134.147 Y115.043 E0.04640
G1 X132.585 Y116.271 E0.06229
G1 X131.296 Y117.042 E0.04709
G1 X129.826 Y117.702 E0.05053
G1 X128.090 Y118.229 E0.05688
G1 X126.620 Y118.491 E0.04681
G1 X124.994 Y118.588 E0.05109
G1 X123.379 Y118.491 E0.05071
G1 X121.892 Y118.226 E0.04737
G1 X120.011 Y117.635 E0.06181
G1 X118.684 Y117.031 E0.04571
G1 X117.291 Y116.190 E0.05104
G1 X116.008 Y115.188 E0.05103
G1 X114.957 Y114.147 E0.04640
G1 X113.729 Y112.585 E0.06229
G1 X112.958 Y111.296 E0.04709
G1 X112.298 Y109.826 E0.05053
G1 X111.771 Y108.090 E0.05688
G1 X111.509 Y106.620 E0.04681
G1 X111.412 Y104.994 E0.05109
G1 X111.509 Y103.379 E0.05071
G1 X111.774 Y101.892 E0.04737
G1 X112.365 Y100.011 E0.06181
G1 X112.969 Y98.684 E0.04572
G1 X113.810 Y97.291 E0.05103
G1 X114.878 Y95.942 E0.05396
; PURGING FINISHED
G1 F8640
G1 X115.853 Y94.957 E-0.32002
G1 X117.352 Y93.779 E-0.43998
G1 E-0.04000 F2100.00000
G1 Z0.800 F10800.000
G1 X117.592 Y98.300
G1 Z0.200
G1 E0.80000 F2100.00000
G1 F1200
G1 X118.551 Y97.372 E0.04184
G1 X119.625 Y96.581 E0.04184
G1 X120.796 Y95.940 E0.04184
G1 X122.042 Y95.459 E0.04189
G1 X123.403 Y95.144 E0.04379
G1 X124.666 Y95.017 E0.03981
G1 X126.000 Y95.062 E0.04184
G1 X127.316 Y95.284 E0.04184
G1 X128.590 Y95.679 E0.04184
G1 X129.800 Y96.241 E0.04184
G1 X130.925 Y96.959 E0.04184
G1 X131.944 Y97.820 E0.04184
G1 X132.839 Y98.810 E0.04184
G1 X133.594 Y99.910 E0.04184
G1 X134.196 Y101.101 E0.04184
G1 X134.633 Y102.361 E0.04184
G1 X134.899 Y103.669 E0.04184
G1 X134.988 Y105.000 E0.04184
G1 X134.899 Y106.331 E0.04184
G1 X134.633 Y107.639 E0.04184
G1 X134.196 Y108.899 E0.04184
G1 X133.594 Y110.090 E0.04184
G1 X132.839 Y111.190 E0.04184
G1 X131.944 Y112.180 E0.04184
G1 X130.925 Y113.041 E0.04184
G1 X129.800 Y113.759 E0.04184
G1 X128.590 Y114.321 E0.04184
G1 X127.316 Y114.716 E0.04184
G1 X125.998 Y114.939 E0.04189
G1 X124.602 Y114.976 E0.04379
G1 X123.339 Y114.849 E0.03981
G1 X122.041 Y114.540 E0.04184
G1 X120.796 Y114.060 E0.04184
G1 X119.625 Y113.419 E0.04184
G1 X118.551 Y112.628 E0.04184
G1 X117.592 Y111.700 E0.04184
G1 X116.765 Y110.653 E0.04184
G1 X116.085 Y109.505 E0.04184
G1 X115.564 Y108.276 E0.04184
G1 X115.212 Y106.990 E0.04184
G1 X115.034 Y105.667 E0.04184
G1 X115.034 Y104.333 E0.04184
G1 X115.212 Y103.010 E0.04184
G1 X115.564 Y101.724 E0.04184
G1 X116.085 Y100.495 E0.04184
G1 X116.765 Y99.347 E0.04184
G1 X117.555 Y98.347 E0.03995
G1 X117.851 Y98.581 F10800.000
G1 F1200
G1 X118.795 Y97.661 E0.04133
G1 X119.829 Y96.899 E0.04025
G1 X120.955 Y96.282 E0.04025
G1 X122.153 Y95.821 E0.04027
G1 X123.465 Y95.517 E0.04221
G1 X124.679 Y95.395 E0.03826
G1 X125.962 Y95.438 E0.04025
G1 X127.228 Y95.651 E0.04025
G1 X128.454 Y96.032 E0.04025
G1 X129.619 Y96.572 E0.04025
G1 X130.701 Y97.263 E0.04025
G1 X131.681 Y98.092 E0.04025
G1 X132.542 Y99.044 E0.04025
G1 X133.269 Y100.102 E0.04025
G1 X133.848 Y101.248 E0.04025
G1 X134.269 Y102.461 E0.04025
G1 X134.525 Y103.719 E0.04025
G1 X134.610 Y105.000 E0.04025
G1 X134.525 Y106.281 E0.04025
G1 X134.269 Y107.539 E0.04025
G1 X133.848 Y108.752 E0.04025
G1 X133.269 Y109.898 E0.04025
G1 X132.542 Y110.956 E0.04025
G1 X131.681 Y111.908 E0.04025
G1 X130.701 Y112.737 E0.04025
G1 X129.619 Y113.428 E0.04025
G1 X128.454 Y113.968 E0.04025
G1 X127.228 Y114.349 E0.04025
G1 X125.961 Y114.562 E0.04027
G1 X124.616 Y114.599 E0.04221
G1 X123.401 Y114.477 E0.03826
G1 X122.153 Y114.179 E0.04025
G1 X120.955 Y113.718 E0.04025
G1 X119.829 Y113.101 E0.04025
G1 X118.795 Y112.339 E0.04025
G1 X117.872 Y111.447 E0.04025
G1 X117.077 Y110.439 E0.04025
G1 X116.422 Y109.334 E0.04025
G1 X115.921 Y108.152 E0.04025
G1 X115.582 Y106.914 E0.04025
G1 X115.411 Y105.642 E0.04025
G1 X115.411 Y104.358 E0.04025
G1 X115.582 Y103.086 E0.04025
G1 X115.921 Y101.848 E0.04025
G1 X116.422 Y100.666 E0.04025
G1 X117.077 Y99.561 E0.04025
G1 X117.814 Y98.628 E0.03728
G1 X117.727 Y98.200 F10800.000
G1 F8640
G1 X118.795 Y97.661 E-0.31813
G1 X119.829 Y96.899 E-0.29644
G1 X120.381 Y96.597 E-0.14543
G1 E-0.04000 F2100.00000
G1 Z0.800 F10800.000
G1 X116.961 Y97.777
G1 Z0.200
G1 E0.80000 F2100.00000
G1 F1200
G1 X117.821 Y96.916 E0.03817
G1 X118.867 Y96.096 E0.04166
G1 X119.984 Y95.422 E0.04090
G1 X121.174 Y94.888 E0.04091
G1 X122.420 Y94.501 E0.04091
G1 X123.679 Y94.270 E0.04014
G1 X125.018 Y94.189 E0.04206
G1 X126.296 Y94.266 E0.04014
G1 X127.580 Y94.501 E0.04091
G1 X128.826 Y94.888 E0.04091
G1 X130.016 Y95.422 E0.04090
G1 X131.153 Y96.110 E0.04167
G1 X132.161 Y96.900 E0.04015
G1 X133.084 Y97.821 E0.04091
G1 X133.904 Y98.867 E0.04166
G1 X134.578 Y99.984 E0.04090
G1 X135.112 Y101.174 E0.04091
G1 X135.499 Y102.420 E0.04091
G1 X135.730 Y103.680 E0.04016
G1 X135.812 Y105.000 E0.04149
G1 X135.734 Y106.297 E0.04071
G1 X135.499 Y107.580 E0.04090
G1 X135.103 Y108.848 E0.04167
G1 X134.578 Y110.016 E0.04015
G1 X133.904 Y111.133 E0.04091
G1 X133.100 Y112.161 E0.04091
G1 X132.179 Y113.084 E0.04090
G1 X131.133 Y113.904 E0.04166
G1 X130.016 Y114.578 E0.04090
G1 X128.826 Y115.112 E0.04091
G1 X127.580 Y115.499 E0.04091
G1 X126.320 Y115.730 E0.04015
G1 X124.994 Y115.812 E0.04168
G1 X123.704 Y115.734 E0.04052
G1 X122.420 Y115.499 E0.04090
G1 X121.152 Y115.103 E0.04167
G1 X119.984 Y114.578 E0.04015
G1 X118.867 Y113.904 E0.04091
G1 X117.839 Y113.100 E0.04091
G1 X116.916 Y112.179 E0.04090
G1 X116.096 Y111.133 E0.04166
G1 X115.422 Y110.016 E0.04090
G1 X114.888 Y108.826 E0.04091
G1 X114.501 Y107.580 E0.04091
G1 X114.270 Y106.320 E0.04015
G1 X114.188 Y104.994 E0.04168
G1 X114.266 Y103.704 E0.04052
G1 X114.501 Y102.420 E0.04090
G1 X114.897 Y101.152 E0.04167
G1 X115.422 Y99.984 E0.04015
G1 X116.096 Y98.867 E0.04091
G1 X116.919 Y97.820 E0.04175
G1 X116.652 Y97.554 F10800.000
G1 F1200
G1 X117.571 Y96.633 E0.04077
G1 X118.653 Y95.785 E0.04310
G1 X119.809 Y95.088 E0.04233
G1 X121.040 Y94.535 E0.04234
G1 X122.330 Y94.134 E0.04234
G1 X123.634 Y93.895 E0.04157
G1 X125.019 Y93.811 E0.04349
G1 X126.342 Y93.891 E0.04157
G1 X127.670 Y94.134 E0.04234
G1 X128.960 Y94.535 E0.04234
G1 X130.191 Y95.088 E0.04233
G1 X131.367 Y95.799 E0.04310
G1 X132.411 Y96.617 E0.04157
G1 X133.367 Y97.571 E0.04234
G1 X134.215 Y98.653 E0.04310
G1 X134.912 Y99.809 E0.04233
G1 X135.465 Y101.040 E0.04234
G1 X135.866 Y102.330 E0.04234
G1 X136.105 Y103.634 E0.04157
G1 X136.190 Y105.000 E0.04292
G1 X136.109 Y106.342 E0.04215
G1 X135.866 Y107.670 E0.04233
G1 X135.456 Y108.982 E0.04310
G1 X134.912 Y110.191 E0.04157
G1 X134.215 Y111.348 E0.04234
G1 X133.383 Y112.411 E0.04234
G1 X132.429 Y113.367 E0.04233
G1 X131.347 Y114.215 E0.04310
G1 X130.191 Y114.912 E0.04233
G1 X128.960 Y115.465 E0.04234
G1 X127.670 Y115.866 E0.04234
G1 X126.366 Y116.105 E0.04157
G1 X124.994 Y116.190 E0.04311
G1 X123.658 Y116.109 E0.04195
G1 X122.330 Y115.866 E0.04233
G1 X121.018 Y115.456 E0.04310
G1 X119.809 Y114.912 E0.04157
G1 X118.652 Y114.215 E0.04234
G1 X117.589 Y113.383 E0.04234
G1 X116.633 Y112.429 E0.04233
G1 X115.785 Y111.347 E0.04310
G1 X115.088 Y110.191 E0.04233
G1 X114.535 Y108.960 E0.04234
G1 X114.134 Y107.670 E0.04234
G1 X113.895 Y106.366 E0.04157
G1 X113.810 Y104.994 E0.04311
G1 X113.891 Y103.658 E0.04195
G1 X114.134 Y102.330 E0.04233
G1 X114.544 Y101.018 E0.04310
G1 X115.088 Y99.809 E0.04157
G1 X115.785 Y98.652 E0.04234
G1 X116.611 Y97.597 E0.04202
G1 X117.044 Y97.634 F10800.000
G1 F8640
G1 X117.571 Y96.633 E-0.31409
G1 X118.653 Y95.785 E-0.31738
G1 X119.129 Y95.498 E-0.12854
G1 E-0.04000 F2100.00000
G1 Z0.800 F10800.000
G1 X123.362 Y103.544
G1 Z0.200
G1 E0.80000 F2100.00000
G1 F1200
G1 X123.775 Y103.186 E0.01715
G1 X124.223 Y102.951 E0.01585
G1 X124.736 Y102.825 E0.01656
G1 X125.264 Y102.825 E0.01656
G1 X125.780 Y102.952 E0.01667
G1 X126.262 Y103.212 E0.01715
G1 X126.640 Y103.547 E0.01585
G1 X126.940 Y103.982 E0.01656
G1 X127.128 Y104.476 E0.01656
G1 X127.191 Y105.000 E0.01656
G1 X127.128 Y105.524 E0.01656
G1 X126.940 Y106.018 E0.01656
G1 X126.640 Y106.453 E0.01656
G1 X126.245 Y106.803 E0.01656
G1 X125.777 Y107.049 E0.01656
G1 X125.264 Y107.175 E0.01656
G1 X124.736 Y107.175 E0.01656
G1 X124.223 Y107.049 E0.01656
G1 X123.755 Y106.803 E0.01656
G1 X123.360 Y106.453 E0.01656
G1 X123.060 Y106.018 E0.01656
G1 X122.872 Y105.524 E0.01656
G1 X122.809 Y105.000 E0.01656
G1 X122.872 Y104.476 E0.01656
G1 X123.060 Y103.982 E0.01656
G1 X123.328 Y103.593 E0.01479
G1 X123.638 Y103.808 F10800.000
G1 F1200
G1 X123.989 Y103.500 E0.01465
G1 X124.358 Y103.306 E0.01305
G1 X124.782 Y103.202 E0.01369
G1 X125.218 Y103.202 E0.01369
G1 X125.644 Y103.306 E0.01373
G1 X126.044 Y103.523 E0.01428
G1 X126.356 Y103.799 E0.01305
G1 X126.604 Y104.158 E0.01369
G1 X126.759 Y104.566 E0.01369
G1 X126.812 Y105.000 E0.01369
G1 X126.759 Y105.434 E0.01369
G1 X126.604 Y105.842 E0.01369
G1 X126.356 Y106.201 E0.01369
G1 X126.029 Y106.491 E0.01369
G1 X125.642 Y106.694 E0.01369
G1 X125.218 Y106.798 E0.01369
G1 X124.782 Y106.798 E0.01369
G1 X124.358 Y106.694 E0.01369
G1 X123.971 Y106.491 E0.01369
G1 X123.644 Y106.201 E0.01369
G1 X123.396 Y105.842 E0.01369
G1 X123.241 Y105.434 E0.01369
G1 X123.188 Y105.000 E0.01369
G1 X123.241 Y104.566 E0.01369
G1 X123.396 Y104.158 E0.01369
G1 X123.604 Y103.857 E0.01147
G1 X123.512 Y103.428 F10800.000
G1 F8640
G1 X123.989 Y103.500 E-0.12134
G1 X124.358 Y103.306 E-0.09610
G1 X124.782 Y103.202 E-0.10084
G1 X125.218 Y103.202 E-0.10084
G1 X125.644 Y103.306 E-0.10112
G1 X126.044 Y103.523 E-0.10517
G1 X126.356 Y103.799 E-0.09610
G1 X126.451 Y103.936 E-0.03848
G1 E-0.04000 F2100.00000
G1 Z0.800 F10800.000
G1 X121.270 Y102.290
G1 Z0.200
G1 E0.80000 F2100.00000
G1 F1200
G1 X121.814 Y101.668 E0.02592
G1 X122.460 Y101.152 E0.02592
G1 X123.188 Y100.760 E0.02592
G1 X123.972 Y100.506 E0.02584
G1 X124.837 Y100.396 E0.02736
G1 X125.619 Y100.431 E0.02453
G1 X126.425 Y100.615 E0.02592
G1 X127.185 Y100.940 E0.02592
G1 X127.875 Y101.395 E0.02592
G1 X128.472 Y101.967 E0.02592
G1 X128.958 Y102.635 E0.02592
G1 X129.317 Y103.380 E0.02592
G1 X129.536 Y104.177 E0.02592
G1 X129.611 Y105.000 E0.02592
G1 X129.536 Y105.823 E0.02592
G1 X129.317 Y106.620 E0.02592
G1 X128.958 Y107.365 E0.02592
G1 X128.472 Y108.033 E0.02592
G1 X127.875 Y108.605 E0.02592
G1 X127.185 Y109.060 E0.02592
G1 X126.425 Y109.385 E0.02592
G1 X125.619 Y109.569 E0.02592
G1 X124.793 Y109.606 E0.02592
G1 X123.974 Y109.495 E0.02592
G1 X123.188 Y109.240 E0.02592
G1 X122.462 Y108.849 E0.02584
G1 X121.785 Y108.299 E0.02736
G1 X121.270 Y107.710 E0.02453
G1 X120.846 Y107.000 E0.02592
G1 X120.556 Y106.227 E0.02592
G1 X120.408 Y105.413 E0.02592
G1 X120.408 Y104.587 E0.02592
G1 X120.556 Y103.773 E0.02592
G1 X120.846 Y103.000 E0.02592
G1 X121.239 Y102.341 E0.02404
G1 X120.916 Y102.148 F10800.000
G1 F1200
G1 X120.964 Y102.067 E0.00295
G1 X121.552 Y101.394 E0.02804
G1 X122.251 Y100.836 E0.02804
G1 X123.039 Y100.412 E0.02804
G1 X123.889 Y100.136 E0.02802
G1 X124.822 Y100.018 E0.02948
G1 X125.670 Y100.056 E0.02661
G1 X126.542 Y100.255 E0.02804
G1 X127.364 Y100.607 E0.02804
G1 X128.111 Y101.099 E0.02804
G1 X128.757 Y101.717 E0.02804
G1 X129.283 Y102.441 E0.02804
G1 X129.671 Y103.247 E0.02804
G1 X129.909 Y104.109 E0.02804
G1 X129.989 Y105.000 E0.02804
G1 X129.909 Y105.891 E0.02804
G1 X129.671 Y106.753 E0.02804
G1 X129.283 Y107.559 E0.02804
G1 X128.757 Y108.283 E0.02804
G1 X128.111 Y108.901 E0.02804
G1 X127.364 Y109.393 E0.02804
G1 X126.542 Y109.745 E0.02804
G1 X125.670 Y109.944 E0.02804
G1 X124.776 Y109.984 E0.02804
G1 X123.890 Y109.864 E0.02804
G1 X123.039 Y109.588 E0.02804
G1 X122.252 Y109.164 E0.02802
G1 X121.522 Y108.572 E0.02948
G1 X120.964 Y107.933 E0.02661
G1 X120.505 Y107.165 E0.02804
G1 X120.191 Y106.327 E0.02804
G1 X120.031 Y105.447 E0.02804
G1 X120.031 Y104.553 E0.02804
G1 X120.191 Y103.673 E0.02804
G1 X120.505 Y102.835 E0.02804
G1 X120.885 Y102.200 E0.02322
G1 X121.009 Y102.147 F10800.000
G1 F8640
G1 X120.964 Y102.067 E-0.03554
G1 X121.552 Y101.394 E-0.20653
G1 X122.251 Y100.836 E-0.20653
G1 X123.039 Y100.412 E-0.20653
G1 X123.471 Y100.272 E-0.10486
G1 E-0.04000 F2100.00000
G1 Z0.800 F10800.000
G1 X122.760 Y105.537
G1 Z0.200
G1 E0.80000 F2100.00000
G1 F1200
G1 X120.896 Y103.672 E0.08595
G1 X121.047 Y103.269 E0.01404
G1 X122.551 Y104.774 E0.06936
G1 X122.596 Y104.407 E0.01202
G1 X122.635 Y104.303 E0.00364
G1 X121.234 Y102.902 E0.06461
G1 X121.441 Y102.555 E0.01318
G1 X122.788 Y103.901 E0.06208
G1 X123.005 Y103.563 E0.01308
G1 X121.685 Y102.244 E0.06082
G1 X121.944 Y101.948 E0.01281
