; generated by Slic3r Prusa Edition 1.41.3+win64 on 2020-02-14 at 08:07:00

; 

; external perimeters extrusion width = 0.45mm
; perimeters extrusion width = 0.45mm
; infill extrusion width = 0.45mm
; solid infill extrusion width = 0.45mm
; top infill extrusion width = 0.40mm
; first layer extrusion width = 0.42mm

M73 P0 R48
M73 Q0 S49
M201 X1000 Y1000 Z1000 E5000 ; sets maximum accelerations, mm/sec^2
M203 X200 Y200 Z12 E120 ; sets maximum feedrates, mm/sec
M204 P1250 R1250 T1250 ; sets acceleration (P, T) and retract acceleration (R), mm/sec^2
M205 X8.00 Y8.00 Z0.40 E1.50 ; sets the jerk limits, mm/sec
M205 S0 T0 ; sets the minimum extruding and travel feed rate, mm/sec
M107
M115 U3.8.1 ; tell printer latest fw version
M83  ; extruder relative mode
M104 S215 ; set extruder temp
M140 S60 ; set bed temp
M190 S60 ; wait for bed temp
M109 S215 ; wait for extruder temp
G28 W ; home all without mesh bed level
G80 ; mesh bed leveling
G1 Y-3.0 F1000.0 ; go outside print area
G92 E0.0
G1 X60.0 E9.0  F1000.0 ; intro line
M73 Q0 S49
M73 P0 R48
G1 X100.0 E12.5  F1000.0 ; intro line
G92 E0.0
M221 S95
M900 K30 ; Filament gcode
G21 ; set units to millimeters
G90 ; use absolute coordinates
M83 ; use relative distances for extrusion
;BEFORE_LAYER_CHANGE
G92 E0.0
;0.2


G1 E-0.80000 F2100.00000
G1 Z0.600 F10800.000
;AFTER_LAYER_CHANGE
;0.2
G1 X109.558 Y59.408
G1 Z0.200
G1 E0.80000 F2100.00000
M204 S1000
G1 F1200
G1 X110.953 Y57.106 E0.08437
G1 X112.689 Y55.046 E0.08449
G1 X114.722 Y53.282 E0.08437
G1 X117.007 Y51.854 E0.08449
G1 X119.483 Y50.799 E0.08437
G1 X122.092 Y50.140 E0.08437
G1 X124.804 Y49.894 E0.08540
G1 X127.453 Y50.067 E0.08323
G1 X130.038 Y50.641 E0.08300
G1 X131.750 Y51.262 E0.05712
G1 X134.281 Y52.591 E0.08964
G1 X136.470 Y54.235 E0.08583
G1 X138.437 Y56.288 E0.08915
G1 X140.035 Y58.622 E0.08869
G1 X141.282 Y61.346 E0.09394
G1 X141.991 Y63.903 E0.08318
G1 X142.290 Y66.550 E0.08354
G1 X149.061 Y136.182 E2.19355
G1 X148.846 Y139.223 E0.09560
G1 X148.260 Y142.172 E0.09427
G1 X147.214 Y145.283 E0.10291
G1 X145.824 Y148.094 E0.09834
G1 X144.156 Y150.594 E0.09422
G1 X141.996 Y153.075 E0.10313
G1 X139.636 Y155.141 E0.09834
G1 X137.139 Y156.813 E0.09422
G1 X134.198 Y158.278 E0.10302
G1 X131.081 Y159.320 E0.10305
G1 X128.134 Y159.901 E0.09418
G1 X125.004 Y160.106 E0.09834
G1 X121.773 Y159.886 E0.10154
G1 X118.826 Y159.299 E0.09422
G1 X116.878 Y158.692 E0.06395
G1 X113.944 Y157.415 E0.10033
G1 X111.257 Y155.788 E0.09850
G1 X108.539 Y153.591 E0.10958
G1 X106.354 Y151.248 E0.10045
G1 X104.537 Y148.690 E0.09838
G1 X102.944 Y145.653 E0.10753
G1 X101.845 Y142.574 E0.10251
G1 X101.198 Y139.503 E0.09838
G1 X100.944 Y136.087 E0.10741
G1 X107.902 Y64.626 E2.25121
G1 X108.514 Y61.978 E0.08521
G1 X109.536 Y59.463 E0.08512
; PURGING FINISHED
G1 F8640
G1 X110.953 Y57.106 E-0.63504
G1 X111.301 Y56.692 E-0.12496
G1 E-0.04000 F2100.00000
G1 Z0.800 F10800.000
G1 X125.006 Y115.847
G1 Z0.200
G1 E0.80000 F2100.00000
G1 F1200
G1 X127.875 Y116.052 E0.09020
G1 X130.692 Y116.665 E0.09039
G1 X133.413 Y117.683 E0.09108
G1 X135.923 Y119.053 E0.08966
G1 X138.230 Y120.781 E0.09038
G1 X140.269 Y122.819 E0.09038
G1 X141.996 Y125.127 E0.09038
G1 X143.377 Y127.657 E0.09038
G1 X144.385 Y130.357 E0.09038
G1 X144.998 Y133.174 E0.09038
G1 X145.203 Y136.049 E0.09037
G1 X145.006 Y138.861 E0.08839
G1 X144.420 Y141.618 E0.08837
G1 X143.456 Y144.267 E0.08839
G1 X142.120 Y146.773 E0.08906
G1 X140.476 Y149.036 E0.08767
G1 X138.518 Y151.063 E0.08839
G1 X136.278 Y152.810 E0.08906
G1 X133.856 Y154.208 E0.08767
G1 X131.243 Y155.264 E0.08838
G1 X128.508 Y155.945 E0.08837
G1 X125.705 Y156.240 E0.08838
G1 X122.903 Y156.142 E0.08791
G1 X122.116 Y156.044 E0.02488
G1 X120.121 Y155.653 E0.06372
G1 X119.300 Y155.431 E0.02667
G1 X117.440 Y154.783 E0.06178
G1 X116.601 Y154.423 E0.02862
G1 X114.905 Y153.548 E0.05983
G1 X114.073 Y153.041 E0.03057
G1 X112.567 Y151.972 E0.05788
G1 X111.766 Y151.313 E0.03252
G1 X110.471 Y150.086 E0.05593
G1 X109.729 Y149.275 E0.03447
G1 X108.659 Y147.927 E0.05398
G1 X108.003 Y146.968 E0.03642
G1 X107.164 Y145.536 E0.05203
G1 X106.622 Y144.439 E0.03837
G1 X106.017 Y142.961 E0.05008
G1 X105.616 Y141.739 E0.04033
G1 X105.240 Y140.251 E0.04813
G1 X105.003 Y138.923 E0.04228
G1 X104.847 Y137.459 E0.04618
G1 X104.798 Y136.049 E0.04423
G1 X104.847 Y134.640 E0.04423
G1 X105.003 Y133.175 E0.04618
G1 X105.240 Y131.848 E0.04228
G1 X105.616 Y130.360 E0.04813
G1 X106.017 Y129.138 E0.04033
G1 X106.622 Y127.660 E0.05008
G1 X107.164 Y126.562 E0.03837
G1 X108.003 Y125.130 E0.05203
G1 X108.659 Y124.171 E0.03642
G1 X109.729 Y122.823 E0.05398
G1 X110.471 Y122.012 E0.03447
G1 X111.766 Y120.785 E0.05593
G1 X112.567 Y120.126 E0.03252
G1 X114.073 Y119.058 E0.05788
G1 X114.905 Y118.550 E0.03057
G1 X116.601 Y117.676 E0.05983
G1 X117.440 Y117.315 E0.02862
G1 X119.300 Y116.668 E0.06178
G1 X120.121 Y116.445 E0.02667
G1 X122.116 Y116.054 E0.06374
G1 X122.915 Y115.956 E0.02524
G1 X124.946 Y115.850 E0.06376
G1 X124.965 Y116.226 F10800.000
G1 F1200
G1 X127.821 Y116.426 E0.08977
G1 X130.585 Y117.027 E0.08869
G1 X133.256 Y118.027 E0.08939
G1 X135.718 Y119.371 E0.08798
G1 X137.983 Y121.066 E0.08869
G1 X139.983 Y123.067 E0.08869
G1 X141.678 Y125.331 E0.08869
G1 X143.034 Y127.814 E0.08869
G1 X144.022 Y130.464 E0.08869
G1 X144.623 Y133.228 E0.08869
G1 X144.825 Y136.049 E0.08868
G1 X144.632 Y138.808 E0.08673
G1 X144.057 Y141.514 E0.08672
G1 X143.111 Y144.113 E0.08673
G1 X141.800 Y146.573 E0.08741
G1 X140.187 Y148.793 E0.08603
G1 X138.265 Y150.782 E0.08673
G1 X136.067 Y152.496 E0.08741
G1 X133.691 Y153.868 E0.08603
G1 X131.126 Y154.904 E0.08672
G1 X128.443 Y155.573 E0.08672
G1 X125.692 Y155.862 E0.08672
G1 X122.933 Y155.766 E0.08655
G1 X122.175 Y155.672 E0.02394
G1 X120.207 Y155.286 E0.06289
G1 X119.412 Y155.070 E0.02583
G1 X117.576 Y154.431 E0.06094
G1 X116.762 Y154.081 E0.02779
G1 X115.090 Y153.219 E0.05899
G1 X114.280 Y152.726 E0.02974
G1 X112.796 Y151.673 E0.05704
G1 X112.016 Y151.030 E0.03169
G1 X110.741 Y149.822 E0.05509
G1 X110.016 Y149.030 E0.03364
G1 X108.962 Y147.703 E0.05314
G1 X108.322 Y146.766 E0.03559
G1 X107.496 Y145.357 E0.05119
G1 X106.966 Y144.284 E0.03754
G1 X106.371 Y142.831 E0.04924
G1 X105.978 Y141.634 E0.03949
G1 X105.609 Y140.172 E0.04729
G1 X105.377 Y138.870 E0.04144
G1 X105.224 Y137.432 E0.04534
G1 X105.175 Y136.049 E0.04339
G1 X105.224 Y134.666 E0.04339
G1 X105.377 Y133.228 E0.04534
G1 X105.609 Y131.927 E0.04144
G1 X105.978 Y130.465 E0.04729
G1 X106.371 Y129.268 E0.03949
G1 X106.966 Y127.815 E0.04924
G1 X107.496 Y126.741 E0.03754
G1 X108.322 Y125.332 E0.05119
G1 X108.962 Y124.395 E0.03559
G1 X110.016 Y123.068 E0.05314
G1 X110.741 Y122.277 E0.03364
G1 X112.016 Y121.068 E0.05509
G1 X112.796 Y120.426 E0.03169
G1 X114.280 Y119.373 E0.05704
G1 X115.090 Y118.879 E0.02974
G1 X116.762 Y118.017 E0.05899
G1 X117.576 Y117.667 E0.02779
G1 X119.412 Y117.028 E0.06094
G1 X120.207 Y116.813 E0.02583
G1 X122.176 Y116.427 E0.06289
G1 X122.948 Y116.332 E0.02440
G1 X124.905 Y116.229 E0.06146
G1 X125.173 Y115.884 F10800.000
G1 F8640
G1 X127.821 Y116.426 E-0.67482
G1 X128.182 Y116.504 E-0.08518
G1 E-0.04000 F2100.00000
G1 Z0.800 F10800.000
G1 X126.862 Y113.040
G1 Z0.200
G1 E0.80000 F2100.00000
G1 F1200
G1 X124.396 Y113.140 E0.07738
G1 X123.714 Y113.098 E0.02142
G1 X121.922 Y112.841 E0.05676
G1 X121.200 Y112.676 E0.02322
G1 X119.533 Y112.151 E0.05479
G1 X118.789 Y111.847 E0.02520
G1 X117.286 Y111.087 E0.05282
G1 X116.548 Y110.633 E0.02717
G1 X115.239 Y109.675 E0.05085
G1 X114.537 Y109.066 E0.02914
G1 X113.445 Y107.954 E0.04887
G1 X112.811 Y107.190 E0.03112
G1 X111.951 Y105.966 E0.04690
G1 X111.417 Y105.056 E0.03309
G1 X110.795 Y103.765 E0.04493
G1 X110.394 Y102.721 E0.03506
G1 X110.007 Y101.407 E0.04296
G1 X109.768 Y100.250 E0.03704
G1 X109.608 Y98.952 E0.04098
G1 X109.558 Y97.709 E0.03901
G1 X109.608 Y96.466 E0.03901
G1 X109.768 Y95.169 E0.04098
G1 X110.007 Y94.012 E0.03704
G1 X110.394 Y92.698 E0.04296
G1 X110.795 Y91.654 E0.03506
G1 X111.417 Y90.363 E0.04493
G1 X111.951 Y89.452 E0.03309
G1 X112.811 Y88.228 E0.04690
G1 X113.445 Y87.465 E0.03112
G1 X114.537 Y86.352 E0.04887
G1 X115.239 Y85.743 E0.02914
G1 X116.548 Y84.786 E0.05085
G1 X117.286 Y84.332 E0.02717
G1 X118.789 Y83.571 E0.05282
G1 X119.533 Y83.267 E0.02520
G1 X121.200 Y82.742 E0.05479
G1 X121.922 Y82.577 E0.02322
G1 X123.719 Y82.321 E0.05692
G1 X124.390 Y82.279 E0.02109
G1 X126.282 Y82.319 E0.05932
G1 X128.791 Y82.738 E0.07978
G1 X131.204 Y83.566 E0.07997
G1 X133.447 Y84.780 E0.07997
G1 X135.460 Y86.347 E0.07997
G1 X137.187 Y88.224 E0.07997
G1 X138.582 Y90.359 E0.07997
G1 X139.607 Y92.695 E0.07997
G1 X140.233 Y95.167 E0.07997
G1 X140.444 Y97.709 E0.07995
G1 X140.244 Y100.187 E0.07796
G1 X139.641 Y102.618 E0.07852
G1 X138.675 Y104.886 E0.07731
G1 X137.346 Y106.987 E0.07793
G1 X135.698 Y108.847 E0.07793
G1 X133.773 Y110.419 E0.07793
G1 X131.621 Y111.662 E0.07793
G1 X129.297 Y112.543 E0.07793
G1 X126.920 Y113.028 E0.07605
G1 X126.845 Y112.659 F10800.000
G1 F1200
G1 X124.400 Y112.762 E0.07674
G1 X123.752 Y112.722 E0.02035
G1 X121.990 Y112.470 E0.05580
G1 X121.298 Y112.312 E0.02226
G1 X119.661 Y111.796 E0.05382
G1 X118.946 Y111.504 E0.02423
G1 X117.470 Y110.757 E0.05185
G1 X116.758 Y110.320 E0.02620
G1 X115.474 Y109.380 E0.04988
G1 X114.795 Y108.791 E0.02818
G1 X113.725 Y107.701 E0.04791
G1 X113.111 Y106.961 E0.03015
G1 X112.268 Y105.762 E0.04594
G1 X111.750 Y104.878 E0.03213
G1 X111.141 Y103.615 E0.04396
G1 X110.751 Y102.600 E0.03410
G1 X110.373 Y101.315 E0.04199
G1 X110.141 Y100.188 E0.03607
G1 X109.984 Y98.922 E0.04002
G1 X109.935 Y97.709 E0.03805
G1 X109.984 Y96.497 E0.03805
G1 X110.141 Y95.230 E0.04002
G1 X110.373 Y94.103 E0.03607
G1 X110.751 Y92.819 E0.04199
G1 X111.141 Y91.803 E0.03410
G1 X111.750 Y90.540 E0.04396
G1 X112.268 Y89.656 E0.03213
G1 X113.111 Y88.458 E0.04594
G1 X113.725 Y87.718 E0.03015
G1 X114.795 Y86.627 E0.04791
G1 X115.474 Y86.039 E0.02818
G1 X116.758 Y85.099 E0.04988
G1 X117.470 Y84.661 E0.02620
G1 X118.946 Y83.915 E0.05185
G1 X119.661 Y83.622 E0.02423
G1 X121.298 Y83.106 E0.05382
G1 X121.990 Y82.948 E0.02226
G1 X123.757 Y82.696 E0.05595
G1 X124.398 Y82.657 E0.02012
G1 X126.246 Y82.696 E0.05798
G1 X128.698 Y83.105 E0.07794
G1 X131.052 Y83.913 E0.07801
G1 X133.240 Y85.097 E0.07801
G1 X135.203 Y86.625 E0.07801
G1 X136.889 Y88.456 E0.07801
G1 X138.250 Y90.539 E0.07801
G1 X139.249 Y92.818 E0.07801
G1 X139.860 Y95.230 E0.07801
G1 X140.065 Y97.709 E0.07801
G1 X139.870 Y100.126 E0.07603
G1 X139.282 Y102.498 E0.07661
G1 X138.340 Y104.710 E0.07541
G1 X137.044 Y106.760 E0.07602
G1 X135.436 Y108.574 E0.07602
G1 X133.558 Y110.108 E0.07602
G1 X131.458 Y111.320 E0.07602
G1 X129.191 Y112.180 E0.07602
G1 X126.904 Y112.647 E0.07321
G1 X126.689 Y113.027 F10800.000
G1 F8640
G1 X124.400 Y112.762 E-0.57880
G1 X123.752 Y112.722 E-0.14983
G1 X123.617 Y112.703 E-0.03137
G1 E-0.04000 F2100.00000
G1 Z0.800 F10800.000
G1 X126.647 Y79.465
G1 Z0.200
G1 E0.80000 F2100.00000
G1 F1200
G1 X124.469 Y79.563 E0.06834
G1 X123.856 Y79.520 E0.01927
G1 X122.282 Y79.269 E0.04997
G1 X121.633 Y79.103 E0.02101
G1 X120.189 Y78.591 E0.04804
G1 X119.525 Y78.284 E0.02294
G1 X118.251 Y77.550 E0.04611
G1 X117.603 Y77.092 E0.02487
G1 X116.529 Y76.179 E0.04418
G1 X115.932 Y75.567 E0.02680
G1 X115.081 Y74.523 E0.04225
G1 X114.570 Y73.762 E0.02874
G1 X113.952 Y72.634 E0.04032
G1 X113.562 Y71.737 E0.03067
G1 X113.178 Y70.574 E0.03839
G1 X112.944 Y69.561 E0.03260
G1 X112.785 Y68.409 E0.03646
G1 X112.735 Y67.309 E0.03453
G1 X112.785 Y66.209 E0.03453
G1 X112.944 Y65.057 E0.03646
G1 X113.178 Y64.044 E0.03260
G1 X113.562 Y62.882 E0.03839
G1 X113.952 Y61.984 E0.03067
G1 X114.570 Y60.857 E0.04032
G1 X115.081 Y60.096 E0.02874
G1 X115.932 Y59.051 E0.04225
G1 X116.529 Y58.440 E0.02680
G1 X117.603 Y57.527 E0.04418
G1 X118.251 Y57.069 E0.02487
G1 X119.525 Y56.335 E0.04611
G1 X120.189 Y56.028 E0.02294
G1 X121.633 Y55.516 E0.04804
G1 X122.282 Y55.350 E0.02101
G1 X123.861 Y55.098 E0.05011
G1 X124.463 Y55.056 E0.01893
G1 X126.139 Y55.096 E0.05256
G1 X128.357 Y55.511 E0.07075
G1 X130.468 Y56.329 E0.07098
G1 X132.392 Y57.520 E0.07098
G1 X134.065 Y59.045 E0.07098
G1 X135.429 Y60.852 E0.07098
G1 X136.438 Y62.878 E0.07098
G1 X137.058 Y65.055 E0.07098
G1 X137.267 Y67.309 E0.07095
G1 X137.069 Y69.500 E0.06898
G1 X136.484 Y71.619 E0.06895
G1 X135.530 Y73.601 E0.06895
G1 X134.238 Y75.380 E0.06895
G1 X132.648 Y76.900 E0.06895
G1 X130.813 Y78.111 E0.06895
G1 X128.791 Y78.975 E0.06895
G1 X126.705 Y79.451 E0.06707
G1 X126.621 Y79.084 F10800.000
G1 F1200
G1 X124.474 Y79.185 E0.06741
G1 X123.899 Y79.145 E0.01807
G1 X122.359 Y78.899 E0.04889
G1 X121.743 Y78.742 E0.01993
G1 X120.331 Y78.241 E0.04696
G1 X119.698 Y77.949 E0.02186
G1 X118.454 Y77.232 E0.04504
G1 X117.834 Y76.794 E0.02379
G1 X116.787 Y75.903 E0.04311
G1 X116.214 Y75.316 E0.02573
G1 X115.384 Y74.298 E0.04118
G1 X114.892 Y73.566 E0.02766
G1 X114.291 Y72.468 E0.03925
G1 X113.915 Y71.602 E0.02959
G1 X113.541 Y70.473 E0.03731
G1 X113.315 Y69.493 E0.03152
G1 X113.161 Y68.375 E0.03538
G1 X113.113 Y67.309 E0.03345
G1 X113.161 Y66.243 E0.03345
G1 X113.315 Y65.126 E0.03538
G1 X113.541 Y64.146 E0.03152
G1 X113.915 Y63.016 E0.03731
G1 X114.291 Y62.150 E0.02959
G1 X114.892 Y61.053 E0.03925
G1 X115.384 Y60.321 E0.02766
G1 X116.214 Y59.303 E0.04118
G1 X116.787 Y58.715 E0.02573
G1 X117.834 Y57.825 E0.04311
G1 X118.454 Y57.387 E0.02379
G1 X119.698 Y56.670 E0.04504
G1 X120.331 Y56.377 E0.02186
G1 X121.743 Y55.877 E0.04696
G1 X122.359 Y55.719 E0.01993
G1 X123.903 Y55.473 E0.04903
G1 X124.471 Y55.434 E0.01786
G1 X126.099 Y55.472 E0.05106
G1 X128.253 Y55.875 E0.06871
G1 X130.299 Y56.668 E0.06878
G1 X132.164 Y57.822 E0.06878
G1 X133.785 Y59.300 E0.06878
G1 X135.107 Y61.051 E0.06878
G1 X136.085 Y63.015 E0.06878
G1 X136.686 Y65.125 E0.06878
G1 X136.888 Y67.309 E0.06878
G1 X136.697 Y69.432 E0.06683
G1 X136.130 Y71.486 E0.06682
G1 X135.205 Y73.407 E0.06682
G1 X133.952 Y75.131 E0.06682
G1 X132.412 Y76.604 E0.06682
G1 X130.633 Y77.778 E0.06682
G1 X128.674 Y78.615 E0.06682
G1 X126.680 Y79.070 E0.06413
G1 X126.470 Y79.454 F10800.000
G1 F8640
G1 X124.474 Y79.185 E-0.51007
G1 X123.899 Y79.145 E-0.13305
G1 X123.399 Y79.066 E-0.11689
G1 E-0.04000 F2100.00000
G1 Z0.800 F10800.000
G1 X138.586 Y64.563
G1 Z0.200
G1 E0.80000 F2100.00000
G1 F1200
G1 X138.838 Y66.858 E0.07240
G1 X145.595 Y136.260 E2.18634
G1 X145.408 Y138.762 E0.07868
G1 X144.880 Y141.402 E0.08443
G1 X144.012 Y143.949 E0.08436
G1 X142.819 Y146.361 E0.08436
G1 X141.323 Y148.597 E0.08436
G1 X139.547 Y150.618 E0.08436
G1 X137.523 Y152.391 E0.08436
G1 X135.285 Y153.884 E0.08436
G1 X132.871 Y155.073 E0.08436
G1 X130.323 Y155.937 E0.08436
G1 X127.684 Y156.461 E0.08436
G1 X125.000 Y156.637 E0.08436
G1 X122.315 Y156.461 E0.08436
G1 X119.669 Y155.935 E0.08460
G1 X118.119 Y155.454 E0.05088
G1 X115.536 Y154.333 E0.08828
G1 X113.137 Y152.875 E0.08802
G1 X110.958 Y151.105 E0.08802
G1 X109.040 Y149.055 E0.08802
G1 X107.419 Y146.763 E0.08802
G1 X106.125 Y144.272 E0.08802
G1 X105.182 Y141.627 E0.08802
G1 X104.608 Y138.879 E0.08802
G1 X104.413 Y136.088 E0.08773
G1 X111.173 Y67.244 E2.16893
G1 X111.344 Y65.048 E0.06908
G1 X111.842 Y62.955 E0.06746
G1 X112.658 Y60.964 E0.06746
G1 X113.774 Y59.125 E0.06746
M73 Q2 S48
G1 X115.161 Y57.480 E0.06746
G1 X116.786 Y56.071 E0.06746
G1 X118.610 Y54.930 E0.06746
G1 X120.589 Y54.086 E0.06746
M73 P2 R47
G1 X122.675 Y53.560 E0.06746
G1 X124.818 Y53.363 E0.06746
G1 X126.965 Y53.501 E0.06746
G1 X129.073 Y53.972 E0.06772
G1 X130.334 Y54.428 E0.04207
G1 X132.353 Y55.474 E0.07130
G1 X134.167 Y56.830 E0.07100
G1 X135.735 Y58.463 E0.07100
G1 X137.016 Y60.331 E0.07100
G1 X137.974 Y62.382 E0.07100
G1 X138.569 Y64.505 E0.06912
G1 X138.933 Y64.403 F10800.000
G1 F1200
G1 X138.957 Y64.491 E0.00285
G1 X139.213 Y66.819 E0.07344
G1 X145.974 Y136.255 E2.18743
G1 X145.783 Y138.813 E0.08042
G1 X145.245 Y141.501 E0.08593
G1 X144.361 Y144.094 E0.08591
G1 X143.146 Y146.550 E0.08591
G1 X141.622 Y148.827 E0.08591
G1 X139.814 Y150.885 E0.08591
G1 X137.753 Y152.690 E0.08591
G1 X135.474 Y154.211 E0.08591
G1 X133.016 Y155.422 E0.08591
G1 X130.421 Y156.302 E0.08591
G1 X127.734 Y156.836 E0.08591
