; generated by Slic3r Prusa Edition 1.41.3+win64 on 2020-02-10 at 10:35:24

; 

; external perimeters extrusion width = 0.45mm
; perimeters extrusion width = 0.45mm
; infill extrusion width = 0.45mm
; solid infill extrusion width = 0.45mm
; top infill extrusion width = 0.40mm
; first layer extrusion width = 0.42mm

M73 P0 R75
M73 Q0 S76
M201 X1000 Y1000 Z1000 E5000 ; sets maximum accelerations, mm/sec^2
M203 X200 Y200 Z12 E120 ; sets maximum feedrates, mm/sec
M204 P1250 R1250 T1250 ; sets acceleration (P, T) and retract acceleration (R), mm/sec^2
M205 X8.00 Y8.00 Z0.40 E1.50 ; sets the jerk limits, mm/sec
M205 S0 T0 ; sets the minimum extruding and travel feed rate, mm/sec
M107
M115 U3.8.1 ; tell printer latest fw version
M83  ; extruder relative mode
M104 S215 ; set extruder temp
M140 S60 ; set bed temp
M190 S60 ; wait for bed temp
M109 S215 ; wait for extruder temp
G28 W ; home all without mesh bed level
G80 ; mesh bed leveling
G1 Y-3.0 F1000.0 ; go outside print area
G92 E0.0
G1 X60.0 E9.0  F1000.0 ; intro line
M73 Q0 S76
M73 P0 R75
G1 X100.0 E12.5  F1000.0 ; intro line
G92 E0.0
M221 S95
M900 K30 ; Filament gcode
G21 ; set units to millimeters
G90 ; use absolute coordinates
M83 ; use relative distances for extrusion
;BEFORE_LAYER_CHANGE
G92 E0.0
;0.2


G1 E-0.80000 F2100.00000
G1 Z0.600 F10800.000
;AFTER_LAYER_CHANGE
;0.2
G1 X108.639 Y36.194
G1 Z0.200
G1 E0.80000 F2100.00000
M204 S1000
G1 F1200
G1 X109.791 Y33.572 E0.08979
G1 X111.353 Y31.184 E0.08945
G1 X113.354 Y29.026 E0.09230
G1 X115.546 Y27.329 E0.08693
G1 X118.137 Y25.939 E0.09218
G1 X119.711 Y25.347 E0.05272
G1 X122.189 Y24.751 E0.07991
G1 X124.999 Y24.519 E0.08840
G1 X127.701 Y24.732 E0.08498
G1 X130.350 Y25.369 E0.08544
G1 X132.857 Y26.409 E0.08509
G1 X135.290 Y27.924 E0.08987
G1 X137.341 Y29.711 E0.08530
G1 X138.987 Y31.649 E0.07971
G1 X140.323 Y33.816 E0.07983
G1 X141.438 Y36.453 E0.08976
G1 X142.055 Y38.990 E0.08189
G1 X153.607 Y157.009 E3.71808
G1 X153.376 Y160.512 E0.11006
G1 X152.732 Y163.911 E0.10848
G1 X151.569 Y167.513 E0.11867
G1 X150.065 Y170.702 E0.11056
G1 X148.181 Y173.678 E0.11045
G1 X146.882 Y175.344 E0.06623
G1 X144.713 Y177.645 E0.09914
G1 X141.981 Y179.937 E0.11182
G1 X139.297 Y181.697 E0.10062
G1 X136.328 Y183.188 E0.10417
G1 X133.206 Y184.325 E0.10417
G1 X130.088 Y185.068 E0.10051
G1 X126.557 Y185.482 E0.11148
G1 X123.201 Y185.470 E0.10520
G1 X119.765 Y185.041 E0.10857
G1 X116.088 Y184.102 E0.11901
G1 X112.821 Y182.804 E0.11022
G1 X109.729 Y181.108 E0.11056
G1 X107.886 Y179.842 E0.07012
G1 X105.374 Y177.732 E0.10285
G1 X103.092 Y175.312 E0.10429
G1 X101.174 Y172.744 E0.10051
G1 X99.389 Y169.652 E0.11194
G1 X98.121 Y166.704 E0.10062
G1 X97.170 Y163.524 E0.10406
G1 X96.592 Y160.252 E0.10417
G1 X96.393 Y157.051 E0.10057
G1 X107.956 Y38.866 E3.72330
G1 X108.624 Y36.252 E0.08461
; PURGING FINISHED
G1 F8640
G1 X109.791 Y33.572 E-0.67492
G1 X109.992 Y33.263 E-0.08508
G1 E-0.04000 F2100.00000
G1 Z0.800 F10800.000
G1 X124.236 Y133.581
G1 Z0.200
G1 E0.80000 F2100.00000
G1 F1200
G1 X127.355 Y133.686 E0.09786
G1 X130.438 Y134.206 E0.09803
G1 X133.446 Y135.142 E0.09879
G1 X136.259 Y136.448 E0.09724
G1 X138.894 Y138.130 E0.09802
G1 X141.282 Y140.149 E0.09802
G1 X143.379 Y142.467 E0.09802
G1 X145.148 Y145.045 E0.09802
G1 X146.558 Y147.835 E0.09802
G1 X147.584 Y150.788 E0.09802
G1 X148.206 Y153.852 E0.09802
G1 X148.415 Y156.971 E0.09801
G1 X148.215 Y160.026 E0.09600
G1 X147.618 Y163.028 E0.09598
G1 X146.634 Y165.927 E0.09598
G1 X145.280 Y168.673 E0.09598
G1 X143.579 Y171.218 E0.09598
G1 X141.561 Y173.520 E0.09598
G1 X139.259 Y175.538 E0.09598
G1 X136.714 Y177.239 E0.09598
G1 X133.968 Y178.593 E0.09598
G1 X131.069 Y179.577 E0.09598
G1 X128.067 Y180.174 E0.09598
G1 X125.027 Y180.373 E0.09553
G1 X124.221 Y180.360 E0.02527
G1 X121.967 Y180.174 E0.07092
G1 X121.111 Y180.046 E0.02712
G1 X118.963 Y179.578 E0.06893
G1 X118.071 Y179.320 E0.02911
G1 X116.064 Y178.595 E0.06694
G1 X115.155 Y178.196 E0.03110
G1 X113.317 Y177.241 E0.06495
G1 X112.415 Y176.693 E0.03309
G1 X110.771 Y175.541 E0.06296
G1 X109.899 Y174.839 E0.03508
G1 X108.468 Y173.522 E0.06097
G1 X107.653 Y172.665 E0.03708
G1 X106.449 Y171.221 E0.05898
G1 X105.717 Y170.212 E0.03907
G1 X104.747 Y168.675 E0.05699
G1 X104.124 Y167.523 E0.04106
G1 X103.393 Y165.929 E0.05500
G1 X102.904 Y164.646 E0.04305
G1 X102.408 Y163.030 E0.05301
G1 X102.079 Y161.631 E0.04504
G1 X101.811 Y160.027 E0.05102
G1 X101.663 Y158.534 E0.04703
G1 X101.610 Y156.971 E0.04902
G1 X101.663 Y155.408 E0.04902
G1 X101.811 Y153.916 E0.04703
G1 X102.079 Y152.311 E0.05102
G1 X102.408 Y150.913 E0.04504
G1 X102.904 Y149.297 E0.05301
G1 X103.393 Y148.013 E0.04305
G1 X104.124 Y146.419 E0.05500
G1 X104.747 Y145.267 E0.04106
G1 X105.717 Y143.730 E0.05699
G1 X106.449 Y142.722 E0.03907
G1 X107.653 Y141.277 E0.05898
G1 X108.468 Y140.420 E0.03708
G1 X109.899 Y139.104 E0.06097
G1 X110.771 Y138.402 E0.03508
G1 X112.415 Y137.249 E0.06296
G1 X113.317 Y136.701 E0.03309
G1 X115.155 Y135.746 E0.06495
G1 X116.064 Y135.348 E0.03110
G1 X118.071 Y134.622 E0.06694
G1 X118.963 Y134.365 E0.02911
G1 X121.112 Y133.897 E0.06894
G1 X121.985 Y133.767 E0.02768
G1 X124.176 Y133.586 E0.06893
G1 X124.207 Y133.962 F10800.000
G1 F1200
G1 X127.317 Y134.062 E0.09757
G1 X130.350 Y134.573 E0.09644
G1 X133.310 Y135.495 E0.09720
G1 X136.078 Y136.779 E0.09567
G1 X138.670 Y138.434 E0.09644
G1 X141.019 Y140.420 E0.09644
G1 X143.082 Y142.701 E0.09644
G1 X144.823 Y145.237 E0.09644
G1 X146.210 Y147.982 E0.09644
G1 X147.219 Y150.888 E0.09644
G1 X147.832 Y153.902 E0.09644
G1 X148.037 Y156.971 E0.09644
G1 X147.840 Y159.977 E0.09444
G1 X147.253 Y162.930 E0.09443
G1 X146.285 Y165.782 E0.09443
G1 X144.953 Y168.484 E0.09443
G1 X143.279 Y170.988 E0.09443
G1 X141.293 Y173.252 E0.09443
G1 X139.029 Y175.238 E0.09443
G1 X136.525 Y176.911 E0.09443
G1 X133.824 Y178.244 E0.09443
G1 X130.972 Y179.212 E0.09443
G1 X128.018 Y179.799 E0.09443
G1 X125.017 Y179.996 E0.09427
G1 X124.240 Y179.983 E0.02439
G1 X122.010 Y179.799 E0.07014
G1 X121.180 Y179.675 E0.02633
G1 X119.056 Y179.212 E0.06815
G1 X118.188 Y178.961 E0.02833
G1 X116.204 Y178.244 E0.06616
G1 X115.318 Y177.856 E0.03032
G1 X113.502 Y176.912 E0.06417
G1 X112.621 Y176.377 E0.03231
G1 X110.997 Y175.239 E0.06218
G1 X110.145 Y174.553 E0.03430
G1 X108.733 Y173.253 E0.06019
G1 X107.935 Y172.415 E0.03629
G1 X106.746 Y170.989 E0.05820
G1 X106.029 Y170.001 E0.03828
G1 X105.073 Y168.485 E0.05621
G1 X104.462 Y167.355 E0.04028
G1 X103.741 Y165.783 E0.05421
G1 X103.261 Y164.523 E0.04227
G1 X102.772 Y162.931 E0.05222
G1 X102.449 Y161.557 E0.04426
G1 X102.185 Y159.977 E0.05023
G1 X102.039 Y158.509 E0.04625
G1 X101.988 Y156.971 E0.04824
G1 X102.039 Y155.433 E0.04824
G1 X102.185 Y153.966 E0.04625
G1 X102.449 Y152.385 E0.05023
G1 X102.772 Y151.011 E0.04426
G1 X103.261 Y149.419 E0.05222
G1 X103.741 Y148.159 E0.04227
G1 X104.462 Y146.588 E0.05421
G1 X105.073 Y145.458 E0.04028
G1 X106.029 Y143.942 E0.05621
G1 X106.746 Y142.953 E0.03828
G1 X107.935 Y141.528 E0.05820
G1 X108.733 Y140.689 E0.03629
G1 X110.145 Y139.390 E0.06019
G1 X110.997 Y138.703 E0.03430
G1 X112.621 Y137.565 E0.06218
G1 X113.502 Y137.030 E0.03231
G1 X115.318 Y136.087 E0.06417
G1 X116.204 Y135.698 E0.03032
G1 X118.188 Y134.981 E0.06616
G1 X119.056 Y134.730 E0.02833
G1 X121.180 Y134.268 E0.06815
G1 X122.028 Y134.142 E0.02689
G1 X124.147 Y133.967 E0.06666
G1 X124.402 Y133.613 F10800.000
G1 F8640
G1 X127.317 Y134.062 E-0.73230
G1 X127.435 Y134.082 E-0.02770
G1 E-0.04000 F2100.00000
G1 Z0.800 F10800.000
G1 X125.698 Y130.862
G1 Z0.200
G1 E0.80000 F2100.00000
G1 F1200
G1 X122.896 Y130.764 E0.08791
G1 X122.108 Y130.666 E0.02488
G1 X120.114 Y130.275 E0.06372
G1 X119.293 Y130.052 E0.02667
G1 X117.432 Y129.405 E0.06178
G1 X116.593 Y129.044 E0.02862
G1 X114.898 Y128.170 E0.05983
G1 X114.065 Y127.663 E0.03057
G1 X112.560 Y126.594 E0.05788
G1 X111.759 Y125.935 E0.03252
G1 X110.464 Y124.708 E0.05593
G1 X109.722 Y123.897 E0.03447
G1 X108.651 Y122.549 E0.05398
G1 X107.995 Y121.590 E0.03642
G1 X107.157 Y120.158 E0.05203
G1 X106.615 Y119.061 E0.03837
G1 X106.010 Y117.583 E0.05008
G1 X105.608 Y116.361 E0.04033
G1 X105.232 Y114.873 E0.04813
G1 X104.996 Y113.545 E0.04228
G1 X104.840 Y112.081 E0.04618
G1 X104.790 Y110.671 E0.04423
G1 X104.840 Y109.261 E0.04423
G1 X104.996 Y107.797 E0.04618
G1 X105.232 Y106.470 E0.04228
G1 X105.608 Y104.981 E0.04813
G1 X106.010 Y103.759 E0.04033
G1 X106.615 Y102.281 E0.05008
G1 X107.157 Y101.184 E0.03837
G1 X107.995 Y99.752 E0.05203
G1 X108.651 Y98.793 E0.03642
G1 X109.722 Y97.445 E0.05398
G1 X110.464 Y96.634 E0.03447
G1 X111.759 Y95.407 E0.05593
G1 X112.560 Y94.748 E0.03252
G1 X114.065 Y93.680 E0.05788
G1 X114.898 Y93.172 E0.03057
G1 X116.593 Y92.298 E0.05983
G1 X117.432 Y91.937 E0.02862
G1 X119.293 Y91.290 E0.06178
G1 X120.114 Y91.067 E0.02667
G1 X122.109 Y90.676 E0.06374
G1 X122.907 Y90.578 E0.02524
G1 X124.998 Y90.468 E0.06564
G1 X127.868 Y90.674 E0.09020
G1 X130.684 Y91.286 E0.09038
G1 X133.385 Y92.294 E0.09038
G1 X135.915 Y93.675 E0.09038
G1 X138.223 Y95.403 E0.09039
G1 X140.275 Y97.459 E0.09108
G1 X141.988 Y99.749 E0.08966
G1 X143.370 Y102.278 E0.09038
G1 X144.377 Y104.979 E0.09038
G1 X144.990 Y107.796 E0.09038
G1 X145.196 Y110.671 E0.09037
G1 X144.999 Y113.483 E0.08839
G1 X144.413 Y116.240 E0.08837
G1 X143.449 Y118.889 E0.08837
G1 X142.125 Y121.377 E0.08839
G1 X140.453 Y123.674 E0.08906
G1 X138.511 Y125.685 E0.08767
G1 X136.290 Y127.420 E0.08838
G1 X133.849 Y128.830 E0.08837
G1 X131.236 Y129.885 E0.08837
G1 X128.501 Y130.567 E0.08838
G1 X125.757 Y130.856 E0.08649
G1 X125.718 Y130.481 F10800.000
G1 F1200
G1 X122.926 Y130.388 E0.08760
G1 X122.168 Y130.294 E0.02394
G1 X120.200 Y129.908 E0.06289
G1 X119.404 Y129.692 E0.02583
G1 X117.569 Y129.053 E0.06094
G1 X116.755 Y128.703 E0.02779
G1 X115.082 Y127.841 E0.05899
G1 X114.272 Y127.347 E0.02974
G1 X112.789 Y126.295 E0.05704
G1 X112.009 Y125.652 E0.03169
G1 X110.733 Y124.444 E0.05509
G1 X110.009 Y123.652 E0.03364
G1 X108.955 Y122.325 E0.05314
G1 X108.314 Y121.388 E0.03559
G1 X107.489 Y119.979 E0.05119
G1 X106.959 Y118.906 E0.03754
G1 X106.364 Y117.452 E0.04924
G1 X105.971 Y116.256 E0.03949
G1 X105.601 Y114.793 E0.04729
G1 X105.369 Y113.492 E0.04144
G1 X105.216 Y112.054 E0.04534
G1 X105.168 Y110.671 E0.04339
G1 X105.216 Y109.288 E0.04339
G1 X105.369 Y107.850 E0.04534
G1 X105.601 Y106.549 E0.04144
G1 X105.971 Y105.087 E0.04729
G1 X106.364 Y103.890 E0.03949
G1 X106.959 Y102.437 E0.04924
G1 X107.489 Y101.363 E0.03754
G1 X108.314 Y99.954 E0.05119
G1 X108.955 Y99.017 E0.03559
G1 X110.009 Y97.690 E0.05314
G1 X110.733 Y96.898 E0.03364
G1 X112.009 Y95.690 E0.05509
G1 X112.789 Y95.048 E0.03169
G1 X114.272 Y93.995 E0.05704
G1 X115.082 Y93.501 E0.02974
G1 X116.755 Y92.639 E0.05899
G1 X117.569 Y92.289 E0.02779
G1 X119.404 Y91.650 E0.06094
G1 X120.200 Y91.435 E0.02583
G1 X122.168 Y91.049 E0.06289
G1 X122.940 Y90.954 E0.02440
G1 X124.994 Y90.846 E0.06449
G1 X127.814 Y91.048 E0.08863
G1 X130.578 Y91.649 E0.08869
G1 X133.228 Y92.638 E0.08869
G1 X135.711 Y93.993 E0.08869
G1 X137.975 Y95.688 E0.08869
G1 X139.989 Y97.707 E0.08939
G1 X141.670 Y99.953 E0.08798
G1 X143.026 Y102.436 E0.08869
G1 X144.015 Y105.086 E0.08869
G1 X144.616 Y107.850 E0.08869
G1 X144.818 Y110.671 E0.08868
G1 X144.625 Y113.430 E0.08673
G1 X144.050 Y116.136 E0.08672
G1 X143.104 Y118.735 E0.08672
G1 X141.805 Y121.177 E0.08673
G1 X140.164 Y123.430 E0.08741
G1 X138.258 Y125.404 E0.08603
G1 X136.079 Y127.107 E0.08672
G1 X133.683 Y128.490 E0.08672
G1 X131.119 Y129.526 E0.08672
G1 X128.435 Y130.195 E0.08672
G1 X125.777 Y130.474 E0.08379
G1 X125.530 Y130.834 F10800.000
G1 F8640
G1 X122.926 Y130.388 E-0.65883
G1 X122.491 Y130.334 E-0.10118
G1 E-0.04000 F2100.00000
G1 Z0.800 F10800.000
G1 X126.854 Y87.662
G1 Z0.200
G1 E0.80000 F2100.00000
G1 F1200
G1 X124.388 Y87.762 E0.07738
G1 X123.706 Y87.720 E0.02142
G1 X121.914 Y87.463 E0.05676
G1 X121.192 Y87.298 E0.02322
G1 X119.525 Y86.773 E0.05479
G1 X118.781 Y86.469 E0.02520
G1 X117.278 Y85.708 E0.05282
G1 X116.540 Y85.255 E0.02717
G1 X115.231 Y84.297 E0.05085
G1 X114.529 Y83.688 E0.02914
G1 X113.438 Y82.575 E0.04887
G1 X112.803 Y81.812 E0.03112
G1 X111.943 Y80.588 E0.04690
G1 X111.410 Y79.678 E0.03309
G1 X110.787 Y78.387 E0.04493
G1 X110.386 Y77.343 E0.03506
G1 X109.999 Y76.029 E0.04296
G1 X109.761 Y74.872 E0.03704
G1 X109.600 Y73.574 E0.04098
G1 X109.550 Y72.331 E0.03901
G1 X109.600 Y71.088 E0.03901
G1 X109.761 Y69.791 E0.04098
G1 X109.999 Y68.634 E0.03704
G1 X110.386 Y67.319 E0.04296
G1 X110.787 Y66.276 E0.03506
G1 X111.410 Y64.985 E0.04493
G1 X111.943 Y64.074 E0.03309
G1 X112.803 Y62.850 E0.04690
G1 X113.438 Y62.087 E0.03112
G1 X114.529 Y60.974 E0.04887
G1 X115.231 Y60.365 E0.02914
G1 X116.540 Y59.408 E0.05085
G1 X117.278 Y58.954 E0.02717
G1 X118.781 Y58.193 E0.05282
G1 X119.525 Y57.889 E0.02520
G1 X121.192 Y57.364 E0.05479
G1 X121.914 Y57.199 E0.02322
G1 X123.711 Y56.943 E0.05692
G1 X124.382 Y56.901 E0.02109
G1 X126.274 Y56.941 E0.05932
G1 X128.784 Y57.360 E0.07978
G1 X131.196 Y58.188 E0.07997
G1 X133.439 Y59.402 E0.07997
G1 X135.452 Y60.969 E0.07997
G1 X137.180 Y62.845 E0.07997
G1 X138.575 Y64.981 E0.07997
G1 X139.599 Y67.317 E0.07997
G1 X140.225 Y69.789 E0.07997
G1 X140.436 Y72.331 E0.07995
G1 X140.236 Y74.808 E0.07795
G1 X139.641 Y77.222 E0.07793
G1 X138.667 Y79.508 E0.07793
G1 X137.339 Y81.609 E0.07793
G1 X135.690 Y83.469 E0.07794
G1 X133.748 Y85.051 E0.07852
G1 X131.613 Y86.284 E0.07731
G1 X129.289 Y87.165 E0.07793
G1 X126.913 Y87.650 E0.07605
G1 X126.837 Y87.281 F10800.000
G1 F1200
G1 X124.392 Y87.384 E0.07674
G1 X123.744 Y87.344 E0.02035
G1 X121.983 Y87.092 E0.05580
G1 X121.291 Y86.934 E0.02226
G1 X119.654 Y86.418 E0.05382
G1 X118.938 Y86.126 E0.02423
G1 X117.463 Y85.379 E0.05185
G1 X116.751 Y84.941 E0.02620
G1 X115.467 Y84.002 E0.04988
G1 X114.788 Y83.413 E0.02818
G1 X113.718 Y82.322 E0.04791
G1 X113.103 Y81.583 E0.03015
G1 X112.261 Y80.384 E0.04594
G1 X111.743 Y79.500 E0.03213
G1 X111.134 Y78.237 E0.04396
G1 X110.744 Y77.222 E0.03410
G1 X110.366 Y75.937 E0.04199
G1 X110.133 Y74.810 E0.03607
G1 X109.977 Y73.544 E0.04002
G1 X109.928 Y72.331 E0.03805
G1 X109.977 Y71.119 E0.03805
G1 X110.133 Y69.852 E0.04002
G1 X110.366 Y68.725 E0.03607
G1 X110.744 Y67.441 E0.04199
G1 X111.134 Y66.425 E0.03410
G1 X111.743 Y65.162 E0.04396
G1 X112.261 Y64.278 E0.03213
G1 X113.103 Y63.080 E0.04594
G1 X113.718 Y62.340 E0.03015
G1 X114.788 Y61.249 E0.04791
G1 X115.467 Y60.660 E0.02818
G1 X116.751 Y59.721 E0.04988
G1 X117.463 Y59.283 E0.02620
G1 X118.938 Y58.537 E0.05185
G1 X119.654 Y58.244 E0.02423
G1 X121.291 Y57.728 E0.05382
G1 X121.983 Y57.570 E0.02226
G1 X123.749 Y57.318 E0.05595
G1 X124.390 Y57.279 E0.02012
G1 X126.239 Y57.318 E0.05798
G1 X128.691 Y57.727 E0.07794
G1 X131.044 Y58.535 E0.07801
G1 X133.232 Y59.719 E0.07801
G1 X135.196 Y61.247 E0.07801
G1 X136.881 Y63.078 E0.07801
G1 X138.242 Y65.161 E0.07801
G1 X139.241 Y67.439 E0.07801
M73 Q1 S75
G1 X139.852 Y69.852 E0.07801
G1 X140.058 Y72.331 E0.07801
G1 X139.863 Y74.748 E0.07603
G1 X139.282 Y77.102 E0.07602
G1 X138.332 Y79.332 E0.07602
M73 P1 R74
G1 X137.036 Y81.382 E0.07602
G1 X135.428 Y83.196 E0.07602
G1 X133.534 Y84.739 E0.07661
G1 X131.451 Y85.942 E0.07541
G1 X129.184 Y86.802 E0.07602
G1 X126.896 Y87.269 E0.07321
G1 X126.681 Y87.649 F10800.000
G1 F8640
G1 X124.392 Y87.384 E-0.57880
G1 X123.744 Y87.344 E-0.14983
G1 X123.610 Y87.325 E-0.03137
G1 E-0.04000 F2100.00000
G1 Z0.800 F10800.000
G1 X126.639 Y54.087
G1 Z0.200
G1 E0.80000 F2100.00000
G1 F1200
G1 X124.462 Y54.184 E0.06834
G1 X123.848 Y54.142 E0.01927
G1 X122.275 Y53.891 E0.04997
G1 X121.626 Y53.725 E0.02101
G1 X120.181 Y53.213 E0.04804
G1 X119.517 Y52.906 E0.02294
G1 X118.243 Y52.172 E0.04611
G1 X117.595 Y51.714 E0.02487
G1 X116.522 Y50.801 E0.04418
G1 X115.925 Y50.189 E0.02680
G1 X115.073 Y49.145 E0.04225
G1 X114.562 Y48.384 E0.02874
G1 X113.944 Y47.256 E0.04032
G1 X113.555 Y46.359 E0.03067
G1 X113.170 Y45.196 E0.03839
G1 X112.936 Y44.183 E0.03260
G1 X112.777 Y43.031 E0.03646
G1 X112.728 Y41.931 E0.03453
G1 X112.777 Y40.831 E0.03453
G1 X112.936 Y39.679 E0.03646
G1 X113.170 Y38.666 E0.03260
G1 X113.555 Y37.504 E0.03839
