; generated by Slic3r Prusa Edition 1.41.3+win64 on 2020-01-13 at 11:30:34

; 

; external perimeters extrusion width = 0.45mm
; perimeters extrusion width = 0.45mm
; infill extrusion width = 0.45mm
; solid infill extrusion width = 0.45mm
; top infill extrusion width = 0.40mm
; first layer extrusion width = 0.42mm

M73 P0 R5
M73 Q0 S5
M201 X1000 Y1000 Z1000 E5000 ; sets maximum accelerations, mm/sec^2
M203 X200 Y200 Z12 E120 ; sets maximum feedrates, mm/sec
M204 P1250 R1250 T1250 ; sets acceleration (P, T) and retract acceleration (R), mm/sec^2
M205 X8.00 Y8.00 Z0.40 E1.50 ; sets the jerk limits, mm/sec
M205 S0 T0 ; sets the minimum extruding and travel feed rate, mm/sec
M107
M115 U3.8.1 ; tell printer latest fw version
M83  ; extruder relative mode
M104 S215 ; set extruder temp
M140 S60 ; set bed temp
M190 S60 ; wait for bed temp
M109 S215 ; wait for extruder temp
G28 W ; home all without mesh bed level
G80 ; mesh bed leveling
G1 Y-3.0 F1000.0 ; go outside print area
G92 E0.0
G1 X60.0 E9.0  F1000.0 ; intro line
M73 Q1 S5
M73 P1 R5
G1 X100.0 E12.5  F1000.0 ; intro line
G92 E0.0
M221 S95
M900 K30 ; Filament gcode
G21 ; set units to millimeters
G90 ; use absolute coordinates
M83 ; use relative distances for extrusion
;BEFORE_LAYER_CHANGE
G92 E0.0
;0.2


G1 E-0.80000 F2100.00000
G1 Z0.600 F10800.000
;AFTER_LAYER_CHANGE
;0.2
G1 X116.801 Y101.268
G1 Z0.200
G1 E0.80000 F2100.00000
M204 S1000
G1 F1200
G1 X117.446 Y100.090 E0.04211
G1 X117.973 Y99.358 E0.02827
G1 X118.637 Y98.618 E0.03118
G1 X119.389 Y97.948 E0.03158
G1 X120.193 Y97.377 E0.03092
G1 X121.851 Y96.560 E0.05794
G1 X123.145 Y96.183 E0.04227
G1 X124.035 Y96.040 E0.02826
G1 X125.024 Y95.989 E0.03105
G1 X125.987 Y96.043 E0.03022
G1 X126.964 Y96.205 E0.03107
G1 X127.930 Y96.478 E0.03147
G1 X128.750 Y96.809 E0.02775
G1 X129.928 Y97.458 E0.04217
G1 X131.368 Y98.624 E0.05809
G1 X132.038 Y99.371 E0.03147
G1 X132.613 Y100.178 E0.03107
G1 X133.104 Y101.058 E0.03160
G1 X133.446 Y101.865 E0.02748
G1 X133.813 Y103.125 E0.04113
G1 X133.958 Y104.011 E0.02815
G1 X134.012 Y105.009 E0.03133
G1 X133.955 Y106.008 E0.03139
G1 X133.792 Y106.981 E0.03092
G1 X133.199 Y108.732 E0.05797
G1 X132.554 Y109.910 E0.04211
G1 X132.027 Y110.642 E0.02826
G1 X131.360 Y111.385 E0.03132
G1 X130.608 Y112.055 E0.03158
G1 X129.803 Y112.625 E0.03092
G1 X128.145 Y113.442 E0.05794
G1 X126.855 Y113.817 E0.04214
G1 X125.965 Y113.960 E0.02826
G1 X124.972 Y114.011 E0.03118
G1 X124.013 Y113.957 E0.03009
G1 X123.032 Y113.794 E0.03120
G1 X122.066 Y113.521 E0.03146
G1 X121.250 Y113.191 E0.02761
G1 X120.072 Y112.542 E0.04217
G1 X118.632 Y111.376 E0.05810
G1 X117.965 Y110.632 E0.03133
G1 X117.387 Y109.822 E0.03120
G1 X116.896 Y108.942 E0.03160
G1 X116.554 Y108.135 E0.02748
G1 X116.187 Y106.875 E0.04113
G1 X116.042 Y105.989 E0.02815
G1 X115.988 Y104.991 E0.03133
G1 X116.045 Y103.992 E0.03139
G1 X116.208 Y103.019 E0.03092
G1 X116.782 Y101.325 E0.05608
G1 X117.138 Y101.446 F10800.000
G1 F1200
G1 X117.757 Y100.302 E0.04079
G1 X118.905 Y98.884 E0.05718
G1 X119.625 Y98.242 E0.03024
G1 X120.399 Y97.694 E0.02975
G1 X121.995 Y96.908 E0.05577
G1 X123.214 Y96.554 E0.03981
G1 X125.024 Y96.366 E0.05706
G1 X125.947 Y96.418 E0.02898
G1 X126.888 Y96.574 E0.02991
G1 X128.602 Y97.155 E0.05676
G1 X129.714 Y97.768 E0.03980
G1 X131.100 Y98.889 E0.05590
G1 X132.244 Y100.303 E0.05701
G1 X132.852 Y101.416 E0.03978
G1 X133.424 Y103.101 E0.05579
G1 X133.581 Y104.034 E0.02966
G1 X133.635 Y105.006 E0.03053
G1 X133.581 Y105.964 E0.03008
G1 X133.422 Y106.904 E0.02987
G1 X132.850 Y108.587 E0.05575
G1 X132.243 Y109.698 E0.03971
G1 X131.095 Y111.116 E0.05718
G1 X130.375 Y111.758 E0.03024
G1 X129.601 Y112.306 E0.02975
G1 X128.002 Y113.093 E0.05589
G1 X126.786 Y113.446 E0.03969
G1 X124.972 Y113.634 E0.05718
G1 X124.053 Y113.582 E0.02886
G1 X123.112 Y113.426 E0.02991
G1 X121.394 Y112.843 E0.05688
G1 X120.286 Y112.232 E0.03967
G1 X118.897 Y111.108 E0.05603
G1 X118.258 Y110.395 E0.03003
G1 X117.704 Y109.618 E0.02991
G1 X116.902 Y107.990 E0.05688
G1 X116.558 Y106.805 E0.03869
G1 X116.365 Y104.994 E0.05713
G1 X116.419 Y104.036 E0.03008
G1 X116.578 Y103.096 E0.02987
G1 X117.119 Y101.503 E0.05277
G1 X117.475 Y101.624 F10800.000
G1 F1200
G1 X118.067 Y100.516 E0.03939
G1 X119.169 Y99.152 E0.05498
G1 X119.861 Y98.537 E0.02902
G1 X120.604 Y98.010 E0.02856
G1 X122.139 Y97.257 E0.05361
G1 X123.283 Y96.925 E0.03736
G1 X125.024 Y96.743 E0.05487
G1 X126.808 Y96.943 E0.05630
G1 X128.458 Y97.504 E0.05464
G1 X129.500 Y98.078 E0.03730
G1 X130.836 Y99.157 E0.05385
G1 X131.933 Y100.516 E0.05476
G1 X132.504 Y101.561 E0.03731
G1 X133.054 Y103.179 E0.05360
G1 X133.206 Y104.075 E0.02851
G1 X133.258 Y105.005 E0.02919
G1 X133.206 Y105.925 E0.02888
G1 X133.054 Y106.823 E0.02856
G1 X132.502 Y108.443 E0.05365
G1 X131.933 Y109.484 E0.03720
G1 X130.828 Y110.850 E0.05510
G1 X130.139 Y111.463 E0.02891
G1 X129.396 Y111.990 E0.02856
G1 X127.861 Y112.743 E0.05361
G1 X126.717 Y113.075 E0.03736
G1 X124.973 Y113.257 E0.05498
G1 X123.192 Y113.057 E0.05618
G1 X121.539 Y112.495 E0.05476
G1 X120.497 Y111.919 E0.03730
G1 X119.164 Y110.843 E0.05373
G1 X118.067 Y109.484 E0.05476
G1 X117.496 Y108.439 E0.03731
G1 X116.946 Y106.821 E0.05360
G1 X116.794 Y105.925 E0.02851
G1 X116.742 Y104.995 E0.02919
G1 X116.794 Y104.075 E0.02888
G1 X116.946 Y103.177 E0.02856
G1 X117.456 Y101.681 E0.04956
; PURGING FINISHED
G1 F8640
G1 X118.067 Y100.516 E-0.30372
G1 X119.169 Y99.152 E-0.40492
G1 X119.336 Y99.004 E-0.05136
G1 E-0.04000 F2100.00000
G1 Z0.800 F10800.000
G1 X121.790 Y103.400
G1 Z0.200
G1 E0.80000 F2100.00000
G1 F1200
G1 X122.097 Y102.891 E0.01863
G1 X122.462 Y102.462 E0.01766
G1 X122.891 Y102.097 E0.01766
G1 X123.371 Y101.802 E0.01766
G1 X123.891 Y101.587 E0.01766
G1 X124.439 Y101.455 E0.01766
G1 X124.945 Y101.415 E0.01593
G1 X125.557 Y101.454 E0.01923
G1 X126.109 Y101.587 E0.01780
G1 X126.629 Y101.802 E0.01766
G1 X127.109 Y102.097 E0.01766
G1 X127.538 Y102.462 E0.01766
G1 X127.903 Y102.891 E0.01766
G1 X128.169 Y103.324 E0.01593
G1 X128.412 Y103.887 E0.01923
G1 X128.545 Y104.439 E0.01780
G1 X128.589 Y105.000 E0.01766
G1 X128.545 Y105.561 E0.01766
G1 X128.426 Y106.055 E0.01593
G1 X128.200 Y106.625 E0.01923
G1 X127.903 Y107.109 E0.01780
G1 X127.538 Y107.538 E0.01766
G1 X127.109 Y107.903 E0.01766
G1 X126.629 Y108.198 E0.01766
G1 X126.109 Y108.413 E0.01766
G1 X125.561 Y108.545 E0.01766
G1 X125.000 Y108.589 E0.01766
G1 X124.439 Y108.545 E0.01766
G1 X123.945 Y108.426 E0.01593
G1 X123.375 Y108.200 E0.01923
G1 X122.891 Y107.903 E0.01780
G1 X122.462 Y107.538 E0.01766
G1 X122.097 Y107.109 E0.01766
G1 X121.802 Y106.629 E0.01766
G1 X121.587 Y106.109 E0.01766
G1 X121.455 Y105.561 E0.01766
G1 X121.411 Y105.000 E0.01766
G1 X121.455 Y104.439 E0.01766
G1 X121.574 Y103.945 E0.01593
G1 X121.768 Y103.455 E0.01650
G1 X122.118 Y103.594 F10800.000
G1 F1200
G1 X122.403 Y103.113 E0.01753
G1 X122.730 Y102.730 E0.01580
G1 X123.113 Y102.403 E0.01580
G1 X123.542 Y102.139 E0.01580
G1 X124.008 Y101.946 E0.01580
G1 X124.498 Y101.829 E0.01580
G1 X124.948 Y101.793 E0.01416
G1 X125.501 Y101.829 E0.01737
G1 X125.992 Y101.946 E0.01585
G1 X126.458 Y102.139 E0.01580
G1 X126.887 Y102.403 E0.01580
G1 X127.270 Y102.730 E0.01580
G1 X127.597 Y103.113 E0.01580
G1 X127.833 Y103.498 E0.01416
G1 X128.053 Y104.006 E0.01737
G1 X128.171 Y104.498 E0.01585
G1 X128.211 Y105.000 E0.01580
G1 X128.171 Y105.502 E0.01580
G1 X128.066 Y105.941 E0.01416
G1 X127.862 Y106.456 E0.01737
G1 X127.597 Y106.887 E0.01585
G1 X127.270 Y107.270 E0.01580
G1 X126.887 Y107.597 E0.01580
G1 X126.458 Y107.861 E0.01580
G1 X125.992 Y108.054 E0.01580
G1 X125.502 Y108.171 E0.01580
G1 X125.000 Y108.211 E0.01580
G1 X124.498 Y108.171 E0.01580
G1 X124.059 Y108.066 E0.01416
G1 X123.544 Y107.862 E0.01737
G1 X123.113 Y107.597 E0.01585
G1 X122.730 Y107.270 E0.01580
G1 X122.403 Y106.887 E0.01580
G1 X122.139 Y106.458 E0.01580
G1 X121.946 Y105.992 E0.01580
G1 X121.829 Y105.502 E0.01580
G1 X121.789 Y105.000 E0.01580
G1 X121.829 Y104.498 E0.01580
G1 X121.934 Y104.059 E0.01416
G1 X122.096 Y103.650 E0.01378
G1 X121.896 Y103.262 F10800.000
G1 F8640
G1 X122.403 Y103.113 E-0.14278
G1 X122.730 Y102.730 E-0.11633
G1 X123.113 Y102.403 E-0.11633
G1 X123.542 Y102.139 E-0.11633
G1 X124.008 Y101.946 E-0.11633
G1 X124.498 Y101.829 E-0.11633
G1 X124.651 Y101.817 E-0.03556
G1 E-0.04000 F2100.00000
G1 Z0.800 F10800.000
G1 X119.997 Y102.778
G1 Z0.200
G1 E0.80000 F2100.00000
G1 F1200
G1 X120.064 Y102.617 E0.00548
G1 X120.343 Y102.111 E0.01811
G1 X120.720 Y101.575 E0.02055
G1 X121.131 Y101.118 E0.01926
G1 X121.591 Y100.708 E0.01931
G1 X122.094 Y100.352 E0.01933
G1 X122.599 Y100.073 E0.01810
G1 X123.204 Y99.822 E0.02054
G1 X123.795 Y99.653 E0.01927
G1 X124.404 Y99.552 E0.01934
G1 X124.981 Y99.519 E0.01812
G1 X125.597 Y99.552 E0.01934
G1 X126.205 Y99.653 E0.01931
G1 X126.796 Y99.822 E0.01927
G1 X127.401 Y100.073 E0.02054
G1 X127.906 Y100.352 E0.01810
G1 X128.409 Y100.708 E0.01933
G1 X128.869 Y101.118 E0.01931
G1 X129.281 Y101.576 E0.01931
G1 X129.638 Y102.078 E0.01931
G1 X129.935 Y102.616 E0.01926
G1 X130.183 Y103.223 E0.02055
G1 X130.343 Y103.778 E0.01811
G1 X130.447 Y104.385 E0.01932
G1 X130.481 Y105.000 E0.01931
G1 X130.447 Y105.615 E0.01931
G1 X130.343 Y106.222 E0.01931
G1 X130.172 Y106.814 E0.01931
G1 X129.936 Y107.383 E0.01932
G1 X129.657 Y107.889 E0.01811
G1 X129.280 Y108.425 E0.02055
G1 X128.869 Y108.882 E0.01926
G1 X128.409 Y109.292 E0.01931
G1 X127.906 Y109.648 E0.01933
G1 X127.401 Y109.927 E0.01810
G1 X126.796 Y110.178 E0.02054
G1 X126.205 Y110.347 E0.01927
G1 X125.596 Y110.448 E0.01934
G1 X125.019 Y110.481 E0.01812
G1 X124.403 Y110.448 E0.01934
G1 X123.795 Y110.347 E0.01931
G1 X123.204 Y110.178 E0.01927
G1 X122.599 Y109.927 E0.02054
G1 X122.094 Y109.648 E0.01810
G1 X121.591 Y109.292 E0.01933
G1 X121.131 Y108.882 E0.01931
G1 X120.719 Y108.424 E0.01931
G1 X120.362 Y107.922 E0.01931
G1 X120.065 Y107.384 E0.01926
G1 X119.817 Y106.777 E0.02055
G1 X119.657 Y106.222 E0.01811
G1 X119.553 Y105.615 E0.01932
G1 X119.519 Y105.000 E0.01931
G1 X119.553 Y104.385 E0.01931
G1 X119.657 Y103.778 E0.01931
G1 X119.828 Y103.186 E0.01931
G1 X119.974 Y102.834 E0.01196
G1 X119.724 Y102.453 F10800.000
G1 F1200
G1 X120.023 Y101.911 E0.01941
G1 X120.425 Y101.340 E0.02189
G1 X120.864 Y100.850 E0.02063
G1 X121.356 Y100.413 E0.02064
G1 X121.894 Y100.033 E0.02065
G1 X122.435 Y99.733 E0.01940
G1 X123.080 Y99.465 E0.02188
G1 X123.712 Y99.285 E0.02063
G1 X124.362 Y99.176 E0.02065
G1 X124.980 Y99.142 E0.01941
G1 X125.638 Y99.176 E0.02065
G1 X126.288 Y99.285 E0.02064
G1 X126.920 Y99.465 E0.02063
G1 X127.565 Y99.733 E0.02188
G1 X128.106 Y100.033 E0.01940
G1 X128.644 Y100.413 E0.02065
G1 X129.136 Y100.850 E0.02064
G1 X129.576 Y101.341 E0.02064
G1 X129.957 Y101.877 E0.02064
G1 X130.276 Y102.452 E0.02062
G1 X130.540 Y103.099 E0.02189
G1 X130.711 Y103.694 E0.01941
G1 X130.822 Y104.343 E0.02065
G1 X130.859 Y105.000 E0.02064
G1 X130.822 Y105.657 E0.02064
G1 X130.711 Y106.306 E0.02064
G1 X130.529 Y106.939 E0.02064
G1 X130.276 Y107.547 E0.02065
G1 X129.977 Y108.089 E0.01941
G1 X129.575 Y108.660 E0.02189
G1 X129.136 Y109.150 E0.02063
G1 X128.644 Y109.587 E0.02064
G1 X128.106 Y109.967 E0.02065
G1 X127.565 Y110.267 E0.01940
G1 X126.920 Y110.535 E0.02188
G1 X126.288 Y110.715 E0.02063
G1 X125.638 Y110.824 E0.02065
G1 X125.020 Y110.858 E0.01941
G1 X124.362 Y110.824 E0.02065
G1 X123.712 Y110.715 E0.02064
G1 X123.080 Y110.535 E0.02063
G1 X122.435 Y110.267 E0.02188
G1 X121.894 Y109.967 E0.01940
G1 X121.356 Y109.587 E0.02065
G1 X120.864 Y109.150 E0.02064
G1 X120.424 Y108.659 E0.02064
G1 X120.043 Y108.123 E0.02064
G1 X119.724 Y107.548 E0.02062
G1 X119.460 Y106.901 E0.02189
G1 X119.289 Y106.306 E0.01941
G1 X119.178 Y105.657 E0.02065
G1 X119.141 Y105.000 E0.02064
G1 X119.178 Y104.343 E0.02064
G1 X119.289 Y103.694 E0.02064
G1 X119.471 Y103.061 E0.02064
G1 X119.701 Y102.508 E0.01877
G1 X120.123 Y102.423 F10800.000
G1 F8640
G1 X120.023 Y101.911 E-0.15671
G1 X120.425 Y101.340 E-0.16119
G1 X120.864 Y100.850 E-0.15190
G1 X121.356 Y100.413 E-0.15202
G1 X121.845 Y100.067 E-0.13819
G1 E-0.04000 F2100.00000
G1 Z0.800 F10800.000
G1 X120.387 Y107.733
G1 Z0.200
G1 E0.80000 F2100.00000
G1 F1200
G1 X122.269 Y109.615 E0.08513
G1 F8640
G1 X120.387 Y107.733 E-0.61437
G1 E-0.18563 F2100.00000
G1 Z0.800 F10800.000
G1 X123.281 Y110.083
G1 Z0.200
G1 E0.80000 F2100.00000
G1 F1200
G1 X120.223 Y107.025 E0.13833
G1 X120.084 Y106.685 E0.01177
G1 X119.945 Y106.203 E0.01603
G1 X124.010 Y110.268 E0.18392
G1 F8640
G1 X121.683 Y107.941 E-0.76000
G1 E-0.04000 F2100.00000
G1 Z0.800 F10800.000
G1 X130.357 Y105.188
G1 Z0.200
G1 E0.80000 F2100.00000
G1 F1200
G1 X128.465 Y103.295 E0.08563
G1 X128.681 Y103.797 E0.01747
G1 X128.763 Y104.138 E0.01123
G1 X130.168 Y105.542 E0.06353
G1 X130.092 Y106.011 E0.01519
G1 X128.855 Y104.774 E0.05600
G1 X128.873 Y105.000 E0.00726
G1 X128.848 Y105.311 E0.00999
G1 X129.984 Y106.447 E0.05140
G1 X129.849 Y106.856 E0.01378
G1 X128.781 Y105.788 E0.04831
G1 X128.666 Y106.217 E0.01421
G1 X129.689 Y107.241 E0.04629
G1 X129.681 Y107.260 E0.00068
G1 X129.497 Y107.593 E0.01216
G1 X128.512 Y106.607 E0.04459
G1 X128.454 Y106.752 E0.00500
G1 X128.324 Y106.964 E0.00794
G1 X129.285 Y107.925 E0.04348
G1 X129.061 Y108.244 E0.01249
G1 X128.114 Y107.298 E0.04282
G1 X127.864 Y107.592 E0.01235
G1 X128.804 Y108.532 E0.04254
G1 X128.532 Y108.804 E0.01231
G1 X127.592 Y107.864 E0.04255
G1 X127.298 Y108.114 E0.01235
G1 X128.244 Y109.060 E0.04280
G1 X127.926 Y109.287 E0.01248
G1 X126.964 Y108.324 E0.04354
G1 X126.758 Y108.450 E0.00772
G1 X126.608 Y108.513 E0.00520
G1 X127.593 Y109.497 E0.04456
G1 X127.239 Y109.688 E0.01285
G1 X126.223 Y108.672 E0.04595
G1 X125.788 Y108.781 E0.01435
G1 X126.855 Y109.848 E0.04825
G1 X126.702 Y109.911 E0.00528
G1 X126.447 Y109.984 E0.00850
G1 X125.311 Y108.848 E0.05139
G1 X125.000 Y108.873 E0.00998
G1 X124.774 Y108.855 E0.00727
G1 X126.011 Y110.092 E0.05600
G1 X125.543 Y110.168 E0.01518
G1 X124.138 Y108.763 E0.06356
G1 X123.859 Y108.696 E0.00918
G1 X123.309 Y108.478 E0.01894
G1 X125.019 Y110.198 E0.07758
G1 X124.454 Y110.168 E0.01808
G1 X119.833 Y105.546 E0.20910
G1 X119.803 Y104.973 E0.01837
G1 X121.522 Y106.691 E0.07775
G1 X121.317 Y106.197 E0.01713
G1 X121.237 Y105.862 E0.01102
G1 X119.832 Y104.458 E0.06353
G1 X119.908 Y103.989 E0.01520
G1 X121.145 Y105.226 E0.05600
G1 X121.127 Y105.000 E0.00727
G1 X121.152 Y104.689 E0.00998
G1 X120.016 Y103.553 E0.05140
G1 X120.095 Y103.280 E0.00910
G1 X120.151 Y103.144 E0.00470
G1 X121.219 Y104.212 E0.04831
G1 X121.334 Y103.783 E0.01421
G1 X120.311 Y102.760 E0.04629
G1 X120.319 Y102.740 E0.00068
G1 X120.503 Y102.407 E0.01215
G1 X121.488 Y103.393 E0.04460
G1 X121.546 Y103.248 E0.00500
G1 X121.676 Y103.036 E0.00794
G1 X120.715 Y102.075 E0.04348
G1 X120.939 Y101.756 E0.01249
G1 X121.886 Y102.702 E0.04282
G1 X122.136 Y102.408 E0.01235
G1 X121.196 Y101.468 E0.04254
G1 X121.468 Y101.196 E0.01231
G1 X122.408 Y102.136 E0.04255
G1 X122.702 Y101.886 E0.01235
G1 X121.756 Y100.940 E0.04280
G1 X122.074 Y100.713 E0.01248
G1 X123.036 Y101.676 E0.04354
G1 X123.242 Y101.550 E0.00773
G1 X123.392 Y101.487 E0.00519
G1 X122.407 Y100.503 E0.04456
G1 X122.761 Y100.312 E0.01285
G1 X123.777 Y101.328 E0.04596
G1 X124.212 Y101.219 E0.01435
G1 X123.145 Y100.152 E0.04825
G1 X123.298 Y100.089 E0.00528
G1 X123.553 Y100.016 E0.00850
G1 X124.689 Y101.152 E0.05139
G1 X124.943 Y101.132 E0.00815
G1 X125.231 Y101.150 E0.00924
G1 X123.989 Y99.908 E0.05623
G1 X124.457 Y99.832 E0.01518
G1 X125.862 Y101.237 E0.06356
G1 X126.197 Y101.317 E0.01102
G1 X126.691 Y101.522 E0.01712
G1 X124.972 Y99.803 E0.07777
G1 X125.546 Y99.832 E0.01837
G1 X130.167 Y104.454 E0.20911
G1 X130.055 Y103.797 E0.02133
G1 X126.205 Y99.947 E0.17418
G1 X126.702 Y100.089 E0.01655
G1 X127.025 Y100.223 E0.01118
G1 X130.082 Y103.281 E0.13833
G1 F8640
G1 X127.755 Y100.953 E-0.76000
G1 E-0.04000 F2100.00000
G1 Z0.800 F10800.000
G1 X129.613 Y102.267
G1 Z0.200
G1 E0.80000 F2100.00000
G1 F1200
G1 X127.731 Y100.385 E0.08514
M106 S255
;BEFORE_LAYER_CHANGE
G92 E0.0
;0.35


G1 F8640
G1 X129.613 Y102.267 E-0.61450
G1 E-0.18550 F2100.00000
G1 Z0.800 F10800.000
;AFTER_LAYER_CHANGE
;0.35
