; generated by PrusaSlicer 2.1.1+win64 on 2020-02-26 at 09:18:22 UTC

; 

; external perimeters extrusion width = 0.45mm
; perimeters extrusion width = 0.45mm
; infill extrusion width = 0.45mm
; solid infill extrusion width = 0.45mm
; top infill extrusion width = 0.40mm
; first layer extrusion width = 0.42mm

M73 P0 R97
M73 Q0 S98
M201 X1000 Y1000 Z1000 E5000 ; sets maximum accelerations, mm/sec^2
M203 X200 Y200 Z12 E120 ; sets maximum feedrates, mm/sec
M204 P1250 R1250 T1250 ; sets acceleration (P, T) and retract acceleration (R), mm/sec^2
M205 X8.00 Y8.00 Z0.40 E4.50 ; sets the jerk limits, mm/sec
M205 S0 T0 ; sets the minimum extruding and travel feed rate, mm/sec
M107
M862.3 P "MK3S" ; printer model check
M862.1 P0.4 ; nozzle diameter check
M115 U3.8.1 ; tell printer latest fw version
G90 ; use absolute coordinates
M83 ; extruder relative mode
M104 S215 ; set extruder temp
M140 S60 ; set bed temp
M190 S60 ; wait for bed temp
M109 S215 ; wait for extruder temp
G28 W ; home all without mesh bed level
G80 ; mesh bed leveling
G1 Y-3.0 F1000.0 ; go outside print area
G92 E0.0
G1 X60.0 E9.0 F1000.0 ; intro line
M73 Q0 S97
M73 P0 R97
G1 X100.0 E12.5 F1000.0 ; intro line
G92 E0.0
M221 S95
G21 ; set units to millimeters
G90 ; use absolute coordinates
M83 ; use relative distances for extrusion
M900 K30 ; Filament gcode
;BEFORE_LAYER_CHANGE
G92 E0.0
;0.2


G1 E-0.80000 F2100.00000
G1 Z0.600 F10800.000
;AFTER_LAYER_CHANGE
;0.2
G1 X100.397 Y85.352
G1 Z0.200
G1 E0.80000 F2100.00000
M204 S1000
G1 F1200
G1 X102.625 Y82.850 E0.10503
G1 X104.689 Y80.942 E0.08813
G1 X107.360 Y78.920 E0.10504
G1 X110.226 Y77.196 E0.10486
G1 X112.894 Y75.935 E0.09254
G1 X115.678 Y74.926 E0.09284
G1 X118.724 Y74.146 E0.09859
G1 X121.937 Y73.663 E0.10187
G1 X124.802 Y73.515 E0.08995
G1 X128.156 Y73.673 E0.10527
G1 X130.667 Y74.029 E0.07952
G1 X133.911 Y74.802 E0.10456
G1 X136.710 Y75.773 E0.09290
G1 X139.400 Y77.000 E0.09271
G1 X142.295 Y78.690 E0.10509
G1 X144.787 Y80.508 E0.09675
G1 X147.157 Y82.630 E0.09974
G1 X149.182 Y84.836 E0.09387
G1 X151.060 Y87.332 E0.09796
G1 X152.658 Y89.954 E0.09627
G1 X153.991 Y92.718 E0.09620
G1 X155.131 Y95.866 E0.10497
G1 X155.893 Y98.920 E0.09869
G1 X156.318 Y101.750 E0.08975
G1 X156.486 Y104.864 E0.09776
G1 X156.382 Y107.548 E0.08423
G1 X155.934 Y110.868 E0.10504
G1 X155.138 Y114.112 E0.10474
G1 X154.152 Y116.895 E0.09254
G1 X152.906 Y119.580 E0.09284
G1 X151.314 Y122.288 E0.09848
G1 X149.393 Y124.908 E0.10187
G1 X147.477 Y127.048 E0.09006
G1 X144.985 Y129.331 E0.10596
G1 X142.504 Y131.170 E0.09683
G1 X139.854 Y132.761 E0.09692
G1 X137.098 Y134.068 E0.09564
G1 X133.933 Y135.192 E0.10531
G1 X130.867 Y135.934 E0.09891
G1 X128.033 Y136.340 E0.08975
G1 X124.864 Y136.486 E0.09946
G1 X121.455 Y136.285 E0.10707
G1 X118.728 Y135.854 E0.08658
G1 X115.679 Y135.074 E0.09867
G1 X112.908 Y134.071 E0.09242
G1 X110.230 Y132.806 E0.09285
G1 X107.423 Y131.123 E0.10261
G1 X105.234 Y129.508 E0.08530
G1 X102.910 Y127.437 E0.09761
G1 X101.076 Y125.469 E0.08435
G1 X99.036 Y122.811 E0.10504
G1 X97.296 Y119.960 E0.10473
G1 X96.018 Y117.303 E0.09244
G1 X94.989 Y114.523 E0.09294
G1 X94.191 Y111.489 E0.09837
G1 X93.685 Y108.280 E0.10186
G1 X93.517 Y105.406 E0.09026
G1 X93.654 Y102.032 E0.10588
G1 X94.097 Y98.976 E0.09683
G1 X94.834 Y95.981 E0.09670
G1 X95.848 Y93.104 E0.09563
G1 X97.133 Y90.345 E0.09546
G1 X98.587 Y87.863 E0.09019
G1 X100.362 Y85.400 E0.09517
G1 F8640
G1 X102.546 Y82.938 E-0.76000
G1 E-0.04000 F2100.00000
G1 Z0.800 F10800.000
G1 X103.019 Y87.481
G1 Z0.200
G1 E0.80000 F2100.00000
G1 F1200
G1 X103.301 Y87.120 E0.01436
G1 X104.142 Y86.147 E0.04031
G1 X105.044 Y85.187 E0.04130
G1 X106.281 Y84.023 E0.05326
G1 X107.564 Y82.938 E0.05268
G1 X108.330 Y82.358 E0.03013
G1 X109.508 Y81.536 E0.04505
G1 X110.719 Y80.782 E0.04472
G1 X111.818 Y80.167 E0.03950
G1 X113.167 Y79.496 E0.04723
G1 X114.196 Y79.044 E0.03524
G1 X115.245 Y78.631 E0.03534
G1 X116.670 Y78.147 E0.04719
G1 X118.117 Y77.740 E0.04713
G1 X119.585 Y77.411 E0.04715
G1 X120.968 Y77.175 E0.04399
G1 X122.436 Y77.002 E0.04636
G1 X123.720 Y76.913 E0.04035
G1 X124.493 Y76.888 E0.02426
G1 X125.342 Y76.889 E0.02661
G1 X126.317 Y76.916 E0.03057
G1 X128.158 Y77.057 E0.05789
G1 X129.618 Y77.265 E0.04625
G1 X130.782 Y77.486 E0.03716
G1 X132.246 Y77.835 E0.04720
G1 X133.688 Y78.261 E0.04713
G1 X135.107 Y78.764 E0.04719
G1 X136.162 Y79.196 E0.03576
G1 X137.173 Y79.657 E0.03482
G1 X138.512 Y80.344 E0.04720
G1 X139.811 Y81.102 E0.04716
G1 X140.956 Y81.851 E0.04288
G1 X141.932 Y82.554 E0.03773
G1 X143.150 Y83.527 E0.04887
G1 X144.196 Y84.456 E0.04387
G1 X145.078 Y85.319 E0.03868
G1 X146.102 Y86.421 E0.04719
G1 X147.066 Y87.577 E0.04721
G1 X147.755 Y88.484 E0.03570
G1 X148.498 Y89.562 E0.04105
G1 X149.190 Y90.671 E0.04099
G1 X149.921 Y91.986 E0.04717
G1 X150.582 Y93.338 E0.04719
G1 X151.031 Y94.376 E0.03545
G1 X151.433 Y95.421 E0.03513
G1 X151.908 Y96.850 E0.04720
G1 X152.305 Y98.300 E0.04716
G1 X152.597 Y99.626 E0.04257
G1 X152.803 Y100.812 E0.03773
G1 X152.992 Y102.359 E0.04887
G1 X153.089 Y103.755 E0.04387
G1 X153.115 Y104.998 E0.03899
G1 X153.075 Y106.503 E0.04718
G1 X152.940 Y108.177 E0.05267
G1 X152.812 Y109.130 E0.03013
G1 X152.565 Y110.545 E0.04505
G1 X152.247 Y111.932 E0.04462
G1 X151.908 Y113.149 E0.03961
G1 X151.433 Y114.579 E0.04723
G1 X151.031 Y115.624 E0.03513
G1 X150.582 Y116.662 E0.03545
G1 X149.921 Y118.015 E0.04719
G1 X149.190 Y119.329 E0.04717
G1 X148.497 Y120.438 E0.04100
G1 X147.792 Y121.463 E0.03902
G1 X146.945 Y122.577 E0.04387
G1 X145.937 Y123.766 E0.04886
G1 X145.087 Y124.672 E0.03896
G1 X143.998 Y125.725 E0.04750
G1 X142.730 Y126.826 E0.05265
G1 X141.973 Y127.416 E0.03010
G1 X140.742 Y128.297 E0.04744
G1 X139.617 Y129.017 E0.04190
G1 X138.263 Y129.790 E0.04890
G1 X137.176 Y130.342 E0.03821
G1 X135.803 Y130.957 E0.04718
G1 X134.398 Y131.498 E0.04718
G1 X133.242 Y131.880 E0.03819
G1 X132.249 Y132.165 E0.03239
G1 X130.784 Y132.514 E0.04723
G1 X129.417 Y132.766 E0.04357
G1 X127.951 Y132.960 E0.04636
G1 X126.673 Y133.066 E0.04023
G1 X125.005 Y133.121 E0.05230
G1 X123.310 Y133.064 E0.05320
G1 X121.810 Y132.934 E0.04721
G1 X120.682 Y132.783 E0.03569
G1 X119.396 Y132.551 E0.04095
G1 X118.118 Y132.260 E0.04109
G1 X116.670 Y131.853 E0.04716
G1 X115.245 Y131.369 E0.04719
G1 X114.196 Y130.956 E0.03534
G1 X113.167 Y130.504 E0.03524
G1 X111.819 Y129.834 E0.04720
G1 X110.510 Y129.094 E0.04716
G1 X109.366 Y128.368 E0.04246
G1 X108.380 Y127.678 E0.03773
G1 X107.149 Y126.722 E0.04887
G1 X106.090 Y125.808 E0.04387
G1 X105.190 Y124.950 E0.03899
G1 X104.148 Y123.859 E0.04729
G1 X103.056 Y122.583 E0.05267
G1 X102.470 Y121.822 E0.03011
G1 X101.598 Y120.586 E0.04744
G1 X100.883 Y119.450 E0.04209
G1 X100.118 Y118.091 E0.04890
G1 X99.577 Y117.006 E0.03800
G1 X98.971 Y115.629 E0.04718
G1 X98.441 Y114.222 E0.04713
G1 X97.986 Y112.790 E0.04713
G1 X97.608 Y111.334 E0.04716
G1 X97.339 Y110.030 E0.04173
G1 X97.142 Y108.802 E0.03902
G1 X96.987 Y107.411 E0.04387
G1 X96.897 Y105.855 E0.04887
G1 X96.887 Y104.626 E0.03855
G1 X96.948 Y103.119 E0.04729
G1 X97.039 Y102.010 E0.03487
G1 X97.234 Y100.569 E0.04560
G1 X97.489 Y99.205 E0.04351
G1 X97.787 Y97.936 E0.04087
G1 X98.203 Y96.491 E0.04717
G1 X98.697 Y95.069 E0.04719
G1 X99.119 Y94.016 E0.03555
G1 X99.576 Y92.997 E0.03503
G1 X100.255 Y91.654 E0.04720
G1 X101.004 Y90.349 E0.04716
G1 X101.741 Y89.205 E0.04267
G1 X102.438 Y88.223 E0.03776
G1 X102.982 Y87.528 E0.02767
G1 X102.685 Y87.296 F10800.000
G1 F1200
G1 X103.010 Y86.881 E0.01653
G1 X103.862 Y85.895 E0.04084
G1 X104.777 Y84.921 E0.04191
G1 X106.029 Y83.741 E0.05394
G1 X107.328 Y82.644 E0.05331
G1 X108.108 Y82.053 E0.03068
G1 X109.300 Y81.221 E0.04559
G1 X110.527 Y80.457 E0.04530
G1 X111.642 Y79.833 E0.04007
G1 X113.007 Y79.155 E0.04780
G1 X114.051 Y78.695 E0.03575
G1 X115.115 Y78.277 E0.03586
G1 X116.558 Y77.787 E0.04779
G1 X118.025 Y77.375 E0.04777
G1 X119.512 Y77.041 E0.04777
G1 X120.914 Y76.802 E0.04459
G1 X122.401 Y76.626 E0.04695
G1 X123.701 Y76.536 E0.04086
G1 X124.488 Y76.511 E0.02468
G1 X125.347 Y76.512 E0.02696
G1 X126.333 Y76.539 E0.03092
G1 X127.093 Y76.585 E0.02386
G1 X128.201 Y76.682 E0.03487
G1 X129.680 Y76.893 E0.04684
G1 X130.861 Y77.117 E0.03770
G1 X132.344 Y77.470 E0.04779
G1 X133.805 Y77.902 E0.04777
G1 X135.241 Y78.412 E0.04779
G1 X136.312 Y78.849 E0.03628
G1 X137.337 Y79.317 E0.03533
G1 X138.693 Y80.014 E0.04779
G1 X140.009 Y80.781 E0.04777
G1 X141.169 Y81.540 E0.04345
G1 X142.160 Y82.253 E0.03829
G1 X143.393 Y83.238 E0.04948
G1 X144.453 Y84.180 E0.04446
G1 X145.348 Y85.055 E0.03924
G1 X146.385 Y86.172 E0.04778
G1 X147.361 Y87.343 E0.04779
G1 X148.060 Y88.263 E0.03624
G1 X148.813 Y89.355 E0.04159
G1 X149.515 Y90.480 E0.04155
G1 X150.256 Y91.811 E0.04778
G1 X150.925 Y93.180 E0.04779
G1 X151.380 Y94.233 E0.03596
G1 X151.788 Y95.294 E0.03565
G1 X152.269 Y96.741 E0.04779
G1 X152.671 Y98.210 E0.04777
G1 X152.967 Y99.554 E0.04314
G1 X153.176 Y100.757 E0.03829
G1 X153.367 Y102.323 E0.04948
G1 X153.466 Y103.738 E0.04446
G1 X153.492 Y104.999 E0.03956
G1 X153.452 Y106.523 E0.04778
G1 X153.315 Y108.217 E0.05330
G1 X153.185 Y109.187 E0.03068
G1 X152.934 Y110.619 E0.04559
G1 X152.613 Y112.025 E0.04521
G1 X152.269 Y113.259 E0.04017
G1 X151.788 Y114.706 E0.04780
G1 X151.380 Y115.767 E0.03565
G1 X150.925 Y116.820 E0.03596
G1 X150.256 Y118.189 E0.04779
G1 X149.515 Y119.520 E0.04778
G1 X148.813 Y120.645 E0.04155
G1 X148.098 Y121.685 E0.03957
G1 X147.239 Y122.813 E0.04446
G1 X146.219 Y124.017 E0.04947
G1 X145.356 Y124.936 E0.03955
G1 X144.253 Y126.003 E0.04810
G1 X142.970 Y127.117 E0.05329
G1 X142.198 Y127.718 E0.03066
G1 X140.954 Y128.609 E0.04798
G1 X139.812 Y129.340 E0.04251
G1 X138.441 Y130.122 E0.04948
G1 X137.338 Y130.682 E0.03879
G1 X135.948 Y131.305 E0.04778
G1 X134.525 Y131.853 E0.04778
G1 X133.353 Y132.240 E0.03871
G1 X132.345 Y132.529 E0.03290
G1 X130.862 Y132.883 E0.04780
G1 X129.476 Y133.139 E0.04417
G1 X127.992 Y133.335 E0.04695
G1 X126.694 Y133.443 E0.04081
G1 X125.005 Y133.498 E0.05299
G1 X123.287 Y133.441 E0.05390
G1 X121.768 Y133.308 E0.04779
G1 X120.623 Y133.156 E0.03623
G1 X119.321 Y132.921 E0.04149
G1 X118.025 Y132.625 E0.04166
G1 X116.558 Y132.213 E0.04778
G1 X115.115 Y131.723 E0.04779
G1 X114.051 Y131.305 E0.03586
G1 X113.007 Y130.845 E0.03575
G1 X111.642 Y130.167 E0.04779
G1 X110.316 Y129.417 E0.04777
G1 X109.157 Y128.682 E0.04303
G1 X108.156 Y127.982 E0.03830
G1 X106.910 Y127.014 E0.04948
G1 X105.837 Y126.087 E0.04446
G1 X104.923 Y125.217 E0.03956
G1 X103.869 Y124.112 E0.04789
G1 X102.763 Y122.821 E0.05330
G1 X102.167 Y122.046 E0.03067
G1 X101.285 Y120.795 E0.04798
G1 X100.558 Y119.643 E0.04270
G1 X99.785 Y118.267 E0.04949
G1 X99.236 Y117.166 E0.03858
G1 X98.622 Y115.771 E0.04778
G1 X98.084 Y114.346 E0.04777
G1 X97.623 Y112.894 E0.04777
G1 X97.240 Y111.419 E0.04778
G1 X96.968 Y110.098 E0.04229
G1 X96.768 Y108.852 E0.03957
G1 X96.611 Y107.443 E0.04446
G1 X96.520 Y105.868 E0.04948
G1 X96.510 Y104.620 E0.03913
G1 X96.571 Y103.096 E0.04782
G1 X96.664 Y101.970 E0.03543
G1 X96.862 Y100.509 E0.04620
G1 X97.119 Y99.128 E0.04407
G1 X97.422 Y97.841 E0.04144
G1 X97.844 Y96.377 E0.04778
G1 X98.344 Y94.937 E0.04779
G1 X98.772 Y93.869 E0.03607
G1 X99.235 Y92.835 E0.03554
G1 X99.923 Y91.474 E0.04779
G1 X100.682 Y90.153 E0.04777
G1 X101.428 Y88.994 E0.04324
G1 X102.135 Y87.997 E0.03830
G1 X102.648 Y87.343 E0.02607
G1 X103.082 Y87.348 F10800.000
G1 F8640
G1 X103.010 Y86.881 E-0.13556
G1 X103.862 Y85.895 E-0.30079
G1 X104.777 Y84.921 E-0.30863
G1 X104.824 Y84.876 E-0.01502
G1 E-0.04000 F2100.00000
G1 Z0.800 F10800.000
G1 X100.152 Y117.905
G1 Z0.200
G1 E0.80000 F2100.00000
G1 F1200
G1 X112.089 Y129.841 E0.53148
G1 F8640
G1 X109.761 Y127.514 E-0.76000
G1 E-0.04000 F2100.00000
G1 Z0.800 F10800.000
G1 X113.153 Y130.370
G1 Z0.200
G1 E0.80000 F2100.00000
G1 F1200
G1 X99.998 Y117.215 E0.58576
G1 X99.542 Y116.224 E0.03433
G1 X113.784 Y130.466 E0.63415
G1 X114.707 Y130.853 E0.03149
G1 X99.147 Y115.294 E0.69281
G1 X98.822 Y114.433 E0.02895
G1 X115.569 Y131.180 E0.74566
G1 X116.380 Y131.456 E0.02697
G1 X98.547 Y113.622 E0.79405
G1 X98.297 Y112.837 E0.02592
G1 X117.155 Y131.695 E0.83967
G1 X117.900 Y131.905 E0.02436
G1 X98.100 Y112.104 E0.88164
G1 X97.912 Y111.381 E0.02353
G1 X118.614 Y132.083 E0.92176
G1 X119.307 Y132.241 E0.02239
G1 X97.765 Y110.699 E0.95918
G1 X97.626 Y110.024 E0.02169
G1 X119.969 Y132.367 E0.99486
G1 X120.623 Y132.485 E0.02091
G1 X97.521 Y109.384 E1.02861
G1 X97.420 Y108.747 E0.02029
G1 X121.246 Y132.573 E1.06087
G1 X121.863 Y132.654 E0.01958
G1 X97.353 Y108.145 E1.09131
G1 X97.286 Y107.543 E0.01909
G1 X122.449 Y132.705 E1.12041
G1 X123.036 Y132.757 E0.01854
G1 X97.245 Y106.965 E1.14839
G1 X97.212 Y106.397 E0.01793
G1 X123.606 Y132.791 E1.17525
G1 X124.160 Y132.810 E0.01745
G1 X97.179 Y105.829 E1.20135
G1 X97.175 Y105.289 E0.01699
G1 X124.714 Y132.828 E1.22620
M73 Q1 S96
M73 P1 R96
G1 X125.251 Y132.830 E0.01691
G1 X97.171 Y104.750 E1.25030
G1 X97.186 Y104.229 E0.01639
G1 X125.770 Y132.813 E1.27272
G1 X126.288 Y132.796 E0.01634
G1 X97.207 Y103.715 E1.29489
G1 X97.228 Y103.200 E0.01622
G1 X126.800 Y132.772 E1.31675
G1 X127.294 Y132.731 E0.01562
G1 X97.266 Y102.702 E1.33706
G1 X97.306 Y102.207 E0.01563
G1 X127.789 Y132.690 E1.35727
G1 X128.267 Y132.633 E0.01518
G1 X97.362 Y101.728 E1.37608
G1 X97.426 Y101.257 E0.01498
G1 X128.740 Y132.570 E1.39429
G1 X129.213 Y132.508 E0.01502
G1 X97.490 Y100.785 E1.41249
G1 X97.567 Y100.327 E0.01464
G1 X129.672 Y132.432 E1.42951
G1 X130.124 Y132.348 E0.01447
G1 X97.651 Y99.875 E1.44590
G1 X97.735 Y99.424 E0.01446
G1 X130.576 Y132.265 E1.46228
G1 X131.015 Y132.168 E0.01415
G1 X97.831 Y98.984 E1.47756
G1 X97.933 Y98.550 E0.01402
G1 X131.448 Y132.065 E1.49228
G1 X131.880 Y131.962 E0.01400
G1 X98.035 Y98.117 E1.50700
G1 X98.150 Y97.696 E0.01372
G1 X132.307 Y131.854 E1.52089
G1 X132.724 Y131.734 E0.01363
G1 X98.270 Y97.281 E1.53409
G1 X98.390 Y96.865 E0.01362
G1 X133.140 Y131.615 E1.54728
G1 X133.543 Y131.483 E0.01336
G1 X98.515 Y96.455 E1.55965
G1 X98.653 Y96.058 E0.01325
G1 X133.945 Y131.350 E1.57142
G1 X134.346 Y131.215 E0.01331
G1 X98.791 Y95.660 E1.58312
G1 X98.929 Y95.263 E0.01325
G1 X134.733 Y131.066 E1.59419
G1 X135.119 Y130.917 E0.01304
G1 X99.079 Y94.877 E1.60474
G1 X99.232 Y94.494 E0.01297
G1 X135.506 Y130.768 E1.61513
G1 X135.884 Y130.611 E0.01289
G1 X99.386 Y94.113 E1.62512
G1 X99.551 Y93.743 E0.01276
G1 X136.254 Y130.445 E1.63421
M73 Q2 S95
M73 P2 R95
G1 X136.623 Y130.279 E0.01276
G1 X99.717 Y93.373 E1.64330
G1 X99.887 Y93.008 E0.01269
G1 X136.993 Y130.114 E1.65219
G1 X137.351 Y129.936 E0.01258
G1 X100.067 Y92.652 E1.66011
G1 X100.247 Y92.296 E0.01255
G1 X137.706 Y129.756 E1.66793
G1 X138.061 Y129.575 E0.01254
G1 X100.427 Y91.940 E1.67574
G1 X100.615 Y91.594 E0.01243
G1 X138.405 Y129.383 E1.68263
G1 X138.746 Y129.189 E0.01236
G1 X100.811 Y91.254 E1.68911
G1 X101.006 Y90.913 E0.01235
G1 X139.087 Y128.994 E1.69559
G1 X139.427 Y128.799 E0.01236
G1 X101.201 Y90.573 E1.70206
G1 X101.408 Y90.244 E0.01223
G1 X139.756 Y128.592 E1.70749
G1 X140.082 Y128.383 E0.01221
G1 X101.618 Y89.919 E1.71269
G1 X101.827 Y89.593 E0.01220
G1 X140.409 Y128.174 E1.71789
G1 X140.729 Y127.959 E0.01215
G1 X102.041 Y89.271 E1.72263
G1 X102.263 Y88.958 E0.01209
G1 X141.041 Y127.735 E1.72663
G1 X141.353 Y127.512 E0.01208
G1 X102.485 Y88.644 E1.73063
G1 X102.710 Y88.334 E0.01207
G1 X141.665 Y127.289 E1.73452
G1 X141.971 Y127.059 E0.01204
G1 X102.945 Y88.033 E1.73767
G1 X103.180 Y87.733 E0.01201
G1 X142.272 Y126.825 E1.74060
G1 X142.572 Y126.589 E0.01201
G1 X103.416 Y87.433 E1.74348
G1 X103.658 Y87.140 E0.01197
G1 X142.858 Y126.340 E1.74544
G1 X143.145 Y126.091 E0.01195
G1 X103.906 Y86.852 E1.74715
G1 X104.155 Y86.565 E0.01195
G1 X143.432 Y125.842 E1.74886
M73 Q3 S94
M73 P3 R94
G1 X143.718 Y125.593 E0.01195
G1 X104.405 Y86.280 E1.75047
G1 X104.665 Y86.004 E0.01193
G1 X143.995 Y125.335 E1.75124
G1 X144.267 Y125.071 E0.01192
G1 X104.924 Y85.728 E1.75180
G1 X105.183 Y85.452 E0.01193
G1 X144.539 Y124.808 E1.75237
G1 X144.812 Y124.545 E0.01192
G1 X105.455 Y85.188 E1.75238
G1 X105.731 Y84.929 E0.01193
G1 X145.074 Y124.272 E1.75180
G1 X145.334 Y123.996 E0.01193
